; Generated with:
; "Raster 2 Laser Gcode generator"
; by 305 Engineering
;
;
;
G21; Set units to millimeters
G90; Use absolute coordinates
G92; Coordinate Offset
G00 X76.0 Y31.0
M03
G01 X75.0 Y31.0 F200
M05
G00 X43.0 Y31.0
M03
G01 X42.0 Y31.0 F200
M05
G00 X42.0 Y32.0
M03
G01 X45.0 Y32.0 F200
M05
G00 X73.0 Y32.0
M03
G01 X76.0 Y32.0 F200
M05
G00 X75.0 Y33.0
M03
G01 X72.0 Y33.0 F200
M05
G00 X46.0 Y33.0
M03
G01 X43.0 Y33.0 F200
M05
G00 X43.0 Y34.0
M03
G01 X44.0 Y34.0 F200
M05
G00 X46.0 Y34.0
M03
G01 X48.0 Y34.0 F200
M05
G00 X70.0 Y34.0
M03
G01 X72.0 Y34.0 F200
M05
G00 X74.0 Y34.0
M03
G01 X75.0 Y34.0 F200
M05
G00 X75.0 Y35.0
M03
G01 X74.0 Y35.0 F200
M05
G00 X71.0 Y35.0
M03
G01 X69.0 Y35.0 F200
M05
G00 X49.0 Y35.0
M03
G01 X47.0 Y35.0 F200
M05
G00 X44.0 Y35.0
M03
G01 X43.0 Y35.0 F200
M05
G00 X43.0 Y36.0
M03
G01 X44.0 Y36.0 F200
M05
G00 X49.0 Y36.0
M03
G01 X51.0 Y36.0 F200
M05
G00 X67.0 Y36.0
M03
G01 X69.0 Y36.0 F200
M05
G00 X74.0 Y36.0
M03
G01 X75.0 Y36.0 F200
M05
G00 X74.0 Y37.0
M03
G01 X74.0 Y37.0 F200
M05
G00 X68.0 Y37.0
M03
G01 X66.0 Y37.0 F200
M05
G00 X52.0 Y37.0
M03
G01 X50.0 Y37.0 F200
M05
G00 X44.0 Y37.0
M03
G01 X44.0 Y37.0 F200
M05
G00 X44.0 Y38.0
M03
G01 X45.0 Y38.0 F200
M05
G00 X52.0 Y38.0
M03
G01 X54.0 Y38.0 F200
M05
G00 X64.0 Y38.0
M03
G01 X66.0 Y38.0 F200
M05
G00 X73.0 Y38.0
M03
G01 X74.0 Y38.0 F200
M05
G00 X74.0 Y39.0
M03
G01 X73.0 Y39.0 F200
M05
G00 X65.0 Y39.0
M03
G01 X63.0 Y39.0 F200
M05
G00 X55.0 Y39.0
M03
G01 X53.0 Y39.0 F200
M05
G00 X45.0 Y39.0
M03
G01 X44.0 Y39.0 F200
M05
G00 X45.0 Y40.0
M03
G01 X45.0 Y40.0 F200
M05
G00 X55.0 Y40.0
M03
G01 X57.0 Y40.0 F200
M05
G00 X61.0 Y40.0
M03
G01 X63.0 Y40.0 F200
M05
G00 X73.0 Y40.0
M03
G01 X73.0 Y40.0 F200
M05
G00 X133.0 Y40.0
M03
G01 X134.0 Y40.0 F200
M05
G00 X136.0 Y41.0
M03
G01 X133.0 Y41.0 F200
M05
G00 X73.0 Y41.0
M03
G01 X72.0 Y41.0 F200
M05
G00 X62.0 Y41.0
M03
G01 X60.0 Y41.0 F200
M05
G00 X58.0 Y41.0
M03
G01 X56.0 Y41.0 F200
M05
G00 X46.0 Y41.0
M03
G01 X45.0 Y41.0 F200
M05
G00 X45.0 Y42.0
M03
G01 X46.0 Y42.0 F200
M05
G00 X58.0 Y42.0
M03
G01 X60.0 Y42.0 F200
M05
G00 X72.0 Y42.0
M03
G01 X73.0 Y42.0 F200
M05
G00 X133.0 Y42.0
M03
G01 X138.0 Y42.0 F200
M05
G00 X140.0 Y43.0
M03
G01 X137.0 Y43.0 F200
M05
G00 X134.0 Y43.0
M03
G01 X133.0 Y43.0 F200
M05
G00 X73.0 Y43.0
M03
G01 X72.0 Y43.0 F200
M05
G00 X59.0 Y43.0
M03
G01 X59.0 Y43.0 F200
M05
G00 X46.0 Y43.0
M03
G01 X45.0 Y43.0 F200
M05
G00 X46.0 Y44.0
M03
G01 X47.0 Y44.0 F200
M05
G00 X71.0 Y44.0
M03
G01 X72.0 Y44.0 F200
M05
G00 X133.0 Y44.0
M03
G01 X134.0 Y44.0 F200
M05
G00 X139.0 Y44.0
M03
G01 X142.0 Y44.0 F200
M05
G00 X145.0 Y45.0
M03
G01 X142.0 Y45.0 F200
M05
G00 X134.0 Y45.0
M03
G01 X133.0 Y45.0 F200
M05
G00 X72.0 Y45.0
M03
G01 X71.0 Y45.0 F200
M05
G00 X47.0 Y45.0
M03
G01 X46.0 Y45.0 F200
M05
G00 X46.0 Y46.0
M03
G01 X47.0 Y46.0 F200
M05
G00 X71.0 Y46.0
M03
G01 X72.0 Y46.0 F200
M05
G00 X133.0 Y46.0
M03
G01 X134.0 Y46.0 F200
M05
G00 X144.0 Y46.0
M03
G01 X147.0 Y46.0 F200
M05
G00 X149.0 Y47.0
M03
G01 X146.0 Y47.0 F200
M05
G00 X134.0 Y47.0
M03
G01 X106.0 Y47.0 F200
M05
G00 X71.0 Y47.0
M03
G01 X71.0 Y47.0 F200
M05
G00 X47.0 Y47.0
M03
G01 X47.0 Y47.0 F200
M05
G00 X47.0 Y48.0
M03
G01 X48.0 Y48.0 F200
M05
G00 X70.0 Y48.0
M03
G01 X71.0 Y48.0 F200
M05
G00 X106.0 Y48.0
M03
G01 X106.0 Y48.0 F200
M05
G00 X148.0 Y48.0
M03
G01 X151.0 Y48.0 F200
M05
G00 X153.0 Y49.0
M03
G01 X150.0 Y49.0 F200
M05
G00 X106.0 Y49.0
M03
G01 X106.0 Y49.0 F200
M05
G00 X71.0 Y49.0
M03
G01 X70.0 Y49.0 F200
M05
G00 X48.0 Y49.0
M03
G01 X47.0 Y49.0 F200
M05
G00 X47.0 Y50.0
M03
G01 X48.0 Y50.0 F200
M05
G00 X70.0 Y50.0
M03
G01 X71.0 Y50.0 F200
M05
G00 X106.0 Y50.0
M03
G01 X106.0 Y50.0 F200
M05
G00 X152.0 Y50.0
M03
G01 X155.0 Y50.0 F200
M05
G00 X157.0 Y51.0
M03
G01 X154.0 Y51.0 F200
M05
G00 X106.0 Y51.0
M03
G01 X106.0 Y51.0 F200
M05
G00 X72.0 Y51.0
M03
G01 X70.0 Y51.0 F200
M05
G00 X48.0 Y51.0
M03
G01 X46.0 Y51.0 F200
M05
G00 X45.0 Y52.0
M03
G01 X47.0 Y52.0 F200
M05
G00 X71.0 Y52.0
M03
G01 X73.0 Y52.0 F200
M05
G00 X106.0 Y52.0
M03
G01 X106.0 Y52.0 F200
M05
G00 X156.0 Y52.0
M03
G01 X159.0 Y52.0 F200
M05
G00 X161.0 Y53.0
M03
G01 X158.0 Y53.0 F200
M05
G00 X106.0 Y53.0
M03
G01 X106.0 Y53.0 F200
M05
G00 X74.0 Y53.0
M03
G01 X73.0 Y53.0 F200
M05
G00 X45.0 Y53.0
M03
G01 X44.0 Y53.0 F200
M05
G00 X42.0 Y54.0
M03
G01 X44.0 Y54.0 F200
M05
G00 X74.0 Y54.0
M03
G01 X76.0 Y54.0 F200
M05
G00 X106.0 Y54.0
M03
G01 X106.0 Y54.0 F200
M05
G00 X159.0 Y54.0
M03
G01 X161.0 Y54.0 F200
M05
G00 X159.0 Y55.0
M03
G01 X157.0 Y55.0 F200
M05
G00 X106.0 Y55.0
M03
G01 X106.0 Y55.0 F200
M05
G00 X77.0 Y55.0
M03
G01 X75.0 Y55.0 F200
M05
G00 X43.0 Y55.0
M03
G01 X41.0 Y55.0 F200
M05
G00 X40.0 Y56.0
M03
G01 X41.0 Y56.0 F200
M05
G00 X77.0 Y56.0
M03
G01 X78.0 Y56.0 F200
M05
G00 X106.0 Y56.0
M03
G01 X106.0 Y56.0 F200
M05
G00 X154.0 Y56.0
M03
G01 X157.0 Y56.0 F200
M05
G00 X155.0 Y57.0
M03
G01 X152.0 Y57.0 F200
M05
G00 X106.0 Y57.0
M03
G01 X106.0 Y57.0 F200
M05
G00 X80.0 Y57.0
M03
G01 X78.0 Y57.0 F200
M05
G00 X40.0 Y57.0
M03
G01 X38.0 Y57.0 F200
M05
G00 X37.0 Y58.0
M03
G01 X39.0 Y58.0 F200
M05
G00 X79.0 Y58.0
M03
G01 X81.0 Y58.0 F200
M05
G00 X106.0 Y58.0
M03
G01 X106.0 Y58.0 F200
M05
G00 X150.0 Y58.0
M03
G01 X153.0 Y58.0 F200
M05
G00 X151.0 Y59.0
M03
G01 X148.0 Y59.0 F200
M05
G00 X106.0 Y59.0
M03
G01 X106.0 Y59.0 F200
M05
G00 X82.0 Y59.0
M03
G01 X81.0 Y59.0 F200
M05
G00 X37.0 Y59.0
M03
G01 X36.0 Y59.0 F200
M05
G00 X34.0 Y60.0
M03
G01 X36.0 Y60.0 F200
M05
G00 X82.0 Y60.0
M03
G01 X84.0 Y60.0 F200
M05
G00 X106.0 Y60.0
M03
G01 X134.0 Y60.0 F200
M05
G00 X146.0 Y60.0
M03
G01 X149.0 Y60.0 F200
M05
G00 X147.0 Y61.0
M03
G01 X144.0 Y61.0 F200
M05
G00 X134.0 Y61.0
M03
G01 X106.0 Y61.0 F200
M05
G00 X85.0 Y61.0
M03
G01 X83.0 Y61.0 F200
M05
G00 X35.0 Y61.0
M03
G01 X33.0 Y61.0 F200
M05
G00 X32.0 Y62.0
M03
G01 X48.0 Y62.0 F200
M05
G00 X69.0 Y62.0
M03
G01 X86.0 Y62.0 F200
M05
G00 X133.0 Y62.0
M03
G01 X134.0 Y62.0 F200
M05
G00 X142.0 Y62.0
M03
G01 X145.0 Y62.0 F200
M05
G00 X143.0 Y63.0
M03
G01 X140.0 Y63.0 F200
M05
G00 X134.0 Y63.0
M03
G01 X133.0 Y63.0 F200
M05
G00 X86.0 Y63.0
M03
G01 X65.0 Y63.0 F200
M05
G00 X53.0 Y63.0
M03
G01 X32.0 Y63.0 F200
M05
G00 X52.0 Y64.0
M03
G01 X53.0 Y64.0 F200
M05
G00 X65.0 Y64.0
M03
G01 X66.0 Y64.0 F200
M05
G00 X133.0 Y64.0
M03
G01 X134.0 Y64.0 F200
M05
G00 X138.0 Y64.0
M03
G01 X141.0 Y64.0 F200
M05
G00 X139.0 Y65.0
M03
G01 X136.0 Y65.0 F200
M05
G00 X134.0 Y65.0
M03
G01 X133.0 Y65.0 F200
M05
G00 X65.0 Y65.0
M03
G01 X64.0 Y65.0 F200
M05
G00 X54.0 Y65.0
M03
G01 X53.0 Y65.0 F200
M05
G00 X53.0 Y66.0
M03
G01 X54.0 Y66.0 F200
M05
G00 X64.0 Y66.0
M03
G01 X65.0 Y66.0 F200
M05
G00 X133.0 Y66.0
M03
G01 X137.0 Y66.0 F200
M05
G00 X134.0 Y67.0
M03
G01 X133.0 Y67.0 F200
M05
G00 X65.0 Y67.0
M03
G01 X64.0 Y67.0 F200
M05
G00 X54.0 Y67.0
M03
G01 X54.0 Y67.0 F200
M05
G00 X54.0 Y68.0
M03
G01 X55.0 Y68.0 F200
M05
G00 X63.0 Y68.0
M03
G01 X64.0 Y68.0 F200
M05
G00 X64.0 Y69.0
M03
G01 X63.0 Y69.0 F200
M05
G00 X55.0 Y69.0
M03
G01 X54.0 Y69.0 F200
M05
G00 X55.0 Y70.0
M03
G01 X55.0 Y70.0 F200
M05
G00 X63.0 Y70.0
M03
G01 X63.0 Y70.0 F200
M05
G00 X63.0 Y71.0
M03
G01 X62.0 Y71.0 F200
M05
G00 X56.0 Y71.0
M03
G01 X55.0 Y71.0 F200
M05
G00 X55.0 Y72.0
M03
G01 X56.0 Y72.0 F200
M05
G00 X62.0 Y72.0
M03
G01 X63.0 Y72.0 F200
M05
G00 X63.0 Y73.0
M03
G01 X62.0 Y73.0 F200
M05
G00 X56.0 Y73.0
M03
G01 X56.0 Y73.0 F200
M05
G00 X56.0 Y74.0
M03
G01 X57.0 Y74.0 F200
M05
G00 X61.0 Y74.0
M03
G01 X62.0 Y74.0 F200
M05
G00 X62.0 Y75.0
M03
G01 X61.0 Y75.0 F200
M05
G00 X57.0 Y75.0
M03
G01 X56.0 Y75.0 F200
M05
G00 X57.0 Y76.0
M03
G01 X57.0 Y76.0 F200
M05
G00 X61.0 Y76.0
M03
G01 X61.0 Y76.0 F200
M05
G00 X61.0 Y77.0
M03
G01 X60.0 Y77.0 F200
M05
G00 X58.0 Y77.0
M03
G01 X57.0 Y77.0 F200
M05
G00 X57.0 Y78.0
M03
G01 X58.0 Y78.0 F200
M05
G00 X60.0 Y78.0
M03
G01 X61.0 Y78.0 F200
M05
G00 X60.0 Y79.0
M03
G01 X60.0 Y79.0 F200
M05
G00 X58.0 Y79.0
M03
G01 X58.0 Y79.0 F200
M05
G00 X58.0 Y80.0
M03
G01 X60.0 Y80.0 F200
M05
G00 X60.0 Y81.0
M03
G01 X58.0 Y81.0 F200
M05
G00 X59.0 Y82.0
M03
G01 X59.0 Y82.0 F200
M05
G00 X111.0 Y96.0
M03
G01 X125.0 Y96.0 F200
M05
G00 X128.0 Y97.0
M03
G01 X121.0 Y97.0 F200
M05
G00 X114.0 Y97.0
M03
G01 X107.0 Y97.0 F200
M05
G00 X105.0 Y98.0
M03
G01 X109.0 Y98.0 F200
M05
G00 X127.0 Y98.0
M03
G01 X131.0 Y98.0 F200
M05
G00 X133.0 Y99.0
M03
G01 X130.0 Y99.0 F200
M05
G00 X106.0 Y99.0
M03
G01 X103.0 Y99.0 F200
M05
G00 X101.0 Y100.0
M03
G01 X103.0 Y100.0 F200
M05
G00 X132.0 Y100.0
M03
G01 X134.0 Y100.0 F200
M05
G00 X136.0 Y101.0
M03
G01 X134.0 Y101.0 F200
M05
G00 X102.0 Y101.0
M03
G01 X100.0 Y101.0 F200
M05
G00 X98.0 Y102.0
M03
G01 X100.0 Y102.0 F200
M05
G00 X135.0 Y102.0
M03
G01 X137.0 Y102.0 F200
M05
G00 X138.0 Y103.0
M03
G01 X137.0 Y103.0 F200
M05
G00 X99.0 Y103.0
M03
G01 X97.0 Y103.0 F200
M05
G00 X96.0 Y104.0
M03
G01 X97.0 Y104.0 F200
M05
G00 X138.0 Y104.0
M03
G01 X139.0 Y104.0 F200
M05
G00 X140.0 Y105.0
M03
G01 X139.0 Y105.0 F200
M05
G00 X96.0 Y105.0
M03
G01 X95.0 Y105.0 F200
M05
G00 X95.0 Y106.0
M03
G01 X96.0 Y106.0 F200
M05
G00 X140.0 Y106.0
M03
G01 X141.0 Y106.0 F200
M05
G00 X142.0 Y107.0
M03
G01 X141.0 Y107.0 F200
M05
G00 X95.0 Y107.0
M03
G01 X94.0 Y107.0 F200
M05
G00 X93.0 Y108.0
M03
G01 X94.0 Y108.0 F200
M05
G00 X141.0 Y108.0
M03
G01 X142.0 Y108.0 F200
M05
G00 X143.0 Y109.0
M03
G01 X142.0 Y109.0 F200
M05
G00 X94.0 Y109.0
M03
G01 X93.0 Y109.0 F200
M05
G00 X92.0 Y110.0
M03
G01 X93.0 Y110.0 F200
M05
G00 X142.0 Y110.0
M03
G01 X143.0 Y110.0 F200
M05
G00 X144.0 Y111.0
M03
G01 X143.0 Y111.0 F200
M05
G00 X93.0 Y111.0
M03
G01 X92.0 Y111.0 F200
M05
G00 X91.0 Y112.0
M03
G01 X92.0 Y112.0 F200
M05
G00 X143.0 Y112.0
M03
G01 X144.0 Y112.0 F200
M05
G00 X144.0 Y113.0
M03
G01 X144.0 Y113.0 F200
M05
G00 X92.0 Y113.0
M03
G01 X91.0 Y113.0 F200
M05
G00 X91.0 Y114.0
M03
G01 X92.0 Y114.0 F200
M05
G00 X144.0 Y114.0
M03
G01 X144.0 Y114.0 F200
M05
G00 X145.0 Y115.0
M03
G01 X144.0 Y115.0 F200
M05
G00 X92.0 Y115.0
M03
G01 X91.0 Y115.0 F200
M05
G00 X91.0 Y116.0
M03
G01 X91.0 Y116.0 F200
M05
G00 X144.0 Y116.0
M03
G01 X145.0 Y116.0 F200
M05
G00 X145.0 Y117.0
M03
G01 X144.0 Y117.0 F200
M05
G00 X91.0 Y117.0
M03
G01 X91.0 Y117.0 F200
M05
G00 X24.0 Y118.0
M03
G01 X62.0 Y118.0 F200
M05
G00 X91.0 Y118.0
M03
G01 X91.0 Y118.0 F200
M05
G00 X144.0 Y118.0
M03
G01 X145.0 Y118.0 F200
M05
G00 X145.0 Y119.0
M03
G01 X144.0 Y119.0 F200
M05
G00 X92.0 Y119.0
M03
G01 X91.0 Y119.0 F200
M05
G00 X62.0 Y119.0
M03
G01 X61.0 Y119.0 F200
M05
G00 X25.0 Y119.0
M03
G01 X24.0 Y119.0 F200
M05
G00 X24.0 Y120.0
M03
G01 X25.0 Y120.0 F200
M05
G00 X61.0 Y120.0
M03
G01 X62.0 Y120.0 F200
M05
G00 X91.0 Y120.0
M03
G01 X92.0 Y120.0 F200
M05
G00 X144.0 Y120.0
M03
G01 X144.0 Y120.0 F200
M05
G00 X144.0 Y121.0
M03
G01 X144.0 Y121.0 F200
M05
G00 X92.0 Y121.0
M03
G01 X91.0 Y121.0 F200
M05
G00 X62.0 Y121.0
M03
G01 X61.0 Y121.0 F200
M05
G00 X25.0 Y121.0
M03
G01 X24.0 Y121.0 F200
M05
G00 X24.0 Y122.0
M03
G01 X25.0 Y122.0 F200
M05
G00 X61.0 Y122.0
M03
G01 X62.0 Y122.0 F200
M05
G00 X91.0 Y122.0
M03
G01 X92.0 Y122.0 F200
M05
G00 X143.0 Y122.0
M03
G01 X144.0 Y122.0 F200
M05
G00 X144.0 Y123.0
M03
G01 X143.0 Y123.0 F200
M05
G00 X93.0 Y123.0
M03
G01 X92.0 Y123.0 F200
M05
G00 X62.0 Y123.0
M03
G01 X61.0 Y123.0 F200
M05
G00 X25.0 Y123.0
M03
G01 X24.0 Y123.0 F200
M05
G00 X24.0 Y124.0
M03
G01 X25.0 Y124.0 F200
M05
G00 X61.0 Y124.0
M03
G01 X62.0 Y124.0 F200
M05
G00 X92.0 Y124.0
M03
G01 X93.0 Y124.0 F200
M05
G00 X142.0 Y124.0
M03
G01 X143.0 Y124.0 F200
M05
G00 X143.0 Y125.0
M03
G01 X142.0 Y125.0 F200
M05
G00 X94.0 Y125.0
M03
G01 X93.0 Y125.0 F200
M05
G00 X62.0 Y125.0
M03
G01 X61.0 Y125.0 F200
M05
G00 X25.0 Y125.0
M03
G01 X24.0 Y125.0 F200
M05
G00 X24.0 Y126.0
M03
G01 X25.0 Y126.0 F200
M05
G00 X61.0 Y126.0
M03
G01 X62.0 Y126.0 F200
M05
G00 X93.0 Y126.0
M03
G01 X94.0 Y126.0 F200
M05
G00 X141.0 Y126.0
M03
G01 X142.0 Y126.0 F200
M05
G00 X142.0 Y127.0
M03
G01 X141.0 Y127.0 F200
M05
G00 X95.0 Y127.0
M03
G01 X94.0 Y127.0 F200
M05
G00 X62.0 Y127.0
M03
G01 X61.0 Y127.0 F200
M05
G00 X25.0 Y127.0
M03
G01 X24.0 Y127.0 F200
M05
G00 X24.0 Y128.0
M03
G01 X25.0 Y128.0 F200
M05
G00 X61.0 Y128.0
M03
G01 X62.0 Y128.0 F200
M05
G00 X94.0 Y128.0
M03
G01 X96.0 Y128.0 F200
M05
G00 X140.0 Y128.0
M03
G01 X141.0 Y128.0 F200
M05
G00 X140.0 Y129.0
M03
G01 X139.0 Y129.0 F200
M05
G00 X96.0 Y129.0
M03
G01 X95.0 Y129.0 F200
M05
G00 X62.0 Y129.0
M03
G01 X61.0 Y129.0 F200
M05
G00 X25.0 Y129.0
M03
G01 X24.0 Y129.0 F200
M05
G00 X24.0 Y130.0
M03
G01 X25.0 Y130.0 F200
M05
G00 X61.0 Y130.0
M03
G01 X62.0 Y130.0 F200
M05
G00 X96.0 Y130.0
M03
G01 X97.0 Y130.0 F200
M05
G00 X138.0 Y130.0
M03
G01 X139.0 Y130.0 F200
M05
G00 X138.0 Y131.0
M03
G01 X137.0 Y131.0 F200
M05
G00 X99.0 Y131.0
M03
G01 X97.0 Y131.0 F200
M05
G00 X62.0 Y131.0
M03
G01 X61.0 Y131.0 F200
M05
G00 X25.0 Y131.0
M03
G01 X24.0 Y131.0 F200
M05
G00 X24.0 Y132.0
M03
G01 X25.0 Y132.0 F200
M05
G00 X61.0 Y132.0
M03
G01 X62.0 Y132.0 F200
M05
G00 X98.0 Y132.0
M03
G01 X100.0 Y132.0 F200
M05
G00 X136.0 Y132.0
M03
G01 X137.0 Y132.0 F200
M05
G00 X136.0 Y133.0
M03
G01 X134.0 Y133.0 F200
M05
G00 X101.0 Y133.0
M03
G01 X99.0 Y133.0 F200
M05
G00 X62.0 Y133.0
M03
G01 X61.0 Y133.0 F200
M05
G00 X25.0 Y133.0
M03
G01 X24.0 Y133.0 F200
M05
G00 X24.0 Y134.0
M03
G01 X25.0 Y134.0 F200
M05
G00 X61.0 Y134.0
M03
G01 X62.0 Y134.0 F200
M05
G00 X101.0 Y134.0
M03
G01 X103.0 Y134.0 F200
M05
G00 X132.0 Y134.0
M03
G01 X135.0 Y134.0 F200
M05
G00 X133.0 Y135.0
M03
G01 X130.0 Y135.0 F200
M05
G00 X105.0 Y135.0
M03
G01 X103.0 Y135.0 F200
M05
G00 X62.0 Y135.0
M03
G01 X61.0 Y135.0 F200
M05
G00 X25.0 Y135.0
M03
G01 X24.0 Y135.0 F200
M05
G00 X24.0 Y136.0
M03
G01 X25.0 Y136.0 F200
M05
G00 X61.0 Y136.0
M03
G01 X62.0 Y136.0 F200
M05
G00 X104.0 Y136.0
M03
G01 X108.0 Y136.0 F200
M05
G00 X127.0 Y136.0
M03
G01 X131.0 Y136.0 F200
M05
G00 X128.0 Y137.0
M03
G01 X122.0 Y137.0 F200
M05
G00 X114.0 Y137.0
M03
G01 X107.0 Y137.0 F200
M05
G00 X62.0 Y137.0
M03
G01 X61.0 Y137.0 F200
M05
G00 X25.0 Y137.0
M03
G01 X24.0 Y137.0 F200
M05
G00 X24.0 Y138.0
M03
G01 X25.0 Y138.0 F200
M05
G00 X61.0 Y138.0
M03
G01 X62.0 Y138.0 F200
M05
G00 X110.0 Y138.0
M03
G01 X125.0 Y138.0 F200
M05
G00 X62.0 Y139.0
M03
G01 X61.0 Y139.0 F200
M05
G00 X25.0 Y139.0
M03
G01 X24.0 Y139.0 F200
M05
G00 X24.0 Y140.0
M03
G01 X62.0 Y140.0 F200
M05
G00 X62.0 Y141.0
M03
G01 X24.0 Y141.0 F200
M05
G00 X0 Y0; home
