; Generated with:
; "Raster 2 Laser Gcode generator"
; by 305 Engineering
;
;
;
G21; Set units to millimeters
G90; Use absolute coordinates
G92; Coordinate Offset
G00 X12.0 Y0.4
M04  S20
G01 X12.2 Y0.4 F900
M04  S144
G01 X12.4 Y0.4 F900
M04  S164
G01 X12.6 Y0.4 F900
M04  S165
G01 X12.8 Y0.4 F900
M04  S124
G01 X13.0 Y0.4 F900
M04  S10
G01 X13.2 Y0.4 F900
M05
G00 X13.2 Y0.6
M04  S16
G01 X13.0 Y0.6 F900
M04  S191
G01 X12.8 Y0.6 F900
M04  S255
G01 X12.4 Y0.6 F900
M04  S223
G01 X12.2 Y0.6 F900
M04  S30
G01 X12.0 Y0.6 F900
M05
G00 X12.0 Y0.8
M04  S30
G01 X12.2 Y0.8 F900
M04  S223
G01 X12.4 Y0.8 F900
M04  S255
G01 X12.8 Y0.8 F900
M04  S191
G01 X13.0 Y0.8 F900
M04  S16
G01 X13.2 Y0.8 F900
M05
G00 X13.2 Y1.0
M04  S16
G01 X13.0 Y1.0 F900
M04  S191
G01 X12.8 Y1.0 F900
M04  S255
G01 X12.4 Y1.0 F900
M04  S223
G01 X12.2 Y1.0 F900
M04  S30
G01 X12.0 Y1.0 F900
M05
G00 X12.0 Y1.2
M04  S30
G01 X12.2 Y1.2 F900
M04  S223
G01 X12.4 Y1.2 F900
M04  S255
G01 X12.8 Y1.2 F900
M04  S191
G01 X13.0 Y1.2 F900
M04  S16
G01 X13.2 Y1.2 F900
M05
G00 X13.2 Y1.4
M04  S16
G01 X13.0 Y1.4 F900
M04  S191
G01 X12.8 Y1.4 F900
M04  S255
G01 X12.4 Y1.4 F900
M04  S223
G01 X12.2 Y1.4 F900
M04  S30
G01 X12.0 Y1.4 F900
M05
G00 X12.0 Y1.6
M04  S30
G01 X12.2 Y1.6 F900
M04  S223
G01 X12.4 Y1.6 F900
M04  S255
G01 X12.8 Y1.6 F900
M04  S191
G01 X13.0 Y1.6 F900
M04  S16
G01 X13.2 Y1.6 F900
M05
G00 X19.2 Y1.8
M04  S5
G01 X19.0 Y1.8 F900
M04  S3
G01 X18.8 Y1.8 F900
M05
G00 X13.2 Y1.8
M04  S16
G01 X13.0 Y1.8 F900
M04  S191
G01 X12.8 Y1.8 F900
M04  S255
G01 X12.4 Y1.8 F900
M04  S223
G01 X12.2 Y1.8 F900
M04  S30
G01 X12.0 Y1.8 F900
M05
G00 X12.0 Y2.0
M04  S30
G01 X12.2 Y2.0 F900
M04  S223
G01 X12.4 Y2.0 F900
M04  S255
G01 X12.8 Y2.0 F900
M04  S191
G01 X13.0 Y2.0 F900
M04  S16
G01 X13.2 Y2.0 F900
M05
G00 X18.8 Y2.0
M04  S76
G01 X19.0 Y2.0 F900
M04  S130
G01 X19.2 Y2.0 F900
M04  S29
G01 X19.4 Y2.0 F900
M05
G00 X19.8 Y2.2
M04  S10
G01 X19.6 Y2.2 F900
M04  S112
G01 X19.4 Y2.2 F900
M04  S225
G01 X19.2 Y2.2 F900
M04  S254
G01 X19.0 Y2.2 F900
M04  S201
G01 X18.8 Y2.2 F900
M04  S22
G01 X18.6 Y2.2 F900
M05
G00 X13.2 Y2.2
M04  S16
G01 X13.0 Y2.2 F900
M04  S191
G01 X12.8 Y2.2 F900
M04  S255
G01 X12.4 Y2.2 F900
M04  S223
G01 X12.2 Y2.2 F900
M04  S30
G01 X12.0 Y2.2 F900
M05
G00 X5.8 Y2.4
M04  S1
G01 X6.0 Y2.4 F900
M04  S25
G01 X6.2 Y2.4 F900
M04  S107
G01 X6.4 Y2.4 F900
M04  S41
G01 X6.6 Y2.4 F900
M05
G00 X12.0 Y2.4
M04  S30
G01 X12.2 Y2.4 F900
M04  S223
G01 X12.4 Y2.4 F900
M04  S255
G01 X12.8 Y2.4 F900
M04  S191
G01 X13.0 Y2.4 F900
M04  S16
G01 X13.2 Y2.4 F900
M05
G00 X18.6 Y2.4
M04  S121
G01 X18.8 Y2.4 F900
M04  S248
G01 X19.0 Y2.4 F900
M04  S255
G01 X19.4 Y2.4 F900
M04  S208
G01 X19.6 Y2.4 F900
M04  S18
G01 X19.8 Y2.4 F900
M05
G00 X19.8 Y2.6
M04  S1
G01 X19.6 Y2.6 F900
M04  S100
G01 X19.4 Y2.6 F900
M04  S247
G01 X19.2 Y2.6 F900
M04  S255
G01 X18.8 Y2.6 F900
M04  S224
G01 X18.6 Y2.6 F900
M04  S35
G01 X18.4 Y2.6 F900
M05
G00 X13.2 Y2.6
M04  S16
G01 X13.0 Y2.6 F900
M04  S191
G01 X12.8 Y2.6 F900
M04  S255
G01 X12.4 Y2.6 F900
M04  S223
G01 X12.2 Y2.6 F900
M04  S30
G01 X12.0 Y2.6 F900
M05
G00 X6.8 Y2.6
M04  S8
G01 X6.6 Y2.6 F900
M04  S156
G01 X6.4 Y2.6 F900
M04  S246
G01 X6.2 Y2.6 F900
M04  S193
G01 X6.0 Y2.6 F900
M04  S85
G01 X5.8 Y2.6 F900
M04  S10
G01 X5.6 Y2.6 F900
M05
G00 X5.6 Y2.8
M04  S44
G01 X5.8 Y2.8 F900
M04  S220
G01 X6.0 Y2.8 F900
M04  S255
G01 X6.4 Y2.8 F900
M04  S242
G01 X6.6 Y2.8 F900
M04  S65
G01 X6.8 Y2.8 F900
M04  S1
G01 X7.0 Y2.8 F900
M05
G00 X12.0 Y2.8
M04  S30
G01 X12.2 Y2.8 F900
M04  S223
G01 X12.4 Y2.8 F900
M04  S255
G01 X12.8 Y2.8 F900
M04  S191
G01 X13.0 Y2.8 F900
M04  S16
G01 X13.2 Y2.8 F900
M05
G00 X18.2 Y2.8
M04  S7
G01 X18.4 Y2.8 F900
M04  S144
G01 X18.6 Y2.8 F900
M04  S254
G01 X18.8 Y2.8 F900
M04  S255
G01 X19.0 Y2.8 F900
M04  S254
G01 X19.2 Y2.8 F900
M04  S190
G01 X19.4 Y2.8 F900
M04  S14
G01 X19.6 Y2.8 F900
M05
G00 X19.4 Y3.0
M04  S75
G01 X19.2 Y3.0 F900
M04  S238
G01 X19.0 Y3.0 F900
M04  S255
G01 X18.6 Y3.0 F900
M04  S239
G01 X18.4 Y3.0 F900
M04  S55
G01 X18.2 Y3.0 F900
M05
G00 X13.2 Y3.0
M04  S16
G01 X13.0 Y3.0 F900
M04  S191
G01 X12.8 Y3.0 F900
M04  S255
G01 X12.4 Y3.0 F900
M04  S223
G01 X12.2 Y3.0 F900
M04  S30
G01 X12.0 Y3.0 F900
M05
G00 X7.0 Y3.0
M04  S17
G01 X6.8 Y3.0 F900
M04  S180
G01 X6.6 Y3.0 F900
M04  S255
G01 X6.2 Y3.0 F900
M04  S254
G01 X6.0 Y3.0 F900
M04  S150
G01 X5.8 Y3.0 F900
M04  S5
G01 X5.6 Y3.0 F900
M05
G00 X5.8 Y3.2
M04  S41
G01 X6.0 Y3.2 F900
M04  S215
G01 X6.2 Y3.2 F900
M04  S255
G01 X6.6 Y3.2 F900
M04  S249
G01 X6.8 Y3.2 F900
M04  S101
G01 X7.0 Y3.2 F900
M04  S1
G01 X7.2 Y3.2 F900
M05
G00 X12.0 Y3.2
M04  S30
G01 X12.2 Y3.2 F900
M04  S223
G01 X12.4 Y3.2 F900
M04  S255
G01 X12.8 Y3.2 F900
M04  S191
G01 X13.0 Y3.2 F900
M04  S16
G01 X13.2 Y3.2 F900
M05
G00 X18.0 Y3.2
M04  S16
G01 X18.2 Y3.2 F900
M04  S177
G01 X18.4 Y3.2 F900
M04  S255
G01 X18.8 Y3.2 F900
M04  S254
G01 X19.0 Y3.2 F900
M04  S154
G01 X19.2 Y3.2 F900
M04  S6
G01 X19.4 Y3.2 F900
M05
G00 X19.2 Y3.4
M04  S49
G01 X19.0 Y3.4 F900
M04  S220
G01 X18.8 Y3.4 F900
M04  S255
G01 X18.4 Y3.4 F900
M04  S245
G01 X18.2 Y3.4 F900
M04  S92
G01 X18.0 Y3.4 F900
M04  S1
G01 X17.8 Y3.4 F900
M05
G00 X13.2 Y3.4
M04  S16
G01 X13.0 Y3.4 F900
M04  S191
G01 X12.8 Y3.4 F900
M04  S255
G01 X12.4 Y3.4 F900
M04  S223
G01 X12.2 Y3.4 F900
M04  S30
G01 X12.0 Y3.4 F900
M05
G00 X7.2 Y3.4
M04  S35
G01 X7.0 Y3.4 F900
M04  S206
G01 X6.8 Y3.4 F900
M04  S255
G01 X6.4 Y3.4 F900
M04  S251
G01 X6.2 Y3.4 F900
M04  S112
G01 X6.0 Y3.4 F900
M04  S3
G01 X5.8 Y3.4 F900
M05
G00 X6.0 Y3.6
M04  S25
G01 X6.2 Y3.6 F900
M04  S196
G01 X6.4 Y3.6 F900
M04  S255
G01 X6.8 Y3.6 F900
M04  S250
G01 X7.0 Y3.6 F900
M04  S132
G01 X7.2 Y3.6 F900
M04  S3
G01 X7.4 Y3.6 F900
M05
G00 X12.0 Y3.6
M04  S30
G01 X12.2 Y3.6 F900
M04  S223
G01 X12.4 Y3.6 F900
M04  S255
G01 X12.8 Y3.6 F900
M04  S191
G01 X13.0 Y3.6 F900
M04  S16
G01 X13.2 Y3.6 F900
M05
G00 X17.8 Y3.6
M04  S30
G01 X18.0 Y3.6 F900
M04  S197
G01 X18.2 Y3.6 F900
M04  S255
G01 X18.6 Y3.6 F900
M04  S252
G01 X18.8 Y3.6 F900
M04  S123
G01 X19.0 Y3.6 F900
M04  S5
G01 X19.2 Y3.6 F900
M05
G00 X19.0 Y3.8
M04  S30
G01 X18.8 Y3.8 F900
M04  S205
G01 X18.6 Y3.8 F900
M04  S255
G01 X18.2 Y3.8 F900
M04  S249
G01 X18.0 Y3.8 F900
M04  S122
G01 X17.8 Y3.8 F900
M04  S2
G01 X17.6 Y3.8 F900
M05
G00 X13.2 Y3.8
M04  S16
G01 X13.0 Y3.8 F900
M04  S191
G01 X12.8 Y3.8 F900
M04  S255
G01 X12.4 Y3.8 F900
M04  S223
G01 X12.2 Y3.8 F900
M04  S30
G01 X12.0 Y3.8 F900
M05
G00 X7.4 Y3.8
M04  S52
G01 X7.2 Y3.8 F900
M04  S225
G01 X7.0 Y3.8 F900
M04  S255
G01 X6.6 Y3.8 F900
M04  S248
G01 X6.4 Y3.8 F900
M04  S82
G01 X6.2 Y3.8 F900
M04  S2
G01 X6.0 Y3.8 F900
M05
G00 X6.2 Y4.0
M04  S9
G01 X6.4 Y4.0 F900
M04  S179
G01 X6.6 Y4.0 F900
M04  S254
G01 X6.8 Y4.0 F900
M04  S255
G01 X7.0 Y4.0 F900
M04  S253
G01 X7.2 Y4.0 F900
M04  S164
G01 X7.4 Y4.0 F900
M04  S3
G01 X7.6 Y4.0 F900
M05
G00 X12.0 Y4.0
M04  S30
G01 X12.2 Y4.0 F900
M04  S223
G01 X12.4 Y4.0 F900
M04  S255
G01 X12.8 Y4.0 F900
M04  S191
G01 X13.0 Y4.0 F900
M04  S16
G01 X13.2 Y4.0 F900
M05
G00 X17.6 Y4.0
M04  S41
G01 X17.8 Y4.0 F900
M04  S222
G01 X18.0 Y4.0 F900
M04  S255
G01 X18.4 Y4.0 F900
M04  S252
G01 X18.6 Y4.0 F900
M04  S91
G01 X18.8 Y4.0 F900
M04  S2
G01 X19.0 Y4.0 F900
M05
G00 X18.8 Y4.2
M04  S9
G01 X18.6 Y4.2 F900
M04  S184
G01 X18.4 Y4.2 F900
M04  S254
G01 X18.2 Y4.2 F900
M04  S255
G01 X18.0 Y4.2 F900
M04  S253
G01 X17.8 Y4.2 F900
M04  S159
G01 X17.6 Y4.2 F900
M04  S3
G01 X17.4 Y4.2 F900
M05
G00 X13.2 Y4.2
M04  S16
G01 X13.0 Y4.2 F900
M04  S191
G01 X12.8 Y4.2 F900
M04  S255
G01 X12.4 Y4.2 F900
M04  S223
G01 X12.2 Y4.2 F900
M04  S30
G01 X12.0 Y4.2 F900
M05
G00 X7.8 Y4.2
M04  S1
G01 X7.6 Y4.2 F900
M04  S73
G01 X7.4 Y4.2 F900
M04  S245
G01 X7.2 Y4.2 F900
M04  S255
G01 X6.8 Y4.2 F900
M04  S236
G01 X6.6 Y4.2 F900
M04  S52
G01 X6.4 Y4.2 F900
M05
G00 X6.4 Y4.4
M04  S3
G01 X6.6 Y4.4 F900
M04  S144
G01 X6.8 Y4.4 F900
M04  S251
G01 X7.0 Y4.4 F900
M04  S255
G01 X7.4 Y4.4 F900
M04  S193
G01 X7.6 Y4.4 F900
M04  S17
G01 X7.8 Y4.4 F900
M05
G00 X12.0 Y4.4
M04  S30
G01 X12.2 Y4.4 F900
M04  S223
G01 X12.4 Y4.4 F900
M04  S255
G01 X12.8 Y4.4 F900
M04  S191
G01 X13.0 Y4.4 F900
M04  S16
G01 X13.2 Y4.4 F900
M05
G00 X17.2 Y4.4
M04  S1
G01 X17.4 Y4.4 F900
M04  S64
G01 X17.6 Y4.4 F900
M04  S241
G01 X17.8 Y4.4 F900
M04  S255
G01 X18.2 Y4.4 F900
M04  S238
G01 X18.4 Y4.4 F900
M04  S63
G01 X18.6 Y4.4 F900
M05
G00 X18.6 Y4.6
M04  S5
G01 X18.4 Y4.6 F900
M04  S154
G01 X18.2 Y4.6 F900
M04  S252
G01 X18.0 Y4.6 F900
M04  S255
G01 X17.8 Y4.6 F900
M04  S254
G01 X17.6 Y4.6 F900
M04  S182
G01 X17.4 Y4.6 F900
M04  S14
G01 X17.2 Y4.6 F900
M05
G00 X13.2 Y4.6
M04  S16
G01 X13.0 Y4.6 F900
M04  S191
G01 X12.8 Y4.6 F900
M04  S255
G01 X12.4 Y4.6 F900
M04  S223
G01 X12.2 Y4.6 F900
M04  S30
G01 X12.0 Y4.6 F900
M05
G00 X10.6 Y4.6
M04  S5
G01 X10.4 Y4.6 F900
M04  S1
G01 X10.2 Y4.6 F900
M05
G00 X8.0 Y4.6
M04  S3
G01 X7.8 Y4.6 F900
M04  S101
G01 X7.6 Y4.6 F900
M04  S251
G01 X7.4 Y4.6 F900
M04  S255
G01 X7.0 Y4.6 F900
M04  S213
G01 X6.8 Y4.6 F900
M04  S40
G01 X6.6 Y4.6 F900
M05
G00 X6.6 Y4.8
M04  S2
G01 X6.8 Y4.8 F900
M04  S114
G01 X7.0 Y4.8 F900
M04  S248
G01 X7.2 Y4.8 F900
M04  S255
G01 X7.6 Y4.8 F900
M04  S209
G01 X7.8 Y4.8 F900
M04  S35
G01 X8.0 Y4.8 F900
M05
G00 X9.8 Y4.8
M04  S1
G01 X10.0 Y4.8 F900
M04  S41
G01 X10.2 Y4.8 F900
M04  S107
G01 X10.4 Y4.8 F900
M04  S131
G01 X10.6 Y4.8 F900
M04  S9
G01 X10.8 Y4.8 F900
M05
G00 X12.0 Y4.8
M04  S30
G01 X12.2 Y4.8 F900
M04  S223
G01 X12.4 Y4.8 F900
M04  S255
G01 X12.8 Y4.8 F900
M04  S191
G01 X13.0 Y4.8 F900
M04  S16
G01 X13.2 Y4.8 F900
M05
G00 X17.0 Y4.8
M04  S2
G01 X17.2 Y4.8 F900
M04  S90
G01 X17.4 Y4.8 F900
M04  S249
G01 X17.6 Y4.8 F900
M04  S255
G01 X18.0 Y4.8 F900
M04  S220
G01 X18.2 Y4.8 F900
M04  S47
G01 X18.4 Y4.8 F900
M05
G00 X18.4 Y5.0
M04  S2
G01 X18.2 Y5.0 F900
M04  S124
G01 X18.0 Y5.0 F900
M04  S251
G01 X17.8 Y5.0 F900
M04  S255
G01 X17.4 Y5.0 F900
M04  S202
G01 X17.2 Y5.0 F900
M04  S28
G01 X17.0 Y5.0 F900
M05
G00 X14.8 Y5.0
M04  S1
G01 X14.6 Y5.0 F900
M05
G00 X13.2 Y5.0
M04  S16
G01 X13.0 Y5.0 F900
M04  S191
G01 X12.8 Y5.0 F900
M04  S255
G01 X12.4 Y5.0 F900
M04  S223
G01 X12.2 Y5.0 F900
M04  S30
G01 X12.0 Y5.0 F900
M05
G00 X10.8 Y5.0
M04  S36
G01 X10.6 Y5.0 F900
M04  S238
G01 X10.4 Y5.0 F900
M04  S255
G01 X10.2 Y5.0 F900
M04  S130
G01 X10.0 Y5.0 F900
M04  S2
G01 X9.8 Y5.0 F900
M05
G00 X8.2 Y5.0
M04  S5
G01 X8.0 Y5.0 F900
M04  S131
G01 X7.8 Y5.0 F900
M04  S253
G01 X7.6 Y5.0 F900
M04  S255
G01 X7.2 Y5.0 F900
M04  S194
G01 X7.0 Y5.0 F900
M04  S24
G01 X6.8 Y5.0 F900
M05
G00 X7.0 Y5.2
M04  S77
G01 X7.2 Y5.2 F900
M04  S243
G01 X7.4 Y5.2 F900
M04  S255
G01 X7.8 Y5.2 F900
M04  S229
G01 X8.0 Y5.2 F900
M04  S58
G01 X8.2 Y5.2 F900
M05
G00 X10.0 Y5.2
M04  S75
G01 X10.2 Y5.2 F900
M04  S248
G01 X10.4 Y5.2 F900
M04  S255
G01 X10.6 Y5.2 F900
M04  S90
G01 X10.8 Y5.2 F900
M05
G00 X12.0 Y5.2
M04  S30
G01 X12.2 Y5.2 F900
M04  S223
G01 X12.4 Y5.2 F900
M04  S255
G01 X12.8 Y5.2 F900
M04  S191
G01 X13.0 Y5.2 F900
M04  S16
G01 X13.2 Y5.2 F900
M05
G00 X14.4 Y5.2
M04  S10
G01 X14.6 Y5.2 F900
M04  S141
G01 X14.8 Y5.2 F900
M04  S107
G01 X15.0 Y5.2 F900
M04  S39
G01 X15.2 Y5.2 F900
M05
G00 X16.8 Y5.2
M04  S4
G01 X17.0 Y5.2 F900
M04  S127
G01 X17.2 Y5.2 F900
M04  S253
G01 X17.4 Y5.2 F900
M04  S255
G01 X17.8 Y5.2 F900
M04  S197
G01 X18.0 Y5.2 F900
M04  S26
G01 X18.2 Y5.2 F900
M05
G00 X18.2 Y5.4
M04  S1
G01 X18.0 Y5.4 F900
M04  S86
G01 X17.8 Y5.4 F900
M04  S245
G01 X17.6 Y5.4 F900
M04  S255
G01 X17.2 Y5.4 F900
M04  S223
G01 X17.0 Y5.4 F900
M04  S52
G01 X16.8 Y5.4 F900
M05
G00 X15.2 Y5.4
M04  S118
G01 X15.0 Y5.4 F900
M04  S248
G01 X14.8 Y5.4 F900
M04  S242
G01 X14.6 Y5.4 F900
M04  S48
G01 X14.4 Y5.4 F900
M05
G00 X13.2 Y5.4
M04  S16
G01 X13.0 Y5.4 F900
M04  S191
G01 X12.8 Y5.4 F900
M04  S255
G01 X12.4 Y5.4 F900
M04  S223
G01 X12.2 Y5.4 F900
M04  S30
G01 X12.0 Y5.4 F900
M05
G00 X11.0 Y5.4
M04  S7
G01 X10.8 Y5.4 F900
M04  S151
G01 X10.6 Y5.4 F900
M04  S255
G01 X10.4 Y5.4 F900
M04  S221
G01 X10.2 Y5.4 F900
M04  S33
G01 X10.0 Y5.4 F900
M05
G00 X8.4 Y5.4
M04  S10
G01 X8.2 Y5.4 F900
M04  S169
G01 X8.0 Y5.4 F900
M04  S254
G01 X7.8 Y5.4 F900
M04  S255
G01 X7.4 Y5.4 F900
M04  S162
G01 X7.2 Y5.4 F900
M04  S13
G01 X7.0 Y5.4 F900
M05
G00 X7.2 Y5.6
M04  S50
G01 X7.4 Y5.6 F900
M04  S234
G01 X7.6 Y5.6 F900
M04  S255
G01 X8.0 Y5.6 F900
M04  S239
G01 X8.2 Y5.6 F900
M04  S83
G01 X8.4 Y5.6 F900
M05
G00 X10.0 Y5.6
M04  S12
G01 X10.2 Y5.6 F900
M04  S176
G01 X10.4 Y5.6 F900
M04  S255
G01 X10.6 Y5.6 F900
M04  S203
G01 X10.8 Y5.6 F900
M04  S21
G01 X11.0 Y5.6 F900
M05
G00 X12.0 Y5.6
M04  S30
G01 X12.2 Y5.6 F900
M04  S223
G01 X12.4 Y5.6 F900
M04  S255
G01 X12.8 Y5.6 F900
M04  S191
G01 X13.0 Y5.6 F900
M04  S16
G01 X13.2 Y5.6 F900
M05
G00 X14.2 Y5.6
M04  S1
G01 X14.4 Y5.6 F900
M04  S104
G01 X14.6 Y5.6 F900
M04  S252
G01 X14.8 Y5.6 F900
M04  S240
G01 X15.0 Y5.6 F900
M04  S71
G01 X15.2 Y5.6 F900
M05
G00 X16.6 Y5.6
M04  S8
G01 X16.8 Y5.6 F900
M04  S158
G01 X17.0 Y5.6 F900
M04  S253
G01 X17.2 Y5.6 F900
M04  S255
G01 X17.6 Y5.6 F900
M04  S173
G01 X17.8 Y5.6 F900
M04  S16
G01 X18.0 Y5.6 F900
M05
G00 X18.0 Y5.8
M04  S1
G01 X17.8 Y5.8 F900
M04  S58
G01 X17.6 Y5.8 F900
M04  S240
G01 X17.4 Y5.8 F900
M04  S255
G01 X17.0 Y5.8 F900
M04  S236
G01 X16.8 Y5.8 F900
M04  S73
G01 X16.6 Y5.8 F900
M05
G00 X15.2 Y5.8
M04  S32
G01 X15.0 Y5.8 F900
M04  S213
G01 X14.8 Y5.8 F900
M04  S254
G01 X14.6 Y5.8 F900
M04  S166
G01 X14.4 Y5.8 F900
M04  S6
G01 X14.2 Y5.8 F900
M05
G00 X13.2 Y5.8
M04  S16
G01 X13.0 Y5.8 F900
M04  S191
G01 X12.8 Y5.8 F900
M04  S255
G01 X12.4 Y5.8 F900
M04  S223
G01 X12.2 Y5.8 F900
M04  S30
G01 X12.0 Y5.8 F900
M05
G00 X11.0 Y5.8
M04  S53
G01 X10.8 Y5.8 F900
M04  S238
G01 X10.6 Y5.8 F900
M04  S255
G01 X10.4 Y5.8 F900
M04  S118
G01 X10.2 Y5.8 F900
M04  S2
G01 X10.0 Y5.8 F900
M05
G00 X8.6 Y5.8
M04  S16
G01 X8.4 Y5.8 F900
M04  S197
G01 X8.2 Y5.8 F900
M04  S255
G01 X7.8 Y5.8 F900
M04  S252
G01 X7.6 Y5.8 F900
M04  S139
G01 X7.4 Y5.8 F900
M04  S4
G01 X7.2 Y5.8 F900
M05
G00 X7.4 Y6.0
M04  S30
G01 X7.6 Y6.0 F900
M04  S220
G01 X7.8 Y6.0 F900
M04  S255
G01 X8.2 Y6.0 F900
M04  S250
G01 X8.4 Y6.0 F900
M04  S105
G01 X8.6 Y6.0 F900
M04  S2
G01 X8.8 Y6.0 F900
M05
G00 X10.2 Y6.0
M04  S60
G01 X10.4 Y6.0 F900
M04  S250
G01 X10.6 Y6.0 F900
M04  S254
G01 X10.8 Y6.0 F900
M04  S105
G01 X11.0 Y6.0 F900
M05
G00 X12.0 Y6.0
M04  S30
G01 X12.2 Y6.0 F900
M04  S223
G01 X12.4 Y6.0 F900
M04  S255
G01 X12.8 Y6.0 F900
M04  S191
G01 X13.0 Y6.0 F900
M04  S16
G01 X13.2 Y6.0 F900
M05
G00 X14.2 Y6.0
M04  S18
G01 X14.4 Y6.0 F900
M04  S218
G01 X14.6 Y6.0 F900
M04  S255
G01 X14.8 Y6.0 F900
M04  S167
G01 X15.0 Y6.0 F900
M04  S9
G01 X15.2 Y6.0 F900
M05
G00 X16.4 Y6.0
M04  S10
G01 X16.6 Y6.0 F900
M04  S190
G01 X16.8 Y6.0 F900
M04  S254
G01 X17.0 Y6.0 F900
M04  S255
G01 X17.2 Y6.0 F900
M04  S253
G01 X17.4 Y6.0 F900
M04  S152
G01 X17.6 Y6.0 F900
M04  S4
G01 X17.8 Y6.0 F900
M05
G00 X17.6 Y6.2
M04  S33
G01 X17.4 Y6.2 F900
M04  S223
G01 X17.2 Y6.2 F900
M04  S255
G01 X16.8 Y6.2 F900
M04  S251
G01 X16.6 Y6.2 F900
M04  S99
G01 X16.4 Y6.2 F900
M04  S2
G01 X16.2 Y6.2 F900
M05
G00 X15.0 Y6.2
M04  S106
G01 X14.8 Y6.2 F900
M04  S254
G01 X14.6 Y6.2 F900
M04  S249
G01 X14.4 Y6.2 F900
M04  S59
G01 X14.2 Y6.2 F900
M05
G00 X13.2 Y6.2
M04  S16
G01 X13.0 Y6.2 F900
M04  S191
G01 X12.8 Y6.2 F900
M04  S255
G01 X12.4 Y6.2 F900
M04  S223
G01 X12.2 Y6.2 F900
M04  S30
G01 X12.0 Y6.2 F900
M05
G00 X11.2 Y6.2
M04  S8
G01 X11.0 Y6.2 F900
M04  S166
G01 X10.8 Y6.2 F900
M04  S255
G01 X10.6 Y6.2 F900
M04  S218
G01 X10.4 Y6.2 F900
M04  S18
G01 X10.2 Y6.2 F900
M05
G00 X8.8 Y6.2
M04  S32
G01 X8.6 Y6.2 F900
M04  S223
G01 X8.4 Y6.2 F900
M04  S255
G01 X8.0 Y6.2 F900
M04  S247
G01 X7.8 Y6.2 F900
M04  S106
G01 X7.6 Y6.2 F900
M05
G00 X7.6 Y6.4
M04  S19
G01 X7.8 Y6.4 F900
M04  S188
G01 X8.0 Y6.4 F900
M04  S255
G01 X8.4 Y6.4 F900
M04  S254
G01 X8.6 Y6.4 F900
M04  S139
G01 X8.8 Y6.4 F900
M04  S8
G01 X9.0 Y6.4 F900
M05
G00 X10.2 Y6.4
M04  S5
G01 X10.4 Y6.4 F900
M04  S166
G01 X10.6 Y6.4 F900
M04  S254
G01 X10.8 Y6.4 F900
M04  S212
G01 X11.0 Y6.4 F900
M04  S31
G01 X11.2 Y6.4 F900
M05
G00 X12.0 Y6.4
M04  S30
G01 X12.2 Y6.4 F900
M04  S223
G01 X12.4 Y6.4 F900
M04  S255
G01 X12.8 Y6.4 F900
M04  S191
G01 X13.0 Y6.4 F900
M04  S16
G01 X13.2 Y6.4 F900
M05
G00 X14.0 Y6.4
M04  S2
G01 X14.2 Y6.4 F900
M04  S117
G01 X14.4 Y6.4 F900
M04  S255
G01 X14.6 Y6.4 F900
M04  S239
G01 X14.8 Y6.4 F900
M04  S54
G01 X15.0 Y6.4 F900
M05
G00 X16.2 Y6.4
M04  S29
G01 X16.4 Y6.4 F900
M04  S214
G01 X16.6 Y6.4 F900
M04  S255
G01 X17.0 Y6.4 F900
M04  S248
G01 X17.2 Y6.4 F900
M04  S117
G01 X17.4 Y6.4 F900
M04  S1
G01 X17.6 Y6.4 F900
M05
G00 X24.2 Y6.6
M04  S2
G01 X24.0 Y6.6 F900
M04  S23
G01 X23.8 Y6.6 F900
M04  S6
G01 X23.6 Y6.6 F900
M05
G00 X17.4 Y6.6
M04  S25
G01 X17.2 Y6.6 F900
M04  S195
G01 X17.0 Y6.6 F900
M04  S255
G01 X16.6 Y6.6 F900
M04  S253
G01 X16.4 Y6.6 F900
M04  S128
G01 X16.2 Y6.6 F900
M04  S6
G01 X16.0 Y6.6 F900
M05
G00 X15.0 Y6.6
M04  S22
G01 X14.8 Y6.6 F900
M04  S204
G01 X14.6 Y6.6 F900
M04  S255
G01 X14.4 Y6.6 F900
M04  S176
G01 X14.2 Y6.6 F900
M04  S13
G01 X14.0 Y6.6 F900
M05
G00 X13.2 Y6.6
M04  S16
G01 X13.0 Y6.6 F900
M04  S191
G01 X12.8 Y6.6 F900
M04  S255
G01 X12.4 Y6.6 F900
M04  S223
G01 X12.2 Y6.6 F900
M04  S30
G01 X12.0 Y6.6 F900
M05
G00 X11.2 Y6.6
M04  S70
G01 X11.0 Y6.6 F900
M04  S240
G01 X10.8 Y6.6 F900
M04  S251
G01 X10.6 Y6.6 F900
M04  S105
G01 X10.4 Y6.6 F900
M04  S1
G01 X10.2 Y6.6 F900
M05
G00 X9.0 Y6.6
M04  S60
G01 X8.8 Y6.6 F900
M04  S231
G01 X8.6 Y6.6 F900
M04  S255
G01 X8.2 Y6.6 F900
M04  S237
G01 X8.0 Y6.6 F900
M04  S79
G01 X7.8 Y6.6 F900
M05
G00 X7.8 Y6.8
M04  S12
G01 X8.0 Y6.8 F900
M04  S160
G01 X8.2 Y6.8 F900
M04  S254
G01 X8.4 Y6.8 F900
M04  S255
G01 X8.8 Y6.8 F900
M04  S167
G01 X9.0 Y6.8 F900
M04  S14
G01 X9.2 Y6.8 F900
M05
G00 X10.4 Y6.8
M04  S49
G01 X10.6 Y6.8 F900
M04  S242
G01 X10.8 Y6.8 F900
M04  S253
G01 X11.0 Y6.8 F900
M04  S125
G01 X11.2 Y6.8 F900
M05
G00 X12.0 Y6.8
M04  S30
G01 X12.2 Y6.8 F900
M04  S223
G01 X12.4 Y6.8 F900
M04  S255
G01 X12.8 Y6.8 F900
M04  S191
G01 X13.0 Y6.8 F900
M04  S16
G01 X13.2 Y6.8 F900
M05
G00 X14.0 Y6.8
M04  S34
G01 X14.2 Y6.8 F900
M04  S220
G01 X14.4 Y6.8 F900
M04  S255
G01 X14.6 Y6.8 F900
M04  S152
G01 X14.8 Y6.8 F900
M04  S7
G01 X15.0 Y6.8 F900
M05
G00 X16.0 Y6.8
M04  S52
G01 X16.2 Y6.8 F900
M04  S225
G01 X16.4 Y6.8 F900
M04  S255
G01 X16.8 Y6.8 F900
M04  S241
G01 X17.0 Y6.8 F900
M04  S89
G01 X17.2 Y6.8 F900
M05
G00 X23.2 Y6.8
M04  S2
G01 X23.4 Y6.8 F900
M04  S29
G01 X23.6 Y6.8 F900
M04  S133
G01 X23.8 Y6.8 F900
M04  S179
G01 X24.0 Y6.8 F900
M04  S34
G01 X24.2 Y6.8 F900
M05
G00 X24.4 Y7.0
M04  S3
G01 X24.2 Y7.0 F900
M04  S129
G01 X24.0 Y7.0 F900
M04  S252
G01 X23.8 Y7.0 F900
M04  S254
G01 X23.6 Y7.0 F900
M04  S210
G01 X23.4 Y7.0 F900
M04  S93
G01 X23.2 Y7.0 F900
M04  S12
G01 X23.0 Y7.0 F900
M05
G00 X17.2 Y7.0
M04  S14
G01 X17.0 Y7.0 F900
M04  S171
G01 X16.8 Y7.0 F900
M04  S255
G01 X16.2 Y7.0 F900
M04  S157
G01 X16.0 Y7.0 F900
M04  S10
G01 X15.8 Y7.0 F900
M05
G00 X15.0 Y7.0
M04  S1
G01 X14.8 Y7.0 F900
M04  S91
G01 X14.6 Y7.0 F900
M04  S255
G01 X14.4 Y7.0 F900
M04  S248
G01 X14.2 Y7.0 F900
M04  S76
G01 X14.0 Y7.0 F900
M05
G00 X13.2 Y7.0
M04  S16
G01 X13.0 Y7.0 F900
M04  S191
G01 X12.8 Y7.0 F900
M04  S255
G01 X12.4 Y7.0 F900
M04  S223
G01 X12.2 Y7.0 F900
M04  S30
G01 X12.0 Y7.0 F900
M05
G00 X11.4 Y7.0
M04  S7
G01 X11.2 Y7.0 F900
M04  S181
G01 X11.0 Y7.0 F900
M04  S255
G01 X10.8 Y7.0 F900
M04  S211
G01 X10.6 Y7.0 F900
M04  S11
G01 X10.4 Y7.0 F900
M05
G00 X9.2 Y7.0
M04  S84
G01 X9.0 Y7.0 F900
M04  S241
G01 X8.8 Y7.0 F900
M04  S255
G01 X8.4 Y7.0 F900
M04  S230
G01 X8.2 Y7.0 F900
M04  S52
G01 X8.0 Y7.0 F900
M05
G00 X2.0 Y7.0
M04  S1
G01 X1.6 Y7.0 F900
M05
G00 X1.6 Y7.2
M04  S89
G01 X1.8 Y7.2 F900
M04  S117
G01 X2.0 Y7.2 F900
M04  S24
G01 X2.2 Y7.2 F900
M05
G00 X8.0 Y7.2
M04  S5
G01 X8.2 Y7.2 F900
M04  S125
G01 X8.4 Y7.2 F900
M04  S255
G01 X9.0 Y7.2 F900
M04  S200
G01 X9.2 Y7.2 F900
M04  S23
G01 X9.4 Y7.2 F900
M05
G00 X10.6 Y7.2
M04  S154
G01 X10.8 Y7.2 F900
M04  S254
G01 X11.0 Y7.2 F900
M04  S224
G01 X11.2 Y7.2 F900
M04  S37
G01 X11.4 Y7.2 F900
M05
G00 X12.0 Y7.2
M04  S30
G01 X12.2 Y7.2 F900
M04  S223
G01 X12.4 Y7.2 F900
M04  S255
G01 X12.8 Y7.2 F900
M04  S191
G01 X13.0 Y7.2 F900
M04  S16
G01 X13.2 Y7.2 F900
M05
G00 X13.8 Y7.2
M04  S2
G01 X14.0 Y7.2 F900
M04  S135
G01 X14.2 Y7.2 F900
M04  S255
G01 X14.4 Y7.2 F900
M04  S240
G01 X14.6 Y7.2 F900
M04  S36
G01 X14.8 Y7.2 F900
M05
G00 X15.8 Y7.2
M04  S80
G01 X16.0 Y7.2 F900
M04  S240
G01 X16.2 Y7.2 F900
M04  S255
G01 X16.6 Y7.2 F900
M04  S233
G01 X16.8 Y7.2 F900
M04  S55
G01 X17.0 Y7.2 F900
M05
G00 X18.6 Y7.2
M04  S1
G01 X18.8 Y7.2 F900
M05
G00 X22.6 Y7.2
M04  S5
G01 X22.8 Y7.2 F900
M04  S71
G01 X23.0 Y7.2 F900
M04  S189
G01 X23.2 Y7.2 F900
M04  S251
G01 X23.4 Y7.2 F900
M04  S255
G01 X24.0 Y7.2 F900
M04  S228
G01 X24.2 Y7.2 F900
M04  S54
G01 X24.4 Y7.2 F900
M05
G00 X24.4 Y7.4
M04  S38
G01 X24.2 Y7.4 F900
M04  S165
G01 X24.0 Y7.4 F900
M04  S242
G01 X23.8 Y7.4 F900
M04  S255
G01 X23.2 Y7.4 F900
M04  S254
G01 X23.0 Y7.4 F900
M04  S238
G01 X22.8 Y7.4 F900
M04  S161
G01 X22.6 Y7.4 F900
M04  S45
G01 X22.4 Y7.4 F900
M04  S3
G01 X22.2 Y7.4 F900
M05
G00 X19.0 Y7.4
M04  S8
G01 X18.8 Y7.4 F900
M04  S103
G01 X18.6 Y7.4 F900
M04  S83
G01 X18.4 Y7.4 F900
M04  S3
G01 X18.2 Y7.4 F900
M05
G00 X17.0 Y7.4
M04  S7
G01 X16.8 Y7.4 F900
M04  S135
G01 X16.6 Y7.4 F900
M04  S255
G01 X16.0 Y7.4 F900
M04  S192
G01 X15.8 Y7.4 F900
M04  S19
G01 X15.6 Y7.4 F900
M05
G00 X14.8 Y7.4
M04  S9
G01 X14.6 Y7.4 F900
M04  S198
G01 X14.4 Y7.4 F900
M04  S255
G01 X14.2 Y7.4 F900
M04  S190
G01 X14.0 Y7.4 F900
M04  S17
G01 X13.8 Y7.4 F900
M05
G00 X13.2 Y7.4
M04  S16
G01 X13.0 Y7.4 F900
M04  S191
G01 X12.8 Y7.4 F900
M04  S255
G01 X12.4 Y7.4 F900
M04  S223
G01 X12.2 Y7.4 F900
M04  S30
G01 X12.0 Y7.4 F900
M05
G00 X11.4 Y7.4
M04  S83
G01 X11.2 Y7.4 F900
M04  S244
G01 X11.0 Y7.4 F900
M04  S246
G01 X10.8 Y7.4 F900
M04  S93
G01 X10.6 Y7.4 F900
M05
G00 X9.6 Y7.4
M04  S1
G01 X9.4 Y7.4 F900
M04  S121
G01 X9.2 Y7.4 F900
M04  S248
G01 X9.0 Y7.4 F900
M04  S255
G01 X8.6 Y7.4 F900
M04  S212
G01 X8.4 Y7.4 F900
M04  S26
G01 X8.2 Y7.4 F900
M05
G00 X7.2 Y7.4
M04  S2
G01 X7.0 Y7.4 F900
M04  S19
G01 X6.8 Y7.4 F900
M04  S2
G01 X6.6 Y7.4 F900
M05
G00 X2.6 Y7.4
M04  S12
G01 X2.4 Y7.4 F900
M04  S94
G01 X2.2 Y7.4 F900
M04  S204
G01 X2.0 Y7.4 F900
M04  S249
G01 X1.8 Y7.4 F900
M04  S214
G01 X1.6 Y7.4 F900
M04  S28
G01 X1.4 Y7.4 F900
M05
G00 X1.2 Y7.6
M04  S3
G01 X1.4 Y7.6 F900
M04  S134
G01 X1.6 Y7.6 F900
M04  S251
G01 X1.8 Y7.6 F900
M04  S255
G01 X2.2 Y7.6 F900
M04  S243
G01 X2.4 Y7.6 F900
M04  S172
G01 X2.6 Y7.6 F900
M04  S61
G01 X2.8 Y7.6 F900
M04  S8
G01 X3.0 Y7.6 F900
M05
G00 X6.4 Y7.6
M04  S2
G01 X6.6 Y7.6 F900
M04  S77
G01 X6.8 Y7.6 F900
M04  S182
G01 X7.0 Y7.6 F900
M04  S66
G01 X7.2 Y7.6 F900
M04  S2
G01 X7.4 Y7.6 F900
M05
G00 X8.2 Y7.6
M04  S2
G01 X8.4 Y7.6 F900
M04  S99
G01 X8.6 Y7.6 F900
M04  S248
G01 X8.8 Y7.6 F900
M04  S255
G01 X9.2 Y7.6 F900
M04  S223
G01 X9.4 Y7.6 F900
M04  S36
G01 X9.6 Y7.6 F900
M05
G00 X10.6 Y7.6
M04  S44
G01 X10.8 Y7.6 F900
M04  S229
G01 X11.0 Y7.6 F900
M04  S253
G01 X11.2 Y7.6 F900
M04  S142
G01 X11.4 Y7.6 F900
M05
G00 X12.0 Y7.6
M04  S30
G01 X12.2 Y7.6 F900
M04  S223
G01 X12.4 Y7.6 F900
M04  S255
G01 X12.8 Y7.6 F900
M04  S191
G01 X13.0 Y7.6 F900
M04  S16
G01 X13.2 Y7.6 F900
M05
G00 X13.8 Y7.6
M04  S46
G01 X14.0 Y7.6 F900
M04  S227
G01 X14.2 Y7.6 F900
M04  S253
G01 X14.4 Y7.6 F900
M04  S140
G01 X14.6 Y7.6 F900
M04  S3
G01 X14.8 Y7.6 F900
M05
G00 X15.6 Y7.6
M04  S109
G01 X15.8 Y7.6 F900
M04  S246
G01 X16.0 Y7.6 F900
M04  S255
G01 X16.4 Y7.6 F900
M04  S220
G01 X16.6 Y7.6 F900
M04  S32
G01 X16.8 Y7.6 F900
M05
G00 X18.0 Y7.6
M04  S4
G01 X18.2 Y7.6 F900
M04  S82
G01 X18.4 Y7.6 F900
M04  S229
G01 X18.6 Y7.6 F900
M04  S238
G01 X18.8 Y7.6 F900
M04  S101
G01 X19.0 Y7.6 F900
M04  S3
G01 X19.2 Y7.6 F900
M05
G00 X21.8 Y7.6
M04  S2
G01 X22.0 Y7.6 F900
M04  S30
G01 X22.2 Y7.6 F900
M04  S120
G01 X22.4 Y7.6 F900
M04  S221
G01 X22.6 Y7.6 F900
M04  S253
G01 X22.8 Y7.6 F900
M04  S255
G01 X23.4 Y7.6 F900
M04  S250
G01 X23.6 Y7.6 F900
M04  S194
G01 X23.8 Y7.6 F900
M04  S86
G01 X24.0 Y7.6 F900
M04  S15
G01 X24.2 Y7.6 F900
M05
G00 X24.0 Y7.8
M04  S1
G01 X23.8 Y7.8 F900
M04  S24
G01 X23.6 Y7.8 F900
M04  S121
G01 X23.4 Y7.8 F900
M04  S221
G01 X23.2 Y7.8 F900
M04  S252
G01 X23.0 Y7.8 F900
M04  S255
G01 X22.4 Y7.8 F900
M04  S250
G01 X22.2 Y7.8 F900
M04  S197
G01 X22.0 Y7.8 F900
M04  S89
G01 X21.8 Y7.8 F900
M04  S14
G01 X21.6 Y7.8 F900
M05
G00 X19.2 Y7.8
M04  S3
G01 X19.0 Y7.8 F900
M04  S95
G01 X18.8 Y7.8 F900
M04  S236
G01 X18.6 Y7.8 F900
M04  S255
G01 X18.4 Y7.8 F900
M04  S226
G01 X18.2 Y7.8 F900
M04  S82
G01 X18.0 Y7.8 F900
M04  S4
G01 X17.8 Y7.8 F900
M05
G00 X16.8 Y7.8
M04  S2
G01 X16.6 Y7.8 F900
M04  S112
G01 X16.4 Y7.8 F900
M04  S249
G01 X16.2 Y7.8 F900
M04  S255
G01 X15.8 Y7.8 F900
M04  S217
G01 X15.6 Y7.8 F900
M04  S28
G01 X15.4 Y7.8 F900
M05
G00 X14.6 Y7.8
M04  S79
G01 X14.4 Y7.8 F900
M04  S248
G01 X14.0 Y7.8 F900
M04  S94
G01 X13.8 Y7.8 F900
M05
G00 X13.2 Y7.8
M04  S16
G01 X13.0 Y7.8 F900
M04  S191
G01 X12.8 Y7.8 F900
M04  S255
G01 X12.4 Y7.8 F900
M04  S223
G01 X12.2 Y7.8 F900
M04  S30
G01 X12.0 Y7.8 F900
M05
G00 X11.6 Y7.8
M04  S7
G01 X11.4 Y7.8 F900
M04  S199
G01 X11.2 Y7.8 F900
M04  S255
G01 X11.0 Y7.8 F900
M04  S193
G01 X10.8 Y7.8 F900
M04  S13
G01 X10.6 Y7.8 F900
M05
G00 X9.8 Y7.8
M04  S6
G01 X9.6 Y7.8 F900
M04  S145
G01 X9.4 Y7.8 F900
M04  S253
G01 X9.2 Y7.8 F900
M04  S255
G01 X9.0 Y7.8 F900
M04  S254
G01 X8.8 Y7.8 F900
M04  S191
G01 X8.6 Y7.8 F900
M04  S13
G01 X8.4 Y7.8 F900
M05
G00 X7.6 Y7.8
M04  S1
G01 X7.4 Y7.8 F900
M04  S62
G01 X7.2 Y7.8 F900
M04  S212
G01 X7.0 Y7.8 F900
M04  S254
G01 X6.8 Y7.8 F900
M04  S215
G01 X6.6 Y7.8 F900
M04  S32
G01 X6.4 Y7.8 F900
M05
G00 X3.4 Y7.8
M04  S3
G01 X3.2 Y7.8 F900
M04  S38
G01 X3.0 Y7.8 F900
M04  S138
G01 X2.8 Y7.8 F900
M04  S230
G01 X2.6 Y7.8 F900
M04  S255
G01 X1.8 Y7.8 F900
M04  S245
G01 X1.6 Y7.8 F900
M04  S166
G01 X1.4 Y7.8 F900
M04  S8
G01 X1.2 Y7.8 F900
M05
G00 X1.4 Y8.0
M04  S13
G01 X1.6 Y8.0 F900
M04  S101
G01 X1.8 Y8.0 F900
M04  S213
G01 X2.0 Y8.0 F900
M04  S253
G01 X2.2 Y8.0 F900
M04  S255
G01 X2.8 Y8.0 F900
M04  S253
G01 X3.0 Y8.0 F900
M04  S216
G01 X3.2 Y8.0 F900
M04  S107
G01 X3.4 Y8.0 F900
M04  S12
G01 X3.6 Y8.0 F900
M05
G00 X6.4 Y8.0
M04  S8
G01 X6.6 Y8.0 F900
M04  S135
G01 X6.8 Y8.0 F900
M04  S246
G01 X7.0 Y8.0 F900
M04  S255
G01 X7.2 Y8.0 F900
M04  S219
G01 X7.4 Y8.0 F900
M04  S52
G01 X7.6 Y8.0 F900
M04  S1
G01 X7.8 Y8.0 F900
M05
G00 X8.6 Y8.0
M04  S75
G01 X8.8 Y8.0 F900
M04  S238
G01 X9.0 Y8.0 F900
M04  S255
G01 X9.4 Y8.0 F900
M04  S239
G01 X9.6 Y8.0 F900
M04  S55
G01 X9.8 Y8.0 F900
M05
G00 X10.8 Y8.0
M04  S139
G01 X11.0 Y8.0 F900
M04  S254
G01 X11.2 Y8.0 F900
M04  S238
G01 X11.4 Y8.0 F900
M04  S38
G01 X11.6 Y8.0 F900
M05
G00 X12.0 Y8.0
M04  S30
G01 X12.2 Y8.0 F900
M04  S223
G01 X12.4 Y8.0 F900
M04  S255
G01 X12.8 Y8.0 F900
M04  S191
G01 X13.0 Y8.0 F900
M04  S16
G01 X13.2 Y8.0 F900
M05
G00 X13.6 Y8.0
M04  S1
G01 X13.8 Y8.0 F900
M04  S151
G01 X14.0 Y8.0 F900
M04  S255
G01 X14.2 Y8.0 F900
M04  S232
G01 X14.4 Y8.0 F900
M04  S30
G01 X14.6 Y8.0 F900
M05
G00 X15.2 Y8.0
M04  S4
G01 X15.4 Y8.0 F900
M04  S135
G01 X15.6 Y8.0 F900
M04  S253
G01 X15.8 Y8.0 F900
M04  S255
G01 X16.2 Y8.0 F900
M04  S200
G01 X16.4 Y8.0 F900
M04  S16
G01 X16.6 Y8.0 F900
M05
G00 X17.6 Y8.0
M04  S1
G01 X17.8 Y8.0 F900
M04  S81
G01 X18.0 Y8.0 F900
M04  S227
G01 X18.2 Y8.0 F900
M04  S255
G01 X18.4 Y8.0 F900
M04  S244
G01 X18.6 Y8.0 F900
M04  S98
G01 X18.8 Y8.0 F900
M04  S5
G01 X19.0 Y8.0 F900
M05
G00 X21.2 Y8.0
M04  S3
G01 X21.4 Y8.0 F900
M04  S51
G01 X21.6 Y8.0 F900
M04  S176
G01 X21.8 Y8.0 F900
M04  S246
G01 X22.0 Y8.0 F900
M04  S255
G01 X22.8 Y8.0 F900
M04  S241
G01 X23.0 Y8.0 F900
M04  S154
G01 X23.2 Y8.0 F900
M04  S43
G01 X23.4 Y8.0 F900
M04  S1
G01 X23.6 Y8.0 F900
M05
G00 X23.2 Y8.2
M04  S3
G01 X23.0 Y8.2 F900
M04  S59
G01 X22.8 Y8.2 F900
M04  S180
G01 X22.6 Y8.2 F900
M04  S250
G01 X22.4 Y8.2 F900
M04  S255
G01 X21.6 Y8.2 F900
M04  S242
G01 X21.4 Y8.2 F900
M04  S144
G01 X21.2 Y8.2 F900
M04  S36
G01 X21.0 Y8.2 F900
M04  S1
G01 X20.8 Y8.2 F900
M05
G00 X18.8 Y8.2
M04  S2
G01 X18.6 Y8.2 F900
M04  S98
G01 X18.4 Y8.2 F900
M04  S239
G01 X18.2 Y8.2 F900
M04  S255
G01 X18.0 Y8.2 F900
M04  S232
G01 X17.8 Y8.2 F900
M04  S84
G01 X17.6 Y8.2 F900
M05
G00 X16.4 Y8.2
M04  S80
G01 X16.2 Y8.2 F900
M04  S240
G01 X16.0 Y8.2 F900
M04  S255
G01 X15.6 Y8.2 F900
M04  S237
G01 X15.4 Y8.2 F900
M04  S50
G01 X15.2 Y8.2 F900
M05
G00 X14.6 Y8.2
M04  S3
G01 X14.4 Y8.2 F900
M04  S186
G01 X14.2 Y8.2 F900
M04  S255
G01 X14.0 Y8.2 F900
M04  S205
G01 X13.8 Y8.2 F900
M04  S18
G01 X13.6 Y8.2 F900
M05
G00 X13.2 Y8.2
M04  S16
G01 X13.0 Y8.2 F900
M04  S191
G01 X12.8 Y8.2 F900
M04  S255
G01 X12.4 Y8.2 F900
M04  S223
G01 X12.2 Y8.2 F900
M04  S30
G01 X12.0 Y8.2 F900
M05
G00 X11.8 Y8.2
M04  S1
G01 X11.6 Y8.2 F900
M04  S94
G01 X11.4 Y8.2 F900
M04  S250
G01 X11.2 Y8.2 F900
M04  S244
G01 X11.0 Y8.2 F900
M04  S79
G01 X10.8 Y8.2 F900
M05
G00 X10.0 Y8.2
M04  S15
G01 X9.8 Y8.2 F900
M04  S176
G01 X9.6 Y8.2 F900
M04  S255
G01 X9.2 Y8.2 F900
M04  S254
G01 X9.0 Y8.2 F900
M04  S156
G01 X8.8 Y8.2 F900
M04  S6
G01 X8.6 Y8.2 F900
M05
G00 X8.0 Y8.2
M04  S1
G01 X7.8 Y8.2 F900
M04  S56
G01 X7.6 Y8.2 F900
M04  S222
G01 X7.4 Y8.2 F900
M04  S255
G01 X7.2 Y8.2 F900
M04  S246
G01 X7.0 Y8.2 F900
M04  S127
G01 X6.8 Y8.2 F900
M04  S7
G01 X6.6 Y8.2 F900
M05
G00 X4.0 Y8.2
M04  S8
G01 X3.8 Y8.2 F900
M04  S76
G01 X3.6 Y8.2 F900
M04  S199
G01 X3.4 Y8.2 F900
M04  S253
G01 X3.2 Y8.2 F900
M04  S255
G01 X2.4 Y8.2 F900
M04  S230
G01 X2.2 Y8.2 F900
M04  S126
G01 X2.0 Y8.2 F900
M04  S24
G01 X1.8 Y8.2 F900
M05
G00 X2.0 Y8.4
M04  S5
G01 X2.2 Y8.4 F900
M04  S44
G01 X2.4 Y8.4 F900
M04  S160
G01 X2.6 Y8.4 F900
M04  S240
G01 X2.8 Y8.4 F900
M04  S255
G01 X3.6 Y8.4 F900
M04  S241
G01 X3.8 Y8.4 F900
M04  S165
G01 X4.0 Y8.4 F900
M04  S56
G01 X4.2 Y8.4 F900
M04  S4
G01 X4.4 Y8.4 F900
M05
G00 X6.8 Y8.4
M04  S12
G01 X7.0 Y8.4 F900
M04  S124
G01 X7.2 Y8.4 F900
M04  S245
G01 X7.4 Y8.4 F900
M04  S255
G01 X7.6 Y8.4 F900
M04  S215
G01 X7.8 Y8.4 F900
M04  S63
G01 X8.0 Y8.4 F900
M04  S2
G01 X8.2 Y8.4 F900
M05
G00 X8.8 Y8.4
M04  S49
G01 X9.0 Y8.4 F900
M04  S220
G01 X9.2 Y8.4 F900
M04  S255
G01 X9.6 Y8.4 F900
M04  S246
G01 X9.8 Y8.4 F900
M04  S91
G01 X10.0 Y8.4 F900
M04  S1
G01 X10.2 Y8.4 F900
M05
G00 X10.8 Y8.4
M04  S36
G01 X11.0 Y8.4 F900
M04  S218
G01 X11.2 Y8.4 F900
M04  S254
G01 X11.4 Y8.4 F900
M04  S157
G01 X11.6 Y8.4 F900
M04  S4
G01 X11.8 Y8.4 F900
M05
G00 X12.0 Y8.4
M04  S30
G01 X12.2 Y8.4 F900
M04  S223
G01 X12.4 Y8.4 F900
M04  S255
G01 X12.8 Y8.4 F900
M04  S191
G01 X13.0 Y8.4 F900
M04  S16
G01 X13.2 Y8.4 F900
M05
G00 X13.6 Y8.4
M04  S56
G01 X13.8 Y8.4 F900
M04  S235
G01 X14.0 Y8.4 F900
M04  S252
G01 X14.2 Y8.4 F900
M04  S126
G01 X14.4 Y8.4 F900
M05
G00 X15.0 Y8.4
M04  S13
G01 X15.2 Y8.4 F900
M04  S166
G01 X15.4 Y8.4 F900
M04  S255
G01 X15.8 Y8.4 F900
M04  S254
G01 X16.0 Y8.4 F900
M04  S164
G01 X16.2 Y8.4 F900
M04  S10
G01 X16.4 Y8.4 F900
M05
G00 X17.2 Y8.4
M04  S2
G01 X17.4 Y8.4 F900
M04  S81
G01 X17.6 Y8.4 F900
M04  S232
G01 X17.8 Y8.4 F900
M04  S255
G01 X18.0 Y8.4 F900
M04  S235
G01 X18.2 Y8.4 F900
M04  S102
G01 X18.4 Y8.4 F900
M04  S4
G01 X18.6 Y8.4 F900
M05
G00 X20.6 Y8.4
M04  S22
G01 X20.8 Y8.4 F900
M04  S115
G01 X21.0 Y8.4 F900
M04  S218
G01 X21.2 Y8.4 F900
M04  S252
G01 X21.4 Y8.4 F900
M04  S255
G01 X22.0 Y8.4 F900
M04  S251
G01 X22.2 Y8.4 F900
M04  S205
G01 X22.4 Y8.4 F900
M04  S92
G01 X22.6 Y8.4 F900
M04  S13
G01 X22.8 Y8.4 F900
M04  S1
G01 X23.0 Y8.4 F900
M05
G00 X22.6 Y8.6
M04  S2
G01 X22.4 Y8.6 F900
M04  S33
G01 X22.2 Y8.6 F900
M04  S128
G01 X22.0 Y8.6 F900
M04  S222
G01 X21.8 Y8.6 F900
M04  S254
G01 X21.6 Y8.6 F900
M04  S255
G01 X21.0 Y8.6 F900
M04  S247
G01 X20.8 Y8.6 F900
M04  S194
G01 X20.6 Y8.6 F900
M04  S79
G01 X20.4 Y8.6 F900
M04  S12
G01 X20.2 Y8.6 F900
M05
G00 X18.4 Y8.6
M04  S6
G01 X18.2 Y8.6 F900
M04  S105
G01 X18.0 Y8.6 F900
M04  S234
G01 X17.8 Y8.6 F900
M04  S255
G01 X17.6 Y8.6 F900
M04  S228
G01 X17.4 Y8.6 F900
M04  S79
G01 X17.2 Y8.6 F900
M04  S4
G01 X17.0 Y8.6 F900
M05
G00 X16.2 Y8.6
M04  S58
G01 X16.0 Y8.6 F900
M04  S225
G01 X15.8 Y8.6 F900
M04  S255
G01 X15.4 Y8.6 F900
M04  S241
G01 X15.2 Y8.6 F900
M04  S81
G01 X15.0 Y8.6 F900
M04  S1
G01 X14.8 Y8.6 F900
M05
G00 X14.4 Y8.6
M04  S70
G01 X14.2 Y8.6 F900
M04  S239
G01 X14.0 Y8.6 F900
M04  S249
G01 X13.8 Y8.6 F900
M04  S112
G01 X13.6 Y8.6 F900
M04  S14
G01 X13.4 Y8.6 F900
M04  S30
G01 X13.2 Y8.6 F900
M04  S58
G01 X13.0 Y8.6 F900
M04  S205
G01 X12.8 Y8.6 F900
M04  S255
G01 X12.4 Y8.6 F900
M04  S230
G01 X12.2 Y8.6 F900
M04  S71
G01 X12.0 Y8.6 F900
M04  S31
G01 X11.8 Y8.6 F900
M04  S29
G01 X11.6 Y8.6 F900
M04  S211
G01 X11.4 Y8.6 F900
M04  S255
G01 X11.2 Y8.6 F900
M04  S176
G01 X11.0 Y8.6 F900
M04  S12
G01 X10.8 Y8.6 F900
M05
G00 X10.2 Y8.6
M04  S30
G01 X10.0 Y8.6 F900
M04  S197
G01 X9.8 Y8.6 F900
M04  S255
G01 X9.4 Y8.6 F900
M04  S251
G01 X9.2 Y8.6 F900
M04  S124
G01 X9.0 Y8.6 F900
M04  S5
G01 X8.8 Y8.6 F900
M05
G00 X8.4 Y8.6
M04  S1
G01 X8.2 Y8.6 F900
M04  S64
G01 X8.0 Y8.6 F900
M04  S209
G01 X7.8 Y8.6 F900
M04  S255
G01 X7.6 Y8.6 F900
M04  S247
G01 X7.4 Y8.6 F900
M04  S126
G01 X7.2 Y8.6 F900
M04  S14
G01 X7.0 Y8.6 F900
M05
G00 X4.8 Y8.6
M04  S2
G01 X4.6 Y8.6 F900
M04  S32
G01 X4.4 Y8.6 F900
M04  S133
G01 X4.2 Y8.6 F900
M04  S224
G01 X4.0 Y8.6 F900
M04  S253
G01 X3.8 Y8.6 F900
M04  S255
G01 X3.2 Y8.6 F900
M04  S246
G01 X3.0 Y8.6 F900
M04  S188
G01 X2.8 Y8.6 F900
M04  S80
G01 X2.6 Y8.6 F900
M04  S11
G01 X2.4 Y8.6 F900
M05
G00 X2.8 Y8.8
M04  S23
G01 X3.0 Y8.8 F900
M04  S109
G01 X3.2 Y8.8 F900
M04  S214
G01 X3.4 Y8.8 F900
M04  S252
G01 X3.6 Y8.8 F900
M04  S255
G01 X4.2 Y8.8 F900
M04  S252
G01 X4.4 Y8.8 F900
M04  S205
G01 X4.6 Y8.8 F900
M04  S94
G01 X4.8 Y8.8 F900
M04  S18
G01 X5.0 Y8.8 F900
M04  S1
G01 X5.2 Y8.8 F900
M05
G00 X7.2 Y8.8
M04  S10
G01 X7.4 Y8.8 F900
M04  S133
G01 X7.6 Y8.8 F900
M04  S246
G01 X7.8 Y8.8 F900
M04  S254
G01 X8.0 Y8.8 F900
M04  S210
G01 X8.2 Y8.8 F900
M04  S60
G01 X8.4 Y8.8 F900
M04  S1
G01 X8.6 Y8.8 F900
M05
G00 X9.0 Y8.8
M04  S31
G01 X9.2 Y8.8 F900
M04  S204
G01 X9.4 Y8.8 F900
M04  S255
G01 X9.8 Y8.8 F900
M04  S249
G01 X10.0 Y8.8 F900
M04  S122
G01 X10.2 Y8.8 F900
M04  S2
G01 X10.4 Y8.8 F900
M05
G00 X10.8 Y8.8
M04  S8
G01 X11.0 Y8.8 F900
M04  S135
G01 X11.2 Y8.8 F900
M04  S255
G01 X11.4 Y8.8 F900
M04  S248
G01 X11.6 Y8.8 F900
M04  S199
G01 X11.8 Y8.8 F900
M04  S215
G01 X12.0 Y8.8 F900
M04  S233
G01 X12.2 Y8.8 F900
M04  S252
G01 X12.4 Y8.8 F900
M04  S255
G01 X12.8 Y8.8 F900
M04  S250
G01 X13.0 Y8.8 F900
M04  S231
G01 X13.2 Y8.8 F900
M04  S213
G01 X13.4 Y8.8 F900
M04  S185
G01 X13.6 Y8.8 F900
M04  S213
G01 X13.8 Y8.8 F900
M04  S255
G01 X14.0 Y8.8 F900
M04  S219
G01 X14.2 Y8.8 F900
M04  S34
G01 X14.4 Y8.8 F900
M05
G00 X14.8 Y8.8
M04  S24
G01 X15.0 Y8.8 F900
M04  S190
G01 X15.2 Y8.8 F900
M04  S255
G01 X15.6 Y8.8 F900
M04  S253
G01 X15.8 Y8.8 F900
M04  S134
G01 X16.0 Y8.8 F900
M04  S6
G01 X16.2 Y8.8 F900
M05
G00 X16.8 Y8.8
M04  S3
G01 X17.0 Y8.8 F900
M04  S80
G01 X17.2 Y8.8 F900
M04  S224
G01 X17.4 Y8.8 F900
M04  S255
G01 X17.6 Y8.8 F900
M04  S237
G01 X17.8 Y8.8 F900
M04  S104
G01 X18.0 Y8.8 F900
M04  S7
G01 X18.2 Y8.8 F900
M05
G00 X19.8 Y8.8
M04  S6
G01 X20.0 Y8.8 F900
M04  S52
G01 X20.2 Y8.8 F900
M04  S159
G01 X20.4 Y8.8 F900
M04  S240
G01 X20.6 Y8.8 F900
M04  S255
G01 X21.2 Y8.8 F900
M04  S254
G01 X21.4 Y8.8 F900
M04  S241
G01 X21.6 Y8.8 F900
M04  S160
G01 X21.8 Y8.8 F900
M04  S53
G01 X22.0 Y8.8 F900
M04  S5
G01 X22.2 Y8.8 F900
M05
G00 X21.8 Y9.0
M04  S6
G01 X21.6 Y9.0 F900
M04  S78
G01 X21.4 Y9.0 F900
M04  S199
G01 X21.2 Y9.0 F900
M04  S251
G01 X21.0 Y9.0 F900
M04  S255
G01 X20.2 Y9.0 F900
M04  S228
G01 X20.0 Y9.0 F900
M04  S128
G01 X19.8 Y9.0 F900
M04  S24
G01 X19.6 Y9.0 F900
M04  S1
G01 X19.4 Y9.0 F900
M05
G00 X18.0 Y9.0
M04  S5
G01 X17.8 Y9.0 F900
M04  S103
G01 X17.6 Y9.0 F900
M04  S245
G01 X17.4 Y9.0 F900
M04  S255
G01 X17.2 Y9.0 F900
M04  S225
G01 X17.0 Y9.0 F900
M04  S77
G01 X16.8 Y9.0 F900
M04  S1
G01 X16.6 Y9.0 F900
M05
G00 X16.0 Y9.0
M04  S35
G01 X15.8 Y9.0 F900
M04  S214
G01 X15.6 Y9.0 F900
M04  S255
G01 X15.2 Y9.0 F900
M04  S248
G01 X15.0 Y9.0 F900
M04  S110
G01 X14.8 Y9.0 F900
M04  S5
G01 X14.6 Y9.0 F900
M04  S52
G01 X14.4 Y9.0 F900
M04  S148
G01 X14.2 Y9.0 F900
M04  S238
G01 X14.0 Y9.0 F900
M04  S255
G01 X11.2 Y9.0 F900
M04  S225
G01 X11.0 Y9.0 F900
M04  S153
G01 X10.8 Y9.0 F900
M04  S62
G01 X10.6 Y9.0 F900
M04  S6
G01 X10.4 Y9.0 F900
M04  S42
G01 X10.2 Y9.0 F900
M04  S220
G01 X10.0 Y9.0 F900
M04  S255
G01 X9.6 Y9.0 F900
M04  S251
G01 X9.4 Y9.0 F900
M04  S92
G01 X9.2 Y9.0 F900
M04  S2
G01 X9.0 Y9.0 F900
M05
G00 X8.8 Y9.0
M04  S1
G01 X8.6 Y9.0 F900
M04  S50
G01 X8.4 Y9.0 F900
M04  S216
G01 X8.2 Y9.0 F900
M04  S255
G01 X8.0 Y9.0 F900
M04  S247
G01 X7.8 Y9.0 F900
M04  S139
G01 X7.6 Y9.0 F900
M04  S8
G01 X7.4 Y9.0 F900
M05
G00 X5.4 Y9.0
M04  S4
G01 X5.2 Y9.0 F900
M04  S63
G01 X5.0 Y9.0 F900
M04  S179
G01 X4.8 Y9.0 F900
M04  S248
G01 X4.6 Y9.0 F900
M04  S255
G01 X3.8 Y9.0 F900
M04  S240
G01 X3.6 Y9.0 F900
M04  S147
G01 X3.4 Y9.0 F900
M04  S34
G01 X3.2 Y9.0 F900
M04  S1
G01 X3.0 Y9.0 F900
M05
G00 X3.4 Y9.2
M04  S1
G01 X3.6 Y9.2 F900
M04  S54
G01 X3.8 Y9.2 F900
M04  S172
G01 X4.0 Y9.2 F900
M04  S246
G01 X4.2 Y9.2 F900
M04  S255
G01 X5.0 Y9.2 F900
M04  S243
G01 X5.2 Y9.2 F900
M04  S158
G01 X5.4 Y9.2 F900
M04  S38
G01 X5.6 Y9.2 F900
M04  S1
G01 X5.8 Y9.2 F900
M05
G00 X7.6 Y9.2
M04  S8
G01 X7.8 Y9.2 F900
M04  S131
G01 X8.0 Y9.2 F900
M04  S246
G01 X8.2 Y9.2 F900
M04  S255
G01 X8.4 Y9.2 F900
M04  S221
G01 X8.6 Y9.2 F900
M04  S53
G01 X8.8 Y9.2 F900
M04  S1
G01 X9.0 Y9.2 F900
M05
G00 X9.2 Y9.2
M04  S10
G01 X9.4 Y9.2 F900
M04  S183
G01 X9.6 Y9.2 F900
M04  S254
G01 X9.8 Y9.2 F900
M04  S255
G01 X10.0 Y9.2 F900
M04  S253
G01 X10.2 Y9.2 F900
M04  S184
G01 X10.4 Y9.2 F900
M04  S182
G01 X10.6 Y9.2 F900
M04  S248
G01 X10.8 Y9.2 F900
M04  S255
G01 X14.4 Y9.2 F900
M04  S246
G01 X14.6 Y9.2 F900
M04  S182
G01 X14.8 Y9.2 F900
M04  S228
G01 X15.0 Y9.2 F900
M04  S255
G01 X15.4 Y9.2 F900
M04  S252
G01 X15.6 Y9.2 F900
M04  S98
G01 X15.8 Y9.2 F900
M04  S2
G01 X16.0 Y9.2 F900
M05
G00 X16.6 Y9.2
M04  S81
G01 X16.8 Y9.2 F900
M04  S230
G01 X17.0 Y9.2 F900
M04  S255
G01 X17.2 Y9.2 F900
M04  S241
G01 X17.4 Y9.2 F900
M04  S101
G01 X17.6 Y9.2 F900
M04  S2
G01 X17.8 Y9.2 F900
M05
G00 X19.2 Y9.2
M04  S12
G01 X19.4 Y9.2 F900
M04  S97
G01 X19.6 Y9.2 F900
M04  S218
G01 X19.8 Y9.2 F900
M04  S254
G01 X20.0 Y9.2 F900
M04  S255
G01 X20.6 Y9.2 F900
M04  S254
G01 X20.8 Y9.2 F900
M04  S215
G01 X21.0 Y9.2 F900
M04  S104
G01 X21.2 Y9.2 F900
M04  S14
G01 X21.4 Y9.2 F900
M05
G00 X21.2 Y9.4
M04  S3
G01 X21.0 Y9.4 F900
M04  S33
G01 X20.8 Y9.4 F900
M04  S135
G01 X20.6 Y9.4 F900
M04  S233
G01 X20.4 Y9.4 F900
M04  S255
G01 X19.6 Y9.4 F900
M04  S247
G01 X19.4 Y9.4 F900
M04  S184
G01 X19.2 Y9.4 F900
M04  S71
G01 X19.0 Y9.4 F900
M04  S8
G01 X18.8 Y9.4 F900
M05
G00 X17.6 Y9.4
M04  S4
G01 X17.4 Y9.4 F900
M04  S106
G01 X17.2 Y9.4 F900
M04  S236
G01 X17.0 Y9.4 F900
M04  S255
G01 X16.8 Y9.4 F900
M04  S231
G01 X16.6 Y9.4 F900
M04  S77
G01 X16.4 Y9.4 F900
M04  S2
G01 X16.2 Y9.4 F900
M05
G00 X15.8 Y9.4
M04  S14
G01 X15.6 Y9.4 F900
M04  S191
G01 X15.4 Y9.4 F900
M04  S254
G01 X15.2 Y9.4 F900
M04  S255
G01 X10.6 Y9.4 F900
M04  S254
G01 X10.2 Y9.4 F900
M04  S255
G01 X9.8 Y9.4 F900
M04  S239
G01 X9.6 Y9.4 F900
M04  S62
G01 X9.4 Y9.4 F900
M05
G00 X9.2 Y9.4
M04  S1
G01 X9.0 Y9.4 F900
M04  S60
G01 X8.8 Y9.4 F900
M04  S212
G01 X8.6 Y9.4 F900
M04  S255
G01 X8.4 Y9.4 F900
M04  S246
G01 X8.2 Y9.4 F900
M04  S128
G01 X8.0 Y9.4 F900
M04  S13
G01 X7.8 Y9.4 F900
M05
G00 X6.2 Y9.4
M04  S1
G01 X6.0 Y9.4 F900
M04  S27
G01 X5.8 Y9.4 F900
M04  S119
G01 X5.6 Y9.4 F900
M04  S225
G01 X5.4 Y9.4 F900
M04  S253
G01 X5.2 Y9.4 F900
M04  S255
G01 X4.6 Y9.4 F900
M04  S252
G01 X4.4 Y9.4 F900
M04  S196
G01 X4.2 Y9.4 F900
M04  S84
G01 X4.0 Y9.4 F900
M04  S13
G01 X3.8 Y9.4 F900
M05
G00 X4.0 Y9.6
M04  S1
G01 X4.2 Y9.6 F900
M04  S26
G01 X4.4 Y9.6 F900
M04  S119
G01 X4.6 Y9.6 F900
M04  S220
G01 X4.8 Y9.6 F900
M04  S253
G01 X5.0 Y9.6 F900
M04  S255
G01 X5.6 Y9.6 F900
M04  S248
G01 X5.8 Y9.6 F900
M04  S197
G01 X6.0 Y9.6 F900
M04  S90
G01 X6.2 Y9.6 F900
M04  S15
G01 X6.4 Y9.6 F900
M05
G00 X8.0 Y9.6
M04  S14
G01 X8.2 Y9.6 F900
M04  S129
G01 X8.4 Y9.6 F900
M04  S247
G01 X8.6 Y9.6 F900
M04  S254
G01 X8.8 Y9.6 F900
M04  S207
G01 X9.0 Y9.6 F900
M04  S61
G01 X9.2 Y9.6 F900
M04  S1
G01 X9.4 Y9.6 F900
M04  S9
G01 X9.6 Y9.6 F900
M04  S184
G01 X9.8 Y9.6 F900
M04  S255
G01 X15.2 Y9.6 F900
M04  S251
G01 X15.4 Y9.6 F900
M04  S121
G01 X15.6 Y9.6 F900
M04  S4
G01 X15.8 Y9.6 F900
M05
G00 X16.0 Y9.6
M04  S4
G01 X16.2 Y9.6 F900
M04  S77
G01 X16.4 Y9.6 F900
M04  S227
G01 X16.6 Y9.6 F900
M04  S255
G01 X16.8 Y9.6 F900
M04  S235
G01 X17.0 Y9.6 F900
M04  S107
G01 X17.2 Y9.6 F900
M04  S7
G01 X17.4 Y9.6 F900
M05
G00 X18.4 Y9.6
M04  S3
G01 X18.6 Y9.6 F900
M04  S47
G01 X18.8 Y9.6 F900
M04  S153
G01 X19.0 Y9.6 F900
M04  S233
G01 X19.2 Y9.6 F900
M04  S254
G01 X19.4 Y9.6 F900
M04  S255
G01 X20.0 Y9.6 F900
M04  S241
G01 X20.2 Y9.6 F900
M04  S172
G01 X20.4 Y9.6 F900
M04  S59
G01 X20.6 Y9.6 F900
M04  S6
G01 X20.8 Y9.6 F900
M05
G00 X20.4 Y9.8
M04  S14
G01 X20.2 Y9.8 F900
M04  S91
G01 X20.0 Y9.8 F900
M04  S200
G01 X19.8 Y9.8 F900
M04  S249
G01 X19.6 Y9.8 F900
M04  S255
G01 X19.0 Y9.8 F900
M04  S253
G01 X18.8 Y9.8 F900
M04  S221
G01 X18.6 Y9.8 F900
M04  S115
G01 X18.4 Y9.8 F900
M04  S24
G01 X18.2 Y9.8 F900
M04  S2
G01 X18.0 Y9.8 F900
M05
G00 X17.2 Y9.8
M04  S8
G01 X17.0 Y9.8 F900
M04  S108
G01 X16.8 Y9.8 F900
M04  S238
G01 X16.6 Y9.8 F900
M04  S255
G01 X16.4 Y9.8 F900
M04  S222
G01 X16.2 Y9.8 F900
M04  S76
G01 X16.0 Y9.8 F900
M04  S10
G01 X15.8 Y9.8 F900
M04  S86
G01 X15.6 Y9.8 F900
M04  S228
G01 X15.4 Y9.8 F900
M04  S255
G01 X9.8 Y9.8 F900
M04  S235
G01 X9.6 Y9.8 F900
M04  S103
G01 X9.4 Y9.8 F900
M04  S61
G01 X9.2 Y9.8 F900
M04  S207
G01 X9.0 Y9.8 F900
M04  S254
G01 X8.8 Y9.8 F900
M04  S247
G01 X8.6 Y9.8 F900
M04  S137
G01 X8.4 Y9.8 F900
M04  S11
G01 X8.2 Y9.8 F900
M05
G00 X6.8 Y9.8
M04  S6
G01 X6.6 Y9.8 F900
M04  S55
G01 X6.4 Y9.8 F900
M04  S170
G01 X6.2 Y9.8 F900
M04  S241
G01 X6.0 Y9.8 F900
M04  S255
G01 X5.4 Y9.8 F900
M04  S254
G01 X5.2 Y9.8 F900
M04  S235
G01 X5.0 Y9.8 F900
M04  S155
G01 X4.8 Y9.8 F900
M04  S48
G01 X4.6 Y9.8 F900
M04  S2
G01 X4.4 Y9.8 F900
M05
G00 X4.8 Y10.0
M04  S7
G01 X5.0 Y10.0 F900
M04  S70
G01 X5.2 Y10.0 F900
M04  S188
G01 X5.4 Y10.0 F900
M04  S251
G01 X5.6 Y10.0 F900
M04  S255
G01 X6.4 Y10.0 F900
M04  S234
G01 X6.6 Y10.0 F900
M04  S134
G01 X6.8 Y10.0 F900
M04  S29
G01 X7.0 Y10.0 F900
M04  S1
G01 X7.2 Y10.0 F900
M05
G00 X8.4 Y10.0
M04  S9
G01 X8.6 Y10.0 F900
M04  S142
G01 X8.8 Y10.0 F900
M04  S247
G01 X9.0 Y10.0 F900
M04  S254
G01 X9.2 Y10.0 F900
M04  S230
G01 X9.4 Y10.0 F900
M04  S244
G01 X9.6 Y10.0 F900
M04  S255
G01 X15.6 Y10.0 F900
M04  S237
G01 X15.8 Y10.0 F900
M04  S149
G01 X16.0 Y10.0 F900
M04  S223
G01 X16.2 Y10.0 F900
M04  S255
G01 X16.4 Y10.0 F900
M04  S245
G01 X16.6 Y10.0 F900
M04  S106
G01 X16.8 Y10.0 F900
M04  S6
G01 X17.0 Y10.0 F900
M05
G00 X17.8 Y10.0
M04  S9
G01 X18.0 Y10.0 F900
M04  S81
G01 X18.2 Y10.0 F900
M04  S198
G01 X18.4 Y10.0 F900
M04  S252
G01 X18.6 Y10.0 F900
M04  S255
G01 X19.2 Y10.0 F900
M04  S254
G01 X19.4 Y10.0 F900
M04  S231
G01 X19.6 Y10.0 F900
M04  S120
G01 X19.8 Y10.0 F900
M04  S24
G01 X20.0 Y10.0 F900
M05
G00 X19.6 Y10.2
M04  S35
G01 X19.4 Y10.2 F900
M04  S154
G01 X19.2 Y10.2 F900
M04  S240
G01 X19.0 Y10.2 F900
M04  S255
G01 X18.2 Y10.2 F900
M04  S248
G01 X18.0 Y10.2 F900
M04  S178
G01 X17.8 Y10.2 F900
M04  S58
G01 X17.6 Y10.2 F900
M04  S2
G01 X17.4 Y10.2 F900
M05
G00 X16.8 Y10.2
M04  S2
G01 X16.6 Y10.2 F900
M04  S106
G01 X16.4 Y10.2 F900
M04  S242
G01 X16.2 Y10.2 F900
M04  S255
G01 X9.2 Y10.2 F900
M04  S248
G01 X9.0 Y10.2 F900
M04  S135
G01 X8.8 Y10.2 F900
M04  S9
G01 X8.6 Y10.2 F900
M05
G00 X7.4 Y10.2
M04  S16
G01 X7.2 Y10.2 F900
M04  S108
G01 X7.0 Y10.2 F900
M04  S219
G01 X6.8 Y10.2 F900
M04  S255
G01 X6.0 Y10.2 F900
M04  S253
G01 X5.8 Y10.2 F900
M04  S213
G01 X5.6 Y10.2 F900
M04  S95
G01 X5.4 Y10.2 F900
M04  S9
G01 X5.2 Y10.2 F900
M05
G00 X5.4 Y10.4
M04  S2
G01 X5.6 Y10.4 F900
M04  S29
G01 X5.8 Y10.4 F900
M04  S128
G01 X6.0 Y10.4 F900
M04  S226
G01 X6.2 Y10.4 F900
M04  S255
G01 X7.0 Y10.4 F900
M04  S248
G01 X7.2 Y10.4 F900
M04  S196
G01 X7.4 Y10.4 F900
M04  S77
G01 X7.6 Y10.4 F900
M04  S9
G01 X7.8 Y10.4 F900
M05
G00 X8.6 Y10.4
M04  S1
G01 X8.8 Y10.4 F900
M04  S95
G01 X9.0 Y10.4 F900
M04  S243
G01 X9.2 Y10.4 F900
M04  S255
G01 X16.0 Y10.4 F900
M04  S252
G01 X16.2 Y10.4 F900
M04  S146
G01 X16.4 Y10.4 F900
M04  S4
G01 X16.6 Y10.4 F900
M05
G00 X17.0 Y10.4
M04  S2
G01 X17.2 Y10.4 F900
M04  S36
G01 X17.4 Y10.4 F900
M04  S143
G01 X17.6 Y10.4 F900
M04  S236
G01 X17.8 Y10.4 F900
M04  S254
G01 X18.0 Y10.4 F900
M04  S255
G01 X18.6 Y10.4 F900
M04  S247
G01 X18.8 Y10.4 F900
M04  S178
G01 X19.0 Y10.4 F900
M04  S66
G01 X19.2 Y10.4 F900
M04  S8
G01 X19.4 Y10.4 F900
M05
G00 X19.2 Y10.6
M04  S1
G01 X19.0 Y10.6 F900
M04  S19
G01 X18.8 Y10.6 F900
M04  S96
G01 X18.6 Y10.6 F900
M04  S208
G01 X18.4 Y10.6 F900
M04  S251
G01 X18.2 Y10.6 F900
M04  S255
G01 X17.6 Y10.6 F900
M04  S252
G01 X17.4 Y10.6 F900
M04  S211
G01 X17.2 Y10.6 F900
M04  S108
G01 X17.0 Y10.6 F900
M04  S23
G01 X16.8 Y10.6 F900
M04  S1
G01 X16.6 Y10.6 F900
M04  S31
G01 X16.4 Y10.6 F900
M04  S204
G01 X16.2 Y10.6 F900
M04  S254
G01 X16.0 Y10.6 F900
M04  S255
G01 X9.0 Y10.6 F900
M04  S211
G01 X8.8 Y10.6 F900
M04  S46
G01 X8.6 Y10.6 F900
M05
G00 X8.2 Y10.6
M04  S5
G01 X8.0 Y10.6 F900
M04  S52
G01 X7.8 Y10.6 F900
M04  S158
G01 X7.6 Y10.6 F900
M04  S238
G01 X7.4 Y10.6 F900
M04  S255
G01 X6.6 Y10.6 F900
M04  S240
G01 X6.4 Y10.6 F900
M04  S161
G01 X6.2 Y10.6 F900
M04  S54
G01 X6.0 Y10.6 F900
M04  S6
G01 X5.8 Y10.6 F900
M05
G00 X6.2 Y10.8
M04  S11
G01 X6.4 Y10.8 F900
M04  S82
G01 X6.6 Y10.8 F900
M04  S196
G01 X6.8 Y10.8 F900
M04  S247
G01 X7.0 Y10.8 F900
M04  S255
G01 X7.6 Y10.8 F900
M04  S254
G01 X7.8 Y10.8 F900
M04  S222
G01 X8.0 Y10.8 F900
M04  S126
G01 X8.2 Y10.8 F900
M04  S30
G01 X8.4 Y10.8 F900
M04  S9
G01 X8.6 Y10.8 F900
M04  S169
G01 X8.8 Y10.8 F900
M04  S253
G01 X9.0 Y10.8 F900
M04  S255
G01 X16.2 Y10.8 F900
M04  S252
G01 X16.4 Y10.8 F900
M04  S151
G01 X16.6 Y10.8 F900
M04  S79
G01 X16.8 Y10.8 F900
M04  S187
G01 X17.0 Y10.8 F900
M04  S247
G01 X17.2 Y10.8 F900
M04  S255
G01 X17.8 Y10.8 F900
M04  S253
G01 X18.0 Y10.8 F900
M04  S227
G01 X18.2 Y10.8 F900
M04  S136
G01 X18.4 Y10.8 F900
M04  S33
G01 X18.6 Y10.8 F900
M04  S1
G01 X18.8 Y10.8 F900
M05
G00 X18.4 Y11.0
M04  S3
G01 X18.2 Y11.0 F900
M04  S54
G01 X18.0 Y11.0 F900
M04  S168
G01 X17.8 Y11.0 F900
M04  S246
G01 X17.6 Y11.0 F900
M04  S255
G01 X16.8 Y11.0 F900
M04  S245
G01 X16.6 Y11.0 F900
M04  S248
G01 X16.4 Y11.0 F900
M04  S255
G01 X8.8 Y11.0 F900
M04  S246
G01 X8.6 Y11.0 F900
M04  S140
G01 X8.4 Y11.0 F900
M04  S207
G01 X8.2 Y11.0 F900
M04  S252
G01 X8.0 Y11.0 F900
M04  S255
G01 X7.4 Y11.0 F900
M04  S254
G01 X7.2 Y11.0 F900
M04  S223
G01 X7.0 Y11.0 F900
M04  S115
G01 X6.8 Y11.0 F900
M04  S21
G01 X6.6 Y11.0 F900
M05
G00 X6.8 Y11.2
M04  S1
G01 X7.0 Y11.2 F900
M04  S32
G01 X7.2 Y11.2 F900
M04  S140
G01 X7.4 Y11.2 F900
M04  S239
G01 X7.6 Y11.2 F900
M04  S255
G01 X17.2 Y11.2 F900
M04  S252
G01 X17.4 Y11.2 F900
M04  S196
G01 X17.6 Y11.2 F900
M04  S71
G01 X17.8 Y11.2 F900
M04  S6
G01 X18.0 Y11.2 F900
M05
G00 X20.6 Y11.4
M04  S55
G01 X20.4 Y11.4 F900
M04  S96
G01 X20.2 Y11.4 F900
M04  S48
G01 X20.0 Y11.4 F900
M04  S15
G01 X19.8 Y11.4 F900
M04  S1
G01 X19.6 Y11.4 F900
M05
G00 X17.8 Y11.4
M04  S1
G01 X17.6 Y11.4 F900
M04  S18
G01 X17.4 Y11.4 F900
M04  S109
G01 X17.2 Y11.4 F900
M04  S214
G01 X17.0 Y11.4 F900
M04  S253
G01 X16.8 Y11.4 F900
M04  S255
G01 X8.0 Y11.4 F900
M04  S244
G01 X7.8 Y11.4 F900
M04  S175
G01 X7.6 Y11.4 F900
M04  S57
G01 X7.4 Y11.4 F900
M04  S6
G01 X7.2 Y11.4 F900
M05
G00 X5.4 Y11.4
M04  S2
G01 X5.2 Y11.4 F900
M04  S22
G01 X5.0 Y11.4 F900
M04  S36
G01 X4.8 Y11.4 F900
M04  S3
G01 X4.6 Y11.4 F900
M05
G00 X4.6 Y11.6
M04  S25
G01 X4.8 Y11.6 F900
M04  S194
G01 X5.0 Y11.6 F900
M04  S204
G01 X5.2 Y11.6 F900
M04  S154
G01 X5.4 Y11.6 F900
M04  S94
G01 X5.6 Y11.6 F900
M04  S45
G01 X5.8 Y11.6 F900
M04  S17
G01 X6.0 Y11.6 F900
M04  S3
G01 X6.2 Y11.6 F900
M05
G00 X7.6 Y11.6
M04  S17
G01 X7.8 Y11.6 F900
M04  S92
G01 X8.0 Y11.6 F900
M04  S200
G01 X8.2 Y11.6 F900
M04  S253
G01 X8.4 Y11.6 F900
M04  S255
G01 X16.8 Y11.6 F900
M04  S206
G01 X17.0 Y11.6 F900
M04  S48
G01 X17.2 Y11.6 F900
M04  S3
G01 X17.4 Y11.6 F900
M05
G00 X18.8 Y11.6
M04  S1
G01 X19.0 Y11.6 F900
M04  S13
G01 X19.2 Y11.6 F900
M04  S37
G01 X19.4 Y11.6 F900
M04  S81
G01 X19.6 Y11.6 F900
M04  S141
G01 X19.8 Y11.6 F900
M04  S195
G01 X20.0 Y11.6 F900
M04  S229
G01 X20.2 Y11.6 F900
M04  S246
G01 X20.4 Y11.6 F900
M04  S149
G01 X20.6 Y11.6 F900
M04  S2
G01 X20.8 Y11.6 F900
M05
G00 X20.8 Y11.8
M04  S5
G01 X20.6 Y11.8 F900
M04  S181
G01 X20.4 Y11.8 F900
M04  S244
G01 X20.2 Y11.8 F900
M04  S253
G01 X20.0 Y11.8 F900
M04  S255
G01 X19.6 Y11.8 F900
M04  S246
G01 X19.4 Y11.8 F900
M04  S219
G01 X19.2 Y11.8 F900
M04  S177
G01 X19.0 Y11.8 F900
M04  S120
G01 X18.8 Y11.8 F900
M04  S64
G01 X18.6 Y11.8 F900
M04  S24
G01 X18.4 Y11.8 F900
M04  S8
G01 X18.2 Y11.8 F900
M04  S1
G01 X18.0 Y11.8 F900
M05
G00 X17.2 Y11.8
M04  S40
G01 X17.0 Y11.8 F900
M04  S219
G01 X16.8 Y11.8 F900
M04  S255
G01 X8.4 Y11.8 F900
M04  S244
G01 X8.2 Y11.8 F900
M04  S72
G01 X8.0 Y11.8 F900
M04  S1
G01 X7.8 Y11.8 F900
M05
G00 X7.0 Y11.8
M04  S2
G01 X6.8 Y11.8 F900
M04  S11
G01 X6.6 Y11.8 F900
M04  S30
G01 X6.4 Y11.8 F900
M04  S75
G01 X6.2 Y11.8 F900
M04  S133
G01 X6.0 Y11.8 F900
M04  S188
G01 X5.8 Y11.8 F900
M04  S226
G01 X5.6 Y11.8 F900
M04  S249
G01 X5.4 Y11.8 F900
M04  S255
G01 X5.0 Y11.8 F900
M04  S235
G01 X4.8 Y11.8 F900
M04  S61
G01 X4.6 Y11.8 F900
M05
G00 X4.6 Y12.0
M04  S32
G01 X4.8 Y12.0 F900
M04  S123
G01 X5.0 Y12.0 F900
M04  S186
G01 X5.2 Y12.0 F900
M04  S233
G01 X5.4 Y12.0 F900
M04  S251
G01 X5.6 Y12.0 F900
M04  S254
G01 X5.8 Y12.0 F900
M04  S255
G01 X6.2 Y12.0 F900
M04  S249
G01 X6.4 Y12.0 F900
M04  S222
G01 X6.6 Y12.0 F900
M04  S174
G01 X6.8 Y12.0 F900
M04  S114
G01 X7.0 Y12.0 F900
M04  S56
G01 X7.2 Y12.0 F900
M04  S15
G01 X7.4 Y12.0 F900
M04  S3
G01 X7.6 Y12.0 F900
M04  S1
G01 X8.0 Y12.0 F900
M04  S115
G01 X8.2 Y12.0 F900
M04  S254
G01 X8.4 Y12.0 F900
M04  S255
G01 X16.8 Y12.0 F900
M04  S249
G01 X17.0 Y12.0 F900
M04  S97
G01 X17.2 Y12.0 F900
M05
G00 X17.4 Y12.0
M04  S2
G01 X17.6 Y12.0 F900
M04  S10
G01 X17.8 Y12.0 F900
M04  S45
G01 X18.0 Y12.0 F900
M04  S100
G01 X18.2 Y12.0 F900
M04  S162
G01 X18.4 Y12.0 F900
M04  S213
G01 X18.6 Y12.0 F900
M04  S245
G01 X18.8 Y12.0 F900
M04  S255
G01 X19.2 Y12.0 F900
M04  S254
G01 X19.4 Y12.0 F900
M04  S252
G01 X19.6 Y12.0 F900
M04  S239
G01 X19.8 Y12.0 F900
M04  S198
G01 X20.0 Y12.0 F900
M04  S139
G01 X20.2 Y12.0 F900
M04  S79
G01 X20.4 Y12.0 F900
M04  S30
G01 X20.6 Y12.0 F900
M04  S1
G01 X20.8 Y12.0 F900
M05
G00 X20.0 Y12.2
M04  S6
G01 X19.8 Y12.2 F900
M04  S34
G01 X19.6 Y12.2 F900
M04  S89
G01 X19.4 Y12.2 F900
M04  S153
G01 X19.2 Y12.2 F900
M04  S207
G01 X19.0 Y12.2 F900
M04  S243
G01 X18.8 Y12.2 F900
M04  S254
G01 X18.6 Y12.2 F900
M04  S255
G01 X18.0 Y12.2 F900
M04  S245
G01 X17.8 Y12.2 F900
M04  S209
G01 X17.6 Y12.2 F900
M04  S150
G01 X17.4 Y12.2 F900
M04  S88
G01 X17.2 Y12.2 F900
M04  S173
G01 X17.0 Y12.2 F900
M04  S255
G01 X8.2 Y12.2 F900
M04  S181
G01 X8.0 Y12.2 F900
M04  S55
G01 X7.8 Y12.2 F900
M04  S100
G01 X7.6 Y12.2 F900
M04  S164
G01 X7.4 Y12.2 F900
M04  S220
G01 X7.2 Y12.2 F900
M04  S249
G01 X7.0 Y12.2 F900
M04  S255
G01 X6.4 Y12.2 F900
M04  S254
G01 X6.2 Y12.2 F900
M04  S237
G01 X6.0 Y12.2 F900
M04  S196
G01 X5.8 Y12.2 F900
M04  S139
G01 X5.6 Y12.2 F900
M04  S76
G01 X5.4 Y12.2 F900
M04  S24
G01 X5.2 Y12.2 F900
M04  S3
G01 X5.0 Y12.2 F900
M05
G00 X5.6 Y12.4
M04  S4
G01 X5.8 Y12.4 F900
M04  S13
G01 X6.0 Y12.4 F900
M04  S40
G01 X6.2 Y12.4 F900
M04  S91
G01 X6.4 Y12.4 F900
M04  S153
G01 X6.6 Y12.4 F900
M04  S205
G01 X6.8 Y12.4 F900
M04  S238
G01 X7.0 Y12.4 F900
M04  S253
G01 X7.2 Y12.4 F900
M04  S255
G01 X7.4 Y12.4 F900
M04  S254
G01 X7.6 Y12.4 F900
M04  S250
G01 X7.8 Y12.4 F900
M04  S240
G01 X8.0 Y12.4 F900
M04  S248
G01 X8.2 Y12.4 F900
M04  S255
G01 X17.0 Y12.4 F900
M04  S251
G01 X17.2 Y12.4 F900
M04  S248
G01 X17.4 Y12.4 F900
M04  S254
G01 X17.6 Y12.4 F900
M04  S255
G01 X17.8 Y12.4 F900
M04  S254
G01 X18.0 Y12.4 F900
M04  S243
G01 X18.2 Y12.4 F900
M04  S214
G01 X18.4 Y12.4 F900
M04  S166
G01 X18.6 Y12.4 F900
M04  S104
G01 X18.8 Y12.4 F900
M04  S49
G01 X19.0 Y12.4 F900
M04  S17
G01 X19.2 Y12.4 F900
M04  S5
G01 X19.4 Y12.4 F900
M04  S1
G01 X19.6 Y12.4 F900
M05
G00 X18.8 Y12.6
M04  S1
G01 X18.6 Y12.6 F900
M04  S10
G01 X18.4 Y12.6 F900
M04  S30
G01 X18.2 Y12.6 F900
M04  S68
G01 X18.0 Y12.6 F900
M04  S124
G01 X17.8 Y12.6 F900
M04  S180
G01 X17.6 Y12.6 F900
M04  S222
G01 X17.4 Y12.6 F900
M04  S246
G01 X17.2 Y12.6 F900
M04  S255
G01 X8.0 Y12.6 F900
M04  S253
G01 X7.8 Y12.6 F900
M04  S241
G01 X7.6 Y12.6 F900
M04  S215
G01 X7.4 Y12.6 F900
M04  S168
G01 X7.2 Y12.6 F900
M04  S111
G01 X7.0 Y12.6 F900
M04  S58
G01 X6.8 Y12.6 F900
M04  S24
G01 X6.6 Y12.6 F900
M04  S7
G01 X6.4 Y12.6 F900
M05
G00 X0.4 Y12.8
M04  S2
G01 X0.6 Y12.8 F900
M04  S7
G01 X0.8 Y12.8 F900
M04  S8
G01 X7.2 Y12.8 F900
M04  S16
G01 X7.4 Y12.8 F900
M04  S41
G01 X7.6 Y12.8 F900
M04  S81
G01 X7.8 Y12.8 F900
M04  S172
G01 X8.0 Y12.8 F900
M04  S253
G01 X8.2 Y12.8 F900
M04  S255
G01 X17.0 Y12.8 F900
M04  S247
G01 X17.2 Y12.8 F900
M04  S132
G01 X17.4 Y12.8 F900
M04  S48
G01 X17.6 Y12.8 F900
M04  S19
G01 X17.8 Y12.8 F900
M04  S9
G01 X18.0 Y12.8 F900
M04  S8
G01 X32.6 Y12.8 F900
M04  S2
G01 X32.8 Y12.8 F900
M05
G00 X32.8 Y13.0
M04  S40
G01 X32.6 Y13.0 F900
M04  S160
G01 X32.4 Y13.0 F900
M04  S161
G01 X17.6 Y13.0 F900
M04  S160
G01 X17.4 Y13.0 F900
M04  S190
G01 X17.2 Y13.0 F900
M04  S251
G01 X17.0 Y13.0 F900
M04  S255
G01 X8.2 Y13.0 F900
M04  S253
G01 X8.0 Y13.0 F900
M04  S198
G01 X7.8 Y13.0 F900
M04  S159
G01 X7.6 Y13.0 F900
M04  S161
G01 X0.8 Y13.0 F900
M04  S153
G01 X0.6 Y13.0 F900
M04  S34
G01 X0.4 Y13.0 F900
M05
G00 X0.4 Y13.2
M04  S55
G01 X0.6 Y13.2 F900
M04  S244
G01 X0.8 Y13.2 F900
M04  S255
G01 X32.6 Y13.2 F900
M04  S64
G01 X32.8 Y13.2 F900
M05
G00 X32.8 Y13.4
M04  S64
G01 X32.6 Y13.4 F900
M04  S255
G01 X0.8 Y13.4 F900
M04  S244
G01 X0.6 Y13.4 F900
M04  S55
G01 X0.4 Y13.4 F900
M05
G00 X0.4 Y13.6
M04  S55
G01 X0.6 Y13.6 F900
M04  S244
G01 X0.8 Y13.6 F900
M04  S255
G01 X32.6 Y13.6 F900
M04  S64
G01 X32.8 Y13.6 F900
M05
G00 X32.8 Y13.8
M04  S63
G01 X32.6 Y13.8 F900
M04  S250
G01 X32.4 Y13.8 F900
M04  S251
G01 X17.4 Y13.8 F900
M04  S252
G01 X17.2 Y13.8 F900
M04  S255
G01 X8.0 Y13.8 F900
M04  S252
G01 X7.8 Y13.8 F900
M04  S251
G01 X0.8 Y13.8 F900
M04  S240
G01 X0.6 Y13.8 F900
M04  S54
G01 X0.4 Y13.8 F900
M05
G00 X0.4 Y14.0
M04  S23
G01 X0.6 Y14.0 F900
M04  S103
G01 X0.8 Y14.0 F900
M04  S108
G01 X7.8 Y14.0 F900
M04  S146
G01 X8.0 Y14.0 F900
M04  S246
G01 X8.2 Y14.0 F900
M04  S255
G01 X17.0 Y14.0 F900
M04  S242
G01 X17.2 Y14.0 F900
M04  S135
G01 X17.4 Y14.0 F900
M04  S108
G01 X32.6 Y14.0 F900
M04  S27
G01 X32.8 Y14.0 F900
M05
G00 X17.4 Y14.2
M04  S33
G01 X17.2 Y14.2 F900
M04  S220
G01 X17.0 Y14.2 F900
M04  S255
G01 X8.2 Y14.2 F900
M04  S227
G01 X8.0 Y14.2 F900
M04  S46
G01 X7.8 Y14.2 F900
M05
G00 X7.8 Y14.4
M04  S22
G01 X8.0 Y14.4 F900
M04  S199
G01 X8.2 Y14.4 F900
M04  S255
G01 X17.0 Y14.4 F900
M04  S185
G01 X17.2 Y14.4 F900
M04  S10
G01 X17.4 Y14.4 F900
M05
G00 X17.4 Y14.6
M04  S2
G01 X17.2 Y14.6 F900
M04  S137
G01 X17.0 Y14.6 F900
M04  S254
G01 X16.8 Y14.6 F900
M04  S255
G01 X8.2 Y14.6 F900
M04  S163
G01 X8.0 Y14.6 F900
M04  S14
G01 X7.8 Y14.6 F900
M04  S1
G01 X7.6 Y14.6 F900
M05
G00 X6.8 Y14.8
M04  S1
G01 X7.0 Y14.8 F900
M04  S6
G01 X7.2 Y14.8 F900
M04  S20
G01 X7.4 Y14.8 F900
M04  S53
G01 X7.6 Y14.8 F900
M04  S108
G01 X7.8 Y14.8 F900
M04  S166
G01 X8.0 Y14.8 F900
M04  S227
G01 X8.2 Y14.8 F900
M04  S255
G01 X16.8 Y14.8 F900
M04  S254
G01 X17.0 Y14.8 F900
M04  S200
G01 X17.2 Y14.8 F900
M04  S119
G01 X17.4 Y14.8 F900
M04  S62
G01 X17.6 Y14.8 F900
M04  S24
G01 X17.8 Y14.8 F900
M04  S8
G01 X18.0 Y14.8 F900
M04  S1
G01 X18.2 Y14.8 F900
M05
G00 X18.8 Y15.0
M04  S2
G01 X18.6 Y15.0 F900
M04  S11
G01 X18.4 Y15.0 F900
M04  S44
G01 X18.2 Y15.0 F900
M04  S99
G01 X18.0 Y15.0 F900
M04  S160
G01 X17.8 Y15.0 F900
M04  S211
G01 X17.6 Y15.0 F900
M04  S245
G01 X17.4 Y15.0 F900
M04  S254
G01 X17.2 Y15.0 F900
M04  S255
G01 X8.4 Y15.0 F900
M04  S254
G01 X8.2 Y15.0 F900
M04  S255
G01 X7.8 Y15.0 F900
M04  S254
G01 X7.6 Y15.0 F900
M04  S240
G01 X7.4 Y15.0 F900
M04  S202
G01 X7.2 Y15.0 F900
M04  S149
G01 X7.0 Y15.0 F900
M04  S87
G01 X6.8 Y15.0 F900
M04  S35
G01 X6.6 Y15.0 F900
M04  S8
G01 X6.4 Y15.0 F900
M04  S2
G01 X6.2 Y15.0 F900
M05
G00 X5.6 Y15.2
M04  S3
G01 X5.8 Y15.2 F900
M04  S27
G01 X6.0 Y15.2 F900
M04  S74
G01 X6.2 Y15.2 F900
M04  S135
G01 X6.4 Y15.2 F900
M04  S197
G01 X6.6 Y15.2 F900
M04  S240
G01 X6.8 Y15.2 F900
M04  S254
G01 X7.0 Y15.2 F900
M04  S255
G01 X7.6 Y15.2 F900
M04  S248
G01 X7.8 Y15.2 F900
M04  S217
G01 X8.0 Y15.2 F900
M04  S167
G01 X8.2 Y15.2 F900
M04  S183
G01 X8.4 Y15.2 F900
M04  S255
G01 X16.6 Y15.2 F900
M04  S253
G01 X16.8 Y15.2 F900
M04  S198
G01 X17.0 Y15.2 F900
M04  S208
G01 X17.2 Y15.2 F900
M04  S244
G01 X17.4 Y15.2 F900
M04  S255
G01 X18.2 Y15.2 F900
M04  S245
G01 X18.4 Y15.2 F900
M04  S207
G01 X18.6 Y15.2 F900
M04  S147
G01 X18.8 Y15.2 F900
M04  S86
G01 X19.0 Y15.2 F900
M04  S35
G01 X19.2 Y15.2 F900
M04  S6
G01 X19.4 Y15.2 F900
M05
G00 X20.2 Y15.4
M04  S7
G01 X20.0 Y15.4 F900
M04  S31
G01 X19.8 Y15.4 F900
M04  S74
G01 X19.6 Y15.4 F900
M04  S134
G01 X19.4 Y15.4 F900
M04  S193
G01 X19.2 Y15.4 F900
M04  S233
G01 X19.0 Y15.4 F900
M04  S248
G01 X18.8 Y15.4 F900
M04  S254
G01 X18.6 Y15.4 F900
M04  S255
G01 X18.2 Y15.4 F900
M04  S244
G01 X18.0 Y15.4 F900
M04  S214
G01 X17.8 Y15.4 F900
M04  S167
G01 X17.6 Y15.4 F900
M04  S105
G01 X17.4 Y15.4 F900
M04  S49
G01 X17.2 Y15.4 F900
M04  S16
G01 X17.0 Y15.4 F900
M04  S41
G01 X16.8 Y15.4 F900
M04  S220
G01 X16.6 Y15.4 F900
M04  S255
G01 X8.6 Y15.4 F900
M04  S237
G01 X8.4 Y15.4 F900
M04  S46
G01 X8.2 Y15.4 F900
M04  S6
G01 X8.0 Y15.4 F900
M04  S20
G01 X7.8 Y15.4 F900
M04  S59
G01 X7.6 Y15.4 F900
M04  S118
G01 X7.4 Y15.4 F900
M04  S179
G01 X7.2 Y15.4 F900
M04  S222
G01 X7.0 Y15.4 F900
M04  S247
G01 X6.8 Y15.4 F900
M04  S255
G01 X6.4 Y15.4 F900
M04  S253
G01 X6.2 Y15.4 F900
M04  S247
G01 X6.0 Y15.4 F900
M04  S227
G01 X5.8 Y15.4 F900
M04  S183
G01 X5.6 Y15.4 F900
M04  S121
G01 X5.4 Y15.4 F900
M04  S64
G01 X5.2 Y15.4 F900
M04  S24
G01 X5.0 Y15.4 F900
M04  S4
G01 X4.8 Y15.4 F900
M05
G00 X4.4 Y15.6
M04  S22
G01 X4.6 Y15.6 F900
M04  S102
G01 X4.8 Y15.6 F900
M04  S161
G01 X5.0 Y15.6 F900
M04  S209
G01 X5.2 Y15.6 F900
M04  S237
G01 X5.4 Y15.6 F900
M04  S251
G01 X5.6 Y15.6 F900
M04  S255
G01 X6.0 Y15.6 F900
M04  S248
G01 X6.2 Y15.6 F900
M04  S229
G01 X6.4 Y15.6 F900
M04  S192
G01 X6.6 Y15.6 F900
M04  S137
G01 X6.8 Y15.6 F900
M04  S80
G01 X7.0 Y15.6 F900
M04  S36
G01 X7.2 Y15.6 F900
M04  S13
G01 X7.4 Y15.6 F900
M04  S2
G01 X7.6 Y15.6 F900
M05
G00 X8.0 Y15.6
M04  S2
G01 X8.2 Y15.6 F900
M04  S33
G01 X8.4 Y15.6 F900
M04  S206
G01 X8.6 Y15.6 F900
M04  S255
G01 X16.6 Y15.6 F900
M04  S129
G01 X16.8 Y15.6 F900
M04  S6
G01 X17.0 Y15.6 F900
M05
G00 X17.4 Y15.6
M04  S1
G01 X17.6 Y15.6 F900
M04  S10
G01 X17.8 Y15.6 F900
M04  S30
G01 X18.0 Y15.6 F900
M04  S69
G01 X18.2 Y15.6 F900
M04  S125
G01 X18.4 Y15.6 F900
M04  S182
G01 X18.6 Y15.6 F900
M04  S224
G01 X18.8 Y15.6 F900
M04  S246
G01 X19.0 Y15.6 F900
M04  S254
G01 X19.2 Y15.6 F900
M04  S255
G01 X19.4 Y15.6 F900
M04  S253
G01 X19.6 Y15.6 F900
M04  S241
G01 X19.8 Y15.6 F900
M04  S217
G01 X20.0 Y15.6 F900
M04  S171
G01 X20.2 Y15.6 F900
M04  S114
G01 X20.4 Y15.6 F900
M04  S60
G01 X20.6 Y15.6 F900
M04  S21
G01 X20.8 Y15.6 F900
M04  S1
G01 X21.0 Y15.6 F900
M05
G00 X21.0 Y15.8
M04  S8
G01 X20.8 Y15.8 F900
M04  S146
G01 X20.6 Y15.8 F900
M04  S236
G01 X20.4 Y15.8 F900
M04  S252
G01 X20.2 Y15.8 F900
M04  S255
G01 X20.0 Y15.8 F900
M04  S254
G01 X19.8 Y15.8 F900
M04  S249
G01 X19.6 Y15.8 F900
M04  S234
G01 X19.4 Y15.8 F900
M04  S199
G01 X19.2 Y15.8 F900
M04  S145
G01 X19.0 Y15.8 F900
M04  S87
G01 X18.8 Y15.8 F900
M04  S41
G01 X18.6 Y15.8 F900
M04  S13
G01 X18.4 Y15.8 F900
M04  S1
G01 X18.2 Y15.8 F900
M05
G00 X17.2 Y15.8
M04  S4
G01 X17.0 Y15.8 F900
M04  S39
G01 X16.8 Y15.8 F900
M04  S154
G01 X16.6 Y15.8 F900
M04  S255
G01 X8.6 Y15.8 F900
M04  S251
G01 X8.4 Y15.8 F900
M04  S198
G01 X8.2 Y15.8 F900
M04  S89
G01 X8.0 Y15.8 F900
M04  S16
G01 X7.8 Y15.8 F900
M05
G00 X6.8 Y15.8
M04  S2
G01 X6.6 Y15.8 F900
M04  S17
G01 X6.4 Y15.8 F900
M04  S49
G01 X6.2 Y15.8 F900
M04  S99
G01 X6.0 Y15.8 F900
M04  S157
G01 X5.8 Y15.8 F900
M04  S208
G01 X5.6 Y15.8 F900
M04  S237
G01 X5.4 Y15.8 F900
M04  S250
G01 X5.2 Y15.8 F900
M04  S255
G01 X4.8 Y15.8 F900
M04  S240
G01 X4.6 Y15.8 F900
M04  S52
G01 X4.4 Y15.8 F900
M05
G00 X4.4 Y16.0
M04  S16
G01 X4.6 Y16.0 F900
M04  S212
G01 X4.8 Y16.0 F900
M04  S227
G01 X5.0 Y16.0 F900
M04  S178
G01 X5.2 Y16.0 F900
M04  S117
G01 X5.4 Y16.0 F900
M04  S59
G01 X5.6 Y16.0 F900
M04  S20
G01 X5.8 Y16.0 F900
M04  S2
G01 X6.0 Y16.0 F900
M05
G00 X7.4 Y16.0
M04  S3
G01 X7.6 Y16.0 F900
M04  S57
G01 X7.8 Y16.0 F900
M04  S173
G01 X8.0 Y16.0 F900
M04  S245
G01 X8.2 Y16.0 F900
M04  S255
G01 X16.6 Y16.0 F900
M04  S254
G01 X16.8 Y16.0 F900
M04  S214
G01 X17.0 Y16.0 F900
M04  S106
G01 X17.2 Y16.0 F900
M04  S17
G01 X17.4 Y16.0 F900
M04  S1
G01 X17.6 Y16.0 F900
M05
G00 X19.0 Y16.0
M04  S1
G01 X19.2 Y16.0 F900
M04  S14
G01 X19.4 Y16.0 F900
M04  S49
G01 X19.6 Y16.0 F900
M04  S105
G01 X19.8 Y16.0 F900
M04  S167
G01 X20.0 Y16.0 F900
M04  S219
G01 X20.2 Y16.0 F900
M04  S247
G01 X20.4 Y16.0 F900
M04  S253
G01 X20.6 Y16.0 F900
M04  S126
G01 X20.8 Y16.0 F900
M04  S3
G01 X21.0 Y16.0 F900
M05
G00 X20.8 Y16.2
M04  S45
G01 X20.6 Y16.2 F900
M04  S116
G01 X20.4 Y16.2 F900
M04  S56
G01 X20.2 Y16.2 F900
M04  S15
G01 X20.0 Y16.2 F900
M04  S1
G01 X19.8 Y16.2 F900
M05
G00 X17.8 Y16.2
M04  S5
G01 X17.6 Y16.2 F900
M04  S77
G01 X17.4 Y16.2 F900
M04  S200
G01 X17.2 Y16.2 F900
M04  S252
G01 X17.0 Y16.2 F900
M04  S255
G01 X9.2 Y16.2 F900
M04  S253
G01 X9.0 Y16.2 F900
M04  S228
G01 X8.8 Y16.2 F900
M04  S249
G01 X8.6 Y16.2 F900
M04  S255
G01 X7.8 Y16.2 F900
M04  S241
G01 X7.6 Y16.2 F900
M04  S147
G01 X7.4 Y16.2 F900
M04  S32
G01 X7.2 Y16.2 F900
M04  S1
G01 X7.0 Y16.2 F900
M05
G00 X5.2 Y16.2
M04  S2
G01 X5.0 Y16.2 F900
M04  S21
G01 X4.8 Y16.2 F900
M04  S41
G01 X4.6 Y16.2 F900
M05
G00 X6.8 Y16.4
M04  S23
G01 X7.0 Y16.4 F900
M04  S114
G01 X7.2 Y16.4 F900
M04  S220
G01 X7.4 Y16.4 F900
M04  S253
G01 X7.6 Y16.4 F900
M04  S255
G01 X8.2 Y16.4 F900
M04  S252
G01 X8.4 Y16.4 F900
M04  S205
G01 X8.6 Y16.4 F900
M04  S88
G01 X8.8 Y16.4 F900
M04  S46
G01 X9.0 Y16.4 F900
M04  S191
G01 X9.2 Y16.4 F900
M04  S255
G01 X15.8 Y16.4 F900
M04  S253
G01 X16.0 Y16.4 F900
M04  S190
G01 X16.2 Y16.4 F900
M04  S161
G01 X16.4 Y16.4 F900
M04  S241
G01 X16.6 Y16.4 F900
M04  S255
G01 X17.4 Y16.4 F900
M04  S244
G01 X17.6 Y16.4 F900
M04  S166
G01 X17.8 Y16.4 F900
M04  S54
G01 X18.0 Y16.4 F900
M04  S4
G01 X18.2 Y16.4 F900
M05
G00 X20.4 Y16.4
M04  S2
G01 X20.6 Y16.4 F900
M04  S1
G01 X20.8 Y16.4 F900
M05
G00 X18.6 Y16.6
M04  S1
G01 X18.4 Y16.6 F900
M04  S35
G01 X18.2 Y16.6 F900
M04  S134
G01 X18.0 Y16.6 F900
M04  S225
G01 X17.8 Y16.6 F900
M04  S253
G01 X17.6 Y16.6 F900
M04  S255
G01 X17.0 Y16.6 F900
M04  S246
G01 X16.8 Y16.6 F900
M04  S190
G01 X16.6 Y16.6 F900
M04  S74
G01 X16.4 Y16.6 F900
M04  S11
G01 X16.2 Y16.6 F900
M04  S79
G01 X16.0 Y16.6 F900
M04  S237
G01 X15.8 Y16.6 F900
M04  S255
G01 X9.4 Y16.6 F900
M04  S216
G01 X9.2 Y16.6 F900
M04  S51
G01 X9.0 Y16.6 F900
M04  S1
G01 X8.8 Y16.6 F900
M04  S2
G01 X8.6 Y16.6 F900
M04  S29
G01 X8.4 Y16.6 F900
M04  S128
G01 X8.2 Y16.6 F900
M04  S222
G01 X8.0 Y16.6 F900
M04  S253
G01 X7.8 Y16.6 F900
M04  S255
G01 X7.2 Y16.6 F900
M04  S247
G01 X7.0 Y16.6 F900
M04  S192
G01 X6.8 Y16.6 F900
M04  S84
G01 X6.6 Y16.6 F900
M04  S12
G01 X6.4 Y16.6 F900
M05
G00 X6.0 Y16.8
M04  S6
G01 X6.2 Y16.8 F900
M04  S50
G01 X6.4 Y16.8 F900
M04  S163
G01 X6.6 Y16.8 F900
M04  S240
G01 X6.8 Y16.8 F900
M04  S255
G01 X7.6 Y16.8 F900
M04  S238
G01 X7.8 Y16.8 F900
M04  S160
G01 X8.0 Y16.8 F900
M04  S54
G01 X8.2 Y16.8 F900
M04  S4
G01 X8.4 Y16.8 F900
M05
G00 X8.8 Y16.8
M04  S2
G01 X9.0 Y16.8 F900
M04  S59
G01 X9.2 Y16.8 F900
M04  S218
G01 X9.4 Y16.8 F900
M04  S255
G01 X15.4 Y16.8 F900
M04  S253
G01 X16.0 Y16.8 F900
M04  S189
G01 X16.2 Y16.8 F900
M04  S41
G01 X16.4 Y16.8 F900
M05
G00 X16.6 Y16.8
M04  S22
G01 X16.8 Y16.8 F900
M04  S111
G01 X17.0 Y16.8 F900
M04  S213
G01 X17.2 Y16.8 F900
M04  S251
G01 X17.4 Y16.8 F900
M04  S255
G01 X18.0 Y16.8 F900
M04  S251
G01 X18.2 Y16.8 F900
M04  S207
G01 X18.4 Y16.8 F900
M04  S97
G01 X18.6 Y16.8 F900
M04  S16
G01 X18.8 Y16.8 F900
M04  S1
G01 X19.0 Y16.8 F900
M05
G00 X19.2 Y17.0
M04  S6
G01 X19.0 Y17.0 F900
M04  S63
G01 X18.8 Y17.0 F900
M04  S179
G01 X18.6 Y17.0 F900
M04  S249
G01 X18.4 Y17.0 F900
M04  S255
G01 X17.8 Y17.0 F900
M04  S254
G01 X17.6 Y17.0 F900
M04  S238
G01 X17.4 Y17.0 F900
M04  S142
G01 X17.2 Y17.0 F900
M04  S37
G01 X17.0 Y17.0 F900
M04  S1
G01 X16.8 Y17.0 F900
M05
G00 X16.6 Y17.0
M04  S32
G01 X16.4 Y17.0 F900
M04  S194
G01 X16.2 Y17.0 F900
M04  S253
G01 X16.0 Y17.0 F900
M04  S250
G01 X15.8 Y17.0 F900
M04  S174
G01 X15.6 Y17.0 F900
M04  S175
G01 X15.4 Y17.0 F900
M04  S250
G01 X15.2 Y17.0 F900
M04  S255
G01 X10.0 Y17.0 F900
M04  S250
G01 X9.8 Y17.0 F900
M04  S219
G01 X9.6 Y17.0 F900
M04  S249
G01 X9.4 Y17.0 F900
M04  S255
G01 X9.2 Y17.0 F900
M04  S208
G01 X9.0 Y17.0 F900
M04  S55
G01 X8.8 Y17.0 F900
M04  S1
G01 X8.6 Y17.0 F900
M05
G00 X8.0 Y17.0
M04  S8
G01 X7.8 Y17.0 F900
M04  S75
G01 X7.6 Y17.0 F900
M04  S196
G01 X7.4 Y17.0 F900
M04  S251
G01 X7.2 Y17.0 F900
M04  S255
G01 X6.4 Y17.0 F900
M04  S228
G01 X6.2 Y17.0 F900
M04  S128
G01 X6.0 Y17.0 F900
M04  S27
G01 X5.8 Y17.0 F900
M04  S1
G01 X5.6 Y17.0 F900
M05
G00 X5.4 Y17.2
M04  S11
G01 X5.6 Y17.2 F900
M04  S101
G01 X5.8 Y17.2 F900
M04  S214
G01 X6.0 Y17.2 F900
M04  S254
G01 X6.2 Y17.2 F900
M04  S255
G01 X6.8 Y17.2 F900
M04  S254
G01 X7.0 Y17.2 F900
M04  S217
G01 X7.2 Y17.2 F900
M04  S106
G01 X7.4 Y17.2 F900
M04  S11
G01 X7.6 Y17.2 F900
M05
G00 X8.6 Y17.2
M04  S56
G01 X8.8 Y17.2 F900
M04  S213
G01 X9.0 Y17.2 F900
M04  S255
G01 X9.2 Y17.2 F900
M04  S250
G01 X9.4 Y17.2 F900
M04  S131
G01 X9.6 Y17.2 F900
M04  S23
G01 X9.8 Y17.2 F900
M04  S132
G01 X10.0 Y17.2 F900
M04  S238
G01 X10.2 Y17.2 F900
M04  S255
G01 X15.0 Y17.2 F900
M04  S233
G01 X15.2 Y17.2 F900
M04  S119
G01 X15.4 Y17.2 F900
M04  S9
G01 X15.6 Y17.2 F900
M04  S16
G01 X15.8 Y17.2 F900
M04  S160
G01 X16.0 Y17.2 F900
M04  S251
G01 X16.2 Y17.2 F900
M04  S254
G01 X16.4 Y17.2 F900
M04  S200
G01 X16.6 Y17.2 F900
M04  S32
G01 X16.8 Y17.2 F900
M05
G00 X17.2 Y17.2
M04  S2
G01 X17.4 Y17.2 F900
M04  S51
G01 X17.6 Y17.2 F900
M04  S176
G01 X17.8 Y17.2 F900
M04  S247
G01 X18.0 Y17.2 F900
M04  S255
G01 X18.8 Y17.2 F900
M04  S242
G01 X19.0 Y17.2 F900
M04  S155
G01 X19.2 Y17.2 F900
M04  S41
G01 X19.4 Y17.2 F900
M05
G00 X20.0 Y17.4
M04  S1
G01 X19.8 Y17.4 F900
M04  S24
G01 X19.6 Y17.4 F900
M04  S124
G01 X19.4 Y17.4 F900
M04  S227
G01 X19.2 Y17.4 F900
M04  S253
G01 X19.0 Y17.4 F900
M04  S255
G01 X18.4 Y17.4 F900
M04  S251
G01 X18.2 Y17.4 F900
M04  S196
G01 X18.0 Y17.4 F900
M04  S84
G01 X17.8 Y17.4 F900
M04  S11
G01 X17.6 Y17.4 F900
M05
G00 X17.0 Y17.4
M04  S40
G01 X16.8 Y17.4 F900
M04  S193
G01 X16.6 Y17.4 F900
M04  S254
G01 X16.4 Y17.4 F900
M04  S251
G01 X16.2 Y17.4 F900
M04  S154
G01 X16.0 Y17.4 F900
M04  S20
G01 X15.8 Y17.4 F900
M05
G00 X15.4 Y17.4
M04  S4
G01 X15.2 Y17.4 F900
M04  S108
G01 X15.0 Y17.4 F900
M04  S248
G01 X14.8 Y17.4 F900
M04  S255
G01 X10.2 Y17.4 F900
M04  S166
G01 X10.0 Y17.4 F900
M04  S13
G01 X9.8 Y17.4 F900
M05
G00 X9.6 Y17.4
M04  S8
G01 X9.4 Y17.4 F900
M04  S134
G01 X9.2 Y17.4 F900
M04  S245
G01 X9.0 Y17.4 F900
M04  S254
G01 X8.8 Y17.4 F900
M04  S216
G01 X8.6 Y17.4 F900
M04  S55
G01 X8.4 Y17.4 F900
M04  S1
G01 X8.2 Y17.4 F900
M05
G00 X7.4 Y17.4
M04  S2
G01 X7.2 Y17.4 F900
M04  S32
G01 X7.0 Y17.4 F900
M04  S135
G01 X6.8 Y17.4 F900
M04  S230
G01 X6.6 Y17.4 F900
M04  S255
G01 X5.8 Y17.4 F900
M04  S248
G01 X5.6 Y17.4 F900
M04  S190
G01 X5.4 Y17.4 F900
M04  S69
G01 X5.2 Y17.4 F900
M04  S8
G01 X5.0 Y17.4 F900
M05
G00 X4.6 Y17.6
M04  S4
G01 X4.8 Y17.6 F900
M04  S49
G01 X5.0 Y17.6 F900
M04  S153
G01 X5.2 Y17.6 F900
M04  S235
G01 X5.4 Y17.6 F900
M04  S255
G01 X6.2 Y17.6 F900
M04  S242
G01 X6.4 Y17.6 F900
M04  S168
G01 X6.6 Y17.6 F900
M04  S56
G01 X6.8 Y17.6 F900
M04  S7
G01 X7.0 Y17.6 F900
M05
G00 X8.0 Y17.6
M04  S2
G01 X8.2 Y17.6 F900
M04  S54
G01 X8.4 Y17.6 F900
M04  S212
G01 X8.6 Y17.6 F900
M04  S254
G01 X8.8 Y17.6 F900
M04  S244
G01 X9.0 Y17.6 F900
M04  S133
G01 X9.2 Y17.6 F900
M04  S13
G01 X9.4 Y17.6 F900
M05
G00 X9.8 Y17.6
M04  S64
G01 X10.0 Y17.6 F900
M04  S229
G01 X10.2 Y17.6 F900
M04  S255
G01 X10.6 Y17.6 F900
M04  S248
G01 X10.8 Y17.6 F900
M04  S240
G01 X11.0 Y17.6 F900
M04  S253
G01 X11.2 Y17.6 F900
M04  S255
G01 X14.0 Y17.6 F900
M04  S253
G01 X14.2 Y17.6 F900
M04  S243
G01 X14.4 Y17.6 F900
M04  S254
G01 X14.6 Y17.6 F900
M04  S255
G01 X14.8 Y17.6 F900
M04  S254
G01 X15.0 Y17.6 F900
M04  S182
G01 X15.2 Y17.6 F900
M04  S17
G01 X15.4 Y17.6 F900
M05
G00 X16.0 Y17.6
M04  S23
G01 X16.2 Y17.6 F900
M04  S155
G01 X16.4 Y17.6 F900
M04  S251
G01 X16.6 Y17.6 F900
M04  S253
G01 X16.8 Y17.6 F900
M04  S188
G01 X17.0 Y17.6 F900
M04  S43
G01 X17.2 Y17.6 F900
M05
G00 X17.8 Y17.6
M04  S2
G01 X18.0 Y17.6 F900
M04  S27
G01 X18.2 Y17.6 F900
M04  S115
G01 X18.4 Y17.6 F900
M04  S218
G01 X18.6 Y17.6 F900
M04  S253
G01 X18.8 Y17.6 F900
M04  S255
G01 X19.4 Y17.6 F900
M04  S250
G01 X19.6 Y17.6 F900
M04  S199
G01 X19.8 Y17.6 F900
M04  S89
G01 X20.0 Y17.6 F900
M04  S16
G01 X20.2 Y17.6 F900
M05
G00 X20.6 Y17.8
M04  S7
G01 X20.4 Y17.8 F900
M04  S60
G01 X20.2 Y17.8 F900
M04  S169
G01 X20.0 Y17.8 F900
M04  S241
G01 X19.8 Y17.8 F900
M04  S255
G01 X19.2 Y17.8 F900
M04  S254
G01 X19.0 Y17.8 F900
M04  S235
G01 X18.8 Y17.8 F900
M04  S156
G01 X18.6 Y17.8 F900
M04  S44
G01 X18.4 Y17.8 F900
M04  S3
G01 X18.2 Y17.8 F900
M05
G00 X17.4 Y17.8
M04  S40
G01 X17.2 Y17.8 F900
M04  S187
G01 X17.0 Y17.8 F900
M04  S253
G01 X16.8 Y17.8 F900
M04  S251
G01 X16.6 Y17.8 F900
M04  S162
G01 X16.4 Y17.8 F900
M04  S21
G01 X16.2 Y17.8 F900
M05
G00 X15.4 Y17.8
M04  S98
G01 X15.2 Y17.8 F900
M04  S244
G01 X15.0 Y17.8 F900
M04  S255
G01 X14.6 Y17.8 F900
M04  S225
G01 X14.4 Y17.8 F900
M04  S86
G01 X14.2 Y17.8 F900
M04  S159
G01 X14.0 Y17.8 F900
M04  S251
G01 X13.8 Y17.8 F900
M04  S255
G01 X13.6 Y17.8 F900
M04  S250
G01 X13.4 Y17.8 F900
M04  S253
G01 X13.2 Y17.8 F900
M04  S255
G01 X12.0 Y17.8 F900
M04  S254
G01 X11.6 Y17.8 F900
M04  S255
G01 X11.4 Y17.8 F900
M04  S237
G01 X11.2 Y17.8 F900
M04  S143
G01 X11.0 Y17.8 F900
M04  S74
G01 X10.8 Y17.8 F900
M04  S162
G01 X10.6 Y17.8 F900
M04  S255
G01 X10.2 Y17.8 F900
M04  S254
G01 X10.0 Y17.8 F900
M04  S172
G01 X9.8 Y17.8 F900
M04  S13
G01 X9.6 Y17.8 F900
M05
G00 X9.2 Y17.8
M04  S15
G01 X9.0 Y17.8 F900
M04  S135
G01 X8.8 Y17.8 F900
M04  S246
G01 X8.6 Y17.8 F900
M04  S255
G01 X8.4 Y17.8 F900
M04  S205
G01 X8.2 Y17.8 F900
M04  S55
G01 X8.0 Y17.8 F900
M04  S2
G01 X7.8 Y17.8 F900
M05
G00 X6.6 Y17.8
M04  S13
G01 X6.4 Y17.8 F900
M04  S90
G01 X6.2 Y17.8 F900
M04  S199
G01 X6.0 Y17.8 F900
M04  S248
G01 X5.8 Y17.8 F900
M04  S255
G01 X5.2 Y17.8 F900
M04  S253
G01 X5.0 Y17.8 F900
M04  S218
G01 X4.8 Y17.8 F900
M04  S120
G01 X4.6 Y17.8 F900
M04  S26
G01 X4.4 Y17.8 F900
M04  S1
G01 X4.2 Y17.8 F900
M05
G00 X4.0 Y18.0
M04  S10
G01 X4.2 Y18.0 F900
M04  S80
G01 X4.4 Y18.0 F900
M04  S201
G01 X4.6 Y18.0 F900
M04  S252
G01 X4.8 Y18.0 F900
M04  S255
G01 X5.4 Y18.0 F900
M04  S254
G01 X5.6 Y18.0 F900
M04  S225
G01 X5.8 Y18.0 F900
M04  S121
G01 X6.0 Y18.0 F900
M04  S25
G01 X6.2 Y18.0 F900
M05
G00 X7.6 Y18.0
M04  S1
G01 X7.8 Y18.0 F900
M04  S53
G01 X8.0 Y18.0 F900
M04  S205
G01 X8.2 Y18.0 F900
M04  S255
G01 X8.4 Y18.0 F900
M04  S250
G01 X8.6 Y18.0 F900
M04  S135
G01 X8.8 Y18.0 F900
M04  S13
G01 X9.0 Y18.0 F900
M05
G00 X9.6 Y18.0
M04  S87
G01 X9.8 Y18.0 F900
M04  S242
G01 X10.0 Y18.0 F900
M04  S255
G01 X10.4 Y18.0 F900
M04  S234
G01 X10.6 Y18.0 F900
M04  S46
G01 X10.8 Y18.0 F900
M05
G00 X11.0 Y18.0
M04  S28
G01 X11.2 Y18.0 F900
M04  S215
G01 X11.4 Y18.0 F900
M04  S255
G01 X11.6 Y18.0 F900
M04  S196
G01 X11.8 Y18.0 F900
M04  S139
G01 X12.0 Y18.0 F900
M04  S178
G01 X12.2 Y18.0 F900
M04  S246
G01 X12.4 Y18.0 F900
M04  S255
G01 X12.8 Y18.0 F900
M04  S236
G01 X13.0 Y18.0 F900
M04  S171
G01 X13.2 Y18.0 F900
M04  S133
G01 X13.4 Y18.0 F900
M04  S128
G01 X13.6 Y18.0 F900
M04  S248
G01 X13.8 Y18.0 F900
M04  S252
G01 X14.0 Y18.0 F900
M04  S112
G01 X14.2 Y18.0 F900
M04  S3
G01 X14.4 Y18.0 F900
M04  S120
G01 X14.6 Y18.0 F900
M04  S252
G01 X14.8 Y18.0 F900
M04  S255
G01 X15.2 Y18.0 F900
M04  S210
G01 X15.4 Y18.0 F900
M04  S23
G01 X15.6 Y18.0 F900
M05
G00 X16.4 Y18.0
M04  S17
G01 X16.6 Y18.0 F900
M04  S170
G01 X16.8 Y18.0 F900
M04  S251
G01 X17.0 Y18.0 F900
M04  S253
G01 X17.2 Y18.0 F900
M04  S191
G01 X17.4 Y18.0 F900
M04  S31
G01 X17.6 Y18.0 F900
M05
G00 X18.6 Y18.0
M04  S6
G01 X18.8 Y18.0 F900
M04  S71
G01 X19.0 Y18.0 F900
M04  S186
G01 X19.2 Y18.0 F900
M04  S248
G01 X19.4 Y18.0 F900
M04  S255
G01 X20.2 Y18.0 F900
M04  S234
G01 X20.4 Y18.0 F900
M04  S139
G01 X20.6 Y18.0 F900
M04  S28
G01 X20.8 Y18.0 F900
M04  S2
G01 X21.0 Y18.0 F900
M05
G00 X21.2 Y18.2
M04  S16
G01 X21.0 Y18.2 F900
M04  S106
G01 X20.8 Y18.2 F900
M04  S220
G01 X20.6 Y18.2 F900
M04  S255
G01 X19.8 Y18.2 F900
M04  S254
G01 X19.6 Y18.2 F900
M04  S213
G01 X19.4 Y18.2 F900
M04  S93
G01 X19.2 Y18.2 F900
M04  S12
G01 X19.0 Y18.2 F900
M05
G00 X17.8 Y18.2
M04  S29
G01 X17.6 Y18.2 F900
M04  S197
G01 X17.4 Y18.2 F900
M04  S254
G01 X17.2 Y18.2 F900
M04  S251
G01 X17.0 Y18.2 F900
M04  S164
G01 X16.8 Y18.2 F900
M04  S18
G01 X16.6 Y18.2 F900
M05
G00 X15.8 Y18.2
M04  S2
G01 X15.6 Y18.2 F900
M04  S128
G01 X15.4 Y18.2 F900
M04  S252
G01 X15.2 Y18.2 F900
M04  S255
G01 X14.8 Y18.2 F900
M04  S207
G01 X14.6 Y18.2 F900
M04  S17
G01 X14.4 Y18.2 F900
M04  S5
G01 X14.2 Y18.2 F900
M04  S171
G01 X14.0 Y18.2 F900
M04  S255
G01 X13.8 Y18.2 F900
M04  S220
G01 X13.6 Y18.2 F900
M04  S16
G01 X13.4 Y18.2 F900
M05
G00 X13.2 Y18.2
M04  S16
G01 X13.0 Y18.2 F900
M04  S191
G01 X12.8 Y18.2 F900
M04  S255
G01 X12.4 Y18.2 F900
M04  S223
G01 X12.2 Y18.2 F900
M04  S30
G01 X12.0 Y18.2 F900
M04  S1
G01 X11.8 Y18.2 F900
M04  S100
G01 X11.6 Y18.2 F900
M04  S255
G01 X11.4 Y18.2 F900
M04  S245
G01 X11.2 Y18.2 F900
M04  S67
G01 X11.0 Y18.2 F900
M05
G00 X10.8 Y18.2
M04  S3
G01 X10.6 Y18.2 F900
M04  S130
G01 X10.4 Y18.2 F900
M04  S252
G01 X10.2 Y18.2 F900
M04  S255
G01 X9.8 Y18.2 F900
M04  S206
G01 X9.6 Y18.2 F900
M04  S18
G01 X9.4 Y18.2 F900
M05
G00 X8.8 Y18.2
M04  S8
G01 X8.6 Y18.2 F900
M04  S136
G01 X8.4 Y18.2 F900
M04  S250
G01 X8.2 Y18.2 F900
M04  S255
G01 X8.0 Y18.2 F900
M04  S211
G01 X7.8 Y18.2 F900
M04  S53
G01 X7.6 Y18.2 F900
M05
G00 X6.0 Y18.2
M04  S1
G01 X5.8 Y18.2 F900
M04  S36
G01 X5.6 Y18.2 F900
M04  S152
G01 X5.4 Y18.2 F900
M04  S242
G01 X5.2 Y18.2 F900
M04  S255
G01 X4.4 Y18.2 F900
M04  S249
G01 X4.2 Y18.2 F900
M04  S175
G01 X4.0 Y18.2 F900
M04  S57
G01 X3.8 Y18.2 F900
M04  S3
G01 X3.6 Y18.2 F900
M05
G00 X3.2 Y18.4
M04  S1
G01 X3.4 Y18.4 F900
M04  S37
G01 X3.6 Y18.4 F900
M04  S148
G01 X3.8 Y18.4 F900
M04  S235
G01 X4.0 Y18.4 F900
M04  S254
G01 X4.2 Y18.4 F900
M04  S255
G01 X4.8 Y18.4 F900
M04  S246
G01 X5.0 Y18.4 F900
M04  S179
G01 X5.2 Y18.4 F900
M04  S63
G01 X5.4 Y18.4 F900
M04  S5
G01 X5.6 Y18.4 F900
M05
G00 X7.2 Y18.4
M04  S1
G01 X7.4 Y18.4 F900
M04  S52
G01 X7.6 Y18.4 F900
M04  S214
G01 X7.8 Y18.4 F900
M04  S254
G01 X8.0 Y18.4 F900
M04  S246
G01 X8.2 Y18.4 F900
M04  S137
G01 X8.4 Y18.4 F900
M04  S9
G01 X8.6 Y18.4 F900
M05
G00 X9.2 Y18.4
M04  S2
G01 X9.4 Y18.4 F900
M04  S119
G01 X9.6 Y18.4 F900
M04  S251
G01 X9.8 Y18.4 F900
M04  S255
G01 X10.2 Y18.4 F900
M04  S213
G01 X10.4 Y18.4 F900
M04  S24
G01 X10.6 Y18.4 F900
M05
G00 X10.8 Y18.4
M04  S1
G01 X11.0 Y18.4 F900
M04  S124
G01 X11.2 Y18.4 F900
M04  S255
G01 X11.4 Y18.4 F900
M04  S244
G01 X11.6 Y18.4 F900
M04  S45
G01 X11.8 Y18.4 F900
M05
G00 X12.0 Y18.4
M04  S30
G01 X12.2 Y18.4 F900
M04  S223
G01 X12.4 Y18.4 F900
M04  S255
G01 X12.8 Y18.4 F900
M04  S191
G01 X13.0 Y18.4 F900
M04  S16
G01 X13.2 Y18.4 F900
M05
G00 X13.4 Y18.4
M04  S1
G01 X13.6 Y18.4 F900
M04  S167
G01 X13.8 Y18.4 F900
M04  S255
G01 X14.0 Y18.4 F900
M04  S218
G01 X14.2 Y18.4 F900
M04  S30
G01 X14.4 Y18.4 F900
M05
G00 X14.6 Y18.4
M04  S88
G01 X14.8 Y18.4 F900
M04  S242
G01 X15.0 Y18.4 F900
M04  S255
G01 X15.4 Y18.4 F900
M04  S233
G01 X15.6 Y18.4 F900
M04  S43
G01 X15.8 Y18.4 F900
M05
G00 X16.8 Y18.4
M04  S21
G01 X17.0 Y18.4 F900
M04  S158
G01 X17.2 Y18.4 F900
M04  S251
G01 X17.4 Y18.4 F900
M04  S254
G01 X17.6 Y18.4 F900
M04  S191
G01 X17.8 Y18.4 F900
M04  S37
G01 X18.0 Y18.4 F900
M05
G00 X19.2 Y18.4
M04  S2
G01 X19.4 Y18.4 F900
M04  S24
G01 X19.6 Y18.4 F900
M04  S129
G01 X19.8 Y18.4 F900
M04  S226
G01 X20.0 Y18.4 F900
M04  S254
G01 X20.2 Y18.4 F900
M04  S255
G01 X20.8 Y18.4 F900
M04  S249
G01 X21.0 Y18.4 F900
M04  S195
G01 X21.2 Y18.4 F900
M04  S81
G01 X21.4 Y18.4 F900
M04  S8
G01 X21.6 Y18.4 F900
M05
G00 X22.0 Y18.6
M04  S5
G01 X21.8 Y18.6 F900
M04  S50
G01 X21.6 Y18.6 F900
M04  S164
G01 X21.4 Y18.6 F900
M04  S239
G01 X21.2 Y18.6 F900
M04  S254
G01 X21.0 Y18.6 F900
M04  S255
G01 X20.4 Y18.6 F900
M04  S238
G01 X20.2 Y18.6 F900
M04  S160
G01 X20.0 Y18.6 F900
M04  S54
G01 X19.8 Y18.6 F900
M04  S6
G01 X19.6 Y18.6 F900
M05
G00 X18.2 Y18.6
M04  S40
G01 X18.0 Y18.6 F900
M04  S184
G01 X17.8 Y18.6 F900
M04  S253
G01 X17.6 Y18.6 F900
M04  S252
G01 X17.4 Y18.6 F900
M04  S158
G01 X17.2 Y18.6 F900
M04  S25
G01 X17.0 Y18.6 F900
M05
G00 X16.0 Y18.6
M04  S11
G01 X15.8 Y18.6 F900
M04  S155
G01 X15.6 Y18.6 F900
M04  S255
G01 X15.2 Y18.6 F900
M04  S254
G01 X15.0 Y18.6 F900
M04  S174
G01 X14.8 Y18.6 F900
M04  S13
G01 X14.6 Y18.6 F900
M05
G00 X14.4 Y18.6
M04  S73
G01 X14.2 Y18.6 F900
M04  S240
G01 X14.0 Y18.6 F900
M04  S248
G01 X13.8 Y18.6 F900
M04  S106
G01 X13.6 Y18.6 F900
M05
G00 X13.2 Y18.6
M04  S16
G01 X13.0 Y18.6 F900
M04  S191
G01 X12.8 Y18.6 F900
M04  S255
G01 X12.4 Y18.6 F900
M04  S223
G01 X12.2 Y18.6 F900
M04  S30
G01 X12.0 Y18.6 F900
M05
G00 X11.8 Y18.6
M04  S13
G01 X11.6 Y18.6 F900
M04  S208
G01 X11.4 Y18.6 F900
M04  S255
G01 X11.2 Y18.6 F900
M04  S179
G01 X11.0 Y18.6 F900
M04  S13
G01 X10.8 Y18.6 F900
M05
G00 X10.4 Y18.6
M04  S102
G01 X10.2 Y18.6 F900
M04  S244
G01 X10.0 Y18.6 F900
M04  S255
G01 X9.6 Y18.6 F900
M04  S224
G01 X9.4 Y18.6 F900
M04  S37
G01 X9.2 Y18.6 F900
M05
G00 X8.4 Y18.6
M04  S14
G01 X8.2 Y18.6 F900
M04  S138
G01 X8.0 Y18.6 F900
M04  S245
G01 X7.8 Y18.6 F900
M04  S254
G01 X7.6 Y18.6 F900
M04  S210
G01 X7.4 Y18.6 F900
M04  S51
G01 X7.2 Y18.6 F900
M04  S2
G01 X7.0 Y18.6 F900
M05
G00 X5.2 Y18.6
M04  S19
G01 X5.0 Y18.6 F900
M04  S97
G01 X4.8 Y18.6 F900
M04  S203
G01 X4.6 Y18.6 F900
M04  S251
G01 X4.4 Y18.6 F900
M04  S255
G01 X3.8 Y18.6 F900
M04  S252
G01 X3.6 Y18.6 F900
M04  S215
G01 X3.4 Y18.6 F900
M04  S108
G01 X3.2 Y18.6 F900
M04  S23
G01 X3.0 Y18.6 F900
M04  S1
G01 X2.8 Y18.6 F900
M05
G00 X2.6 Y18.8
M04  S12
G01 X2.8 Y18.8 F900
M04  S78
G01 X3.0 Y18.8 F900
M04  S187
G01 X3.2 Y18.8 F900
M04  S247
G01 X3.4 Y18.8 F900
M04  S255
G01 X4.0 Y18.8 F900
M04  S253
G01 X4.2 Y18.8 F900
M04  S228
G01 X4.4 Y18.8 F900
M04  S131
G01 X4.6 Y18.8 F900
M04  S32
G01 X4.8 Y18.8 F900
M04  S2
G01 X5.0 Y18.8 F900
M05
G00 X6.8 Y18.8
M04  S1
G01 X7.0 Y18.8 F900
M04  S53
G01 X7.2 Y18.8 F900
M04  S203
G01 X7.4 Y18.8 F900
M04  S255
G01 X7.6 Y18.8 F900
M04  S246
G01 X7.8 Y18.8 F900
M04  S137
G01 X8.0 Y18.8 F900
M04  S16
G01 X8.2 Y18.8 F900
M05
G00 X9.0 Y18.8
M04  S9
G01 X9.2 Y18.8 F900
M04  S143
G01 X9.4 Y18.8 F900
M04  S255
G01 X9.8 Y18.8 F900
M04  S254
G01 X10.0 Y18.8 F900
M04  S185
G01 X10.2 Y18.8 F900
M04  S18
G01 X10.4 Y18.8 F900
M05
G00 X10.8 Y18.8
M04  S39
G01 X11.0 Y18.8 F900
M04  S220
G01 X11.2 Y18.8 F900
M04  S254
G01 X11.4 Y18.8 F900
M04  S152
G01 X11.6 Y18.8 F900
M04  S3
G01 X11.8 Y18.8 F900
M05
G00 X12.0 Y18.8
M04  S30
G01 X12.2 Y18.8 F900
M04  S223
G01 X12.4 Y18.8 F900
M04  S255
G01 X12.8 Y18.8 F900
M04  S191
G01 X13.0 Y18.8 F900
M04  S16
G01 X13.2 Y18.8 F900
M05
G00 X13.6 Y18.8
M04  S53
G01 X13.8 Y18.8 F900
M04  S234
G01 X14.0 Y18.8 F900
M04  S252
G01 X14.2 Y18.8 F900
M04  S131
G01 X14.4 Y18.8 F900
M05
G00 X14.8 Y18.8
M04  S66
G01 X15.0 Y18.8 F900
M04  S230
G01 X15.2 Y18.8 F900
M04  S255
G01 X15.6 Y18.8 F900
M04  S238
G01 X15.8 Y18.8 F900
M04  S71
G01 X16.0 Y18.8 F900
M04  S1
G01 X16.2 Y18.8 F900
M05
G00 X17.2 Y18.8
M04  S22
G01 X17.4 Y18.8 F900
M04  S165
G01 X17.6 Y18.8 F900
M04  S251
G01 X17.8 Y18.8 F900
M04  S253
G01 X18.0 Y18.8 F900
M04  S184
G01 X18.2 Y18.8 F900
M04  S38
G01 X18.4 Y18.8 F900
M05
G00 X20.0 Y18.8
M04  S12
G01 X20.2 Y18.8 F900
M04  S79
G01 X20.4 Y18.8 F900
M04  S192
G01 X20.6 Y18.8 F900
M04  S248
G01 X20.8 Y18.8 F900
M04  S255
G01 X21.4 Y18.8 F900
M04  S254
G01 X21.6 Y18.8 F900
M04  S223
G01 X21.8 Y18.8 F900
M04  S126
G01 X22.0 Y18.8 F900
M04  S32
G01 X22.2 Y18.8 F900
M04  S2
G01 X22.4 Y18.8 F900
M05
G00 X22.6 Y19.0
M04  S11
G01 X22.4 Y19.0 F900
M04  S93
G01 X22.2 Y19.0 F900
M04  S204
G01 X22.0 Y19.0 F900
M04  S252
G01 X21.8 Y19.0 F900
M04  S255
G01 X21.2 Y19.0 F900
M04  S253
G01 X21.0 Y19.0 F900
M04  S221
G01 X20.8 Y19.0 F900
M04  S116
G01 X20.6 Y19.0 F900
M04  S18
G01 X20.4 Y19.0 F900
M05
G00 X18.6 Y19.0
M04  S29
G01 X18.4 Y19.0 F900
M04  S188
G01 X18.2 Y19.0 F900
M04  S253
G01 X18.0 Y19.0 F900
M04  S251
G01 X17.8 Y19.0 F900
M04  S173
G01 X17.6 Y19.0 F900
M04  S19
G01 X17.4 Y19.0 F900
M05
G00 X16.2 Y19.0
M04  S19
G01 X16.0 Y19.0 F900
M04  S181
G01 X15.8 Y19.0 F900
M04  S255
G01 X15.4 Y19.0 F900
M04  S254
G01 X15.2 Y19.0 F900
M04  S145
G01 X15.0 Y19.0 F900
M04  S7
G01 X14.8 Y19.0 F900
M05
G00 X14.6 Y19.0
M04  S4
G01 X14.4 Y19.0 F900
M04  S189
G01 X14.2 Y19.0 F900
M04  S255
G01 X14.0 Y19.0 F900
M04  S203
G01 X13.8 Y19.0 F900
M04  S17
G01 X13.6 Y19.0 F900
M05
G00 X13.2 Y19.0
M04  S16
G01 X13.0 Y19.0 F900
M04  S191
G01 X12.8 Y19.0 F900
M04  S255
G01 X12.4 Y19.0 F900
M04  S223
G01 X12.2 Y19.0 F900
M04  S30
G01 X12.0 Y19.0 F900
M05
G00 X11.8 Y19.0
M04  S1
G01 X11.6 Y19.0 F900
M04  S90
G01 X11.4 Y19.0 F900
M04  S250
G01 X11.2 Y19.0 F900
M04  S245
G01 X11.0 Y19.0 F900
M04  S83
G01 X10.8 Y19.0 F900
M05
G00 X10.2 Y19.0
M04  S76
G01 X10.0 Y19.0 F900
M04  S237
G01 X9.8 Y19.0 F900
M04  S255
G01 X9.4 Y19.0 F900
M04  S235
G01 X9.2 Y19.0 F900
M04  S62
G01 X9.0 Y19.0 F900
M05
G00 X8.0 Y19.0
M04  S15
G01 X7.8 Y19.0 F900
M04  S140
G01 X7.6 Y19.0 F900
M04  S251
G01 X7.4 Y19.0 F900
M04  S255
G01 X7.2 Y19.0 F900
M04  S203
G01 X7.0 Y19.0 F900
M04  S50
G01 X6.8 Y19.0 F900
M04  S1
G01 X6.6 Y19.0 F900
M05
G00 X4.6 Y19.0
M04  S2
G01 X4.4 Y19.0 F900
M04  S54
G01 X4.2 Y19.0 F900
M04  S168
G01 X4.0 Y19.0 F900
M04  S243
G01 X3.8 Y19.0 F900
M04  S255
G01 X3.0 Y19.0 F900
M04  S240
G01 X2.8 Y19.0 F900
M04  S161
G01 X2.6 Y19.0 F900
M04  S44
G01 X2.4 Y19.0 F900
M04  S3
G01 X2.2 Y19.0 F900
M05
G00 X2.0 Y19.2
M04  S26
G01 X2.2 Y19.2 F900
M04  S128
G01 X2.4 Y19.2 F900
M04  S235
G01 X2.6 Y19.2 F900
M04  S255
G01 X3.4 Y19.2 F900
M04  S252
G01 X3.6 Y19.2 F900
M04  S193
G01 X3.8 Y19.2 F900
M04  S74
G01 X4.0 Y19.2 F900
M04  S6
G01 X4.2 Y19.2 F900
M05
G00 X6.6 Y19.2
M04  S50
G01 X6.8 Y19.2 F900
M04  S208
G01 X7.0 Y19.2 F900
M04  S255
G01 X7.2 Y19.2 F900
M04  S251
G01 X7.4 Y19.2 F900
M04  S140
G01 X7.6 Y19.2 F900
M04  S9
G01 X7.8 Y19.2 F900
M05
G00 X8.8 Y19.2
M04  S16
G01 X9.0 Y19.2 F900
M04  S176
G01 X9.2 Y19.2 F900
M04  S255
G01 X9.8 Y19.2 F900
M04  S153
G01 X10.0 Y19.2 F900
M04  S9
G01 X10.2 Y19.2 F900
M05
G00 X10.8 Y19.2
M04  S142
G01 X11.0 Y19.2 F900
M04  S254
G01 X11.2 Y19.2 F900
M04  S237
G01 X11.4 Y19.2 F900
M04  S36
G01 X11.6 Y19.2 F900
M05
G00 X12.0 Y19.2
M04  S30
G01 X12.2 Y19.2 F900
M04  S223
G01 X12.4 Y19.2 F900
M04  S255
G01 X12.8 Y19.2 F900
M04  S191
G01 X13.0 Y19.2 F900
M04  S16
G01 X13.2 Y19.2 F900
M05
G00 X13.6 Y19.2
M04  S1
G01 X13.8 Y19.2 F900
M04  S149
G01 X14.0 Y19.2 F900
M04  S255
G01 X14.2 Y19.2 F900
M04  S233
G01 X14.4 Y19.2 F900
M04  S31
G01 X14.6 Y19.2 F900
M05
G00 X15.0 Y19.2
M04  S39
G01 X15.2 Y19.2 F900
M04  S218
G01 X15.4 Y19.2 F900
M04  S255
G01 X15.8 Y19.2 F900
M04  S247
G01 X16.0 Y19.2 F900
M04  S103
G01 X16.2 Y19.2 F900
M05
G00 X17.6 Y19.2
M04  S19
G01 X17.8 Y19.2 F900
M04  S167
G01 X18.0 Y19.2 F900
M04  S252
G01 X18.2 Y19.2 F900
M04  S254
G01 X18.4 Y19.2 F900
M04  S194
G01 X18.6 Y19.2 F900
M04  S27
G01 X18.8 Y19.2 F900
M05
G00 X20.8 Y19.2
M04  S33
G01 X21.0 Y19.2 F900
M04  S142
G01 X21.2 Y19.2 F900
M04  S237
G01 X21.4 Y19.2 F900
M04  S255
G01 X22.2 Y19.2 F900
M04  S250
G01 X22.4 Y19.2 F900
M04  S187
G01 X22.6 Y19.2 F900
M04  S61
G01 X22.8 Y19.2 F900
M04  S4
G01 X23.0 Y19.2 F900
M05
G00 X23.4 Y19.4
M04  S2
G01 X23.2 Y19.4 F900
M04  S45
G01 X23.0 Y19.4 F900
M04  S152
G01 X22.8 Y19.4 F900
M04  S239
G01 X22.6 Y19.4 F900
M04  S254
G01 X22.4 Y19.4 F900
M04  S255
G01 X21.8 Y19.4 F900
M04  S246
G01 X21.6 Y19.4 F900
M04  S171
G01 X21.4 Y19.4 F900
M04  S54
G01 X21.2 Y19.4 F900
M04  S6
G01 X21.0 Y19.4 F900
M05
G00 X19.0 Y19.4
M04  S11
G01 X18.8 Y19.4 F900
M04  S161
G01 X18.6 Y19.4 F900
M04  S254
G01 X18.4 Y19.4 F900
M04  S252
G01 X18.2 Y19.4 F900
M04  S161
G01 X18.0 Y19.4 F900
M04  S23
G01 X17.8 Y19.4 F900
M05
G00 X16.4 Y19.4
M04  S34
G01 X16.2 Y19.4 F900
M04  S210
G01 X16.0 Y19.4 F900
M04  S255
G01 X15.6 Y19.4 F900
M04  S252
G01 X15.4 Y19.4 F900
M04  S108
G01 X15.2 Y19.4 F900
M04  S3
G01 X15.0 Y19.4 F900
M05
G00 X14.6 Y19.4
M04  S82
G01 X14.4 Y19.4 F900
M04  S249
G01 X14.2 Y19.4 F900
M04  S247
G01 X14.0 Y19.4 F900
M04  S90
G01 X13.8 Y19.4 F900
M05
G00 X13.2 Y19.4
M04  S16
G01 X13.0 Y19.4 F900
M04  S191
G01 X12.8 Y19.4 F900
M04  S255
G01 X12.4 Y19.4 F900
M04  S223
G01 X12.2 Y19.4 F900
M04  S30
G01 X12.0 Y19.4 F900
M05
G00 X11.6 Y19.4
M04  S6
G01 X11.4 Y19.4 F900
M04  S196
G01 X11.2 Y19.4 F900
M04  S255
G01 X11.0 Y19.4 F900
M04  S196
G01 X10.8 Y19.4 F900
M04  S14
G01 X10.6 Y19.4 F900
M05
G00 X10.0 Y19.4
M04  S46
G01 X9.8 Y19.4 F900
M04  S223
G01 X9.6 Y19.4 F900
M04  S255
G01 X9.2 Y19.4 F900
M04  S244
G01 X9.0 Y19.4 F900
M04  S96
G01 X8.8 Y19.4 F900
M05
G00 X7.6 Y19.4
M04  S10
G01 X7.4 Y19.4 F900
M04  S141
G01 X7.2 Y19.4 F900
M04  S247
G01 X7.0 Y19.4 F900
M04  S254
G01 X6.8 Y19.4 F900
M04  S211
G01 X6.6 Y19.4 F900
M04  S40
G01 X6.4 Y19.4 F900
M05
G00 X4.0 Y19.4
M04  S1
G01 X3.8 Y19.4 F900
M04  S17
G01 X3.6 Y19.4 F900
M04  S103
G01 X3.4 Y19.4 F900
M04  S216
G01 X3.2 Y19.4 F900
M04  S253
G01 X3.0 Y19.4 F900
M04  S255
G01 X2.4 Y19.4 F900
M04  S252
G01 X2.2 Y19.4 F900
M04  S210
G01 X2.0 Y19.4 F900
M04  S101
G01 X1.8 Y19.4 F900
M04  S16
G01 X1.6 Y19.4 F900
M05
G00 X1.4 Y19.6
M04  S20
G01 X1.6 Y19.6 F900
M04  S175
G01 X1.8 Y19.6 F900
M04  S244
G01 X2.0 Y19.6 F900
M04  S255
G01 X2.6 Y19.6 F900
M04  S254
G01 X2.8 Y19.6 F900
M04  S228
G01 X3.0 Y19.6 F900
M04  S140
G01 X3.2 Y19.6 F900
M04  S39
G01 X3.4 Y19.6 F900
M04  S2
G01 X3.6 Y19.6 F900
M05
G00 X6.4 Y19.6
M04  S38
G01 X6.6 Y19.6 F900
M04  S205
G01 X6.8 Y19.6 F900
M04  S244
G01 X7.0 Y19.6 F900
M04  S140
G01 X7.2 Y19.6 F900
M04  S15
G01 X7.4 Y19.6 F900
M05
G00 X8.6 Y19.6
M04  S29
G01 X8.8 Y19.6 F900
M04  S201
G01 X9.0 Y19.6 F900
M04  S255
G01 X9.4 Y19.6 F900
M04  S253
G01 X9.6 Y19.6 F900
M04  S120
G01 X9.8 Y19.6 F900
M04  S5
G01 X10.0 Y19.6 F900
M05
G00 X10.6 Y19.6
M04  S47
G01 X10.8 Y19.6 F900
M04  S231
G01 X11.0 Y19.6 F900
M04  S253
G01 X11.2 Y19.6 F900
M04  S138
G01 X11.4 Y19.6 F900
M05
G00 X12.0 Y19.6
M04  S30
G01 X12.2 Y19.6 F900
M04  S223
G01 X12.4 Y19.6 F900
M04  S255
G01 X12.8 Y19.6 F900
M04  S191
G01 X13.0 Y19.6 F900
M04  S16
G01 X13.2 Y19.6 F900
M05
G00 X13.8 Y19.6
M04  S44
G01 X14.0 Y19.6 F900
M04  S225
G01 X14.2 Y19.6 F900
M04  S254
G01 X14.4 Y19.6 F900
M04  S144
G01 X14.6 Y19.6 F900
M04  S3
G01 X14.8 Y19.6 F900
M05
G00 X15.2 Y19.6
M04  S20
G01 X15.4 Y19.6 F900
M04  S198
G01 X15.6 Y19.6 F900
M04  S255
G01 X16.0 Y19.6 F900
M04  S250
G01 X16.2 Y19.6 F900
M04  S136
G01 X16.4 Y19.6 F900
M04  S2
G01 X16.6 Y19.6 F900
M05
G00 X18.0 Y19.6
M04  S26
G01 X18.2 Y19.6 F900
M04  S161
G01 X18.4 Y19.6 F900
M04  S220
G01 X18.6 Y19.6 F900
M04  S66
G01 X18.8 Y19.6 F900
M04  S2
G01 X19.0 Y19.6 F900
M05
G00 X21.4 Y19.6
M04  S14
G01 X21.6 Y19.6 F900
M04  S90
G01 X21.8 Y19.6 F900
M04  S198
G01 X22.0 Y19.6 F900
M04  S249
G01 X22.2 Y19.6 F900
M04  S255
G01 X22.8 Y19.6 F900
M04  S252
G01 X23.0 Y19.6 F900
M04  S218
G01 X23.2 Y19.6 F900
M04  S121
G01 X23.4 Y19.6 F900
M04  S27
G01 X23.6 Y19.6 F900
M05
G00 X24.0 Y19.8
M04  S5
G01 X23.8 Y19.8 F900
M04  S77
G01 X23.6 Y19.8 F900
M04  S197
G01 X23.4 Y19.8 F900
M04  S249
G01 X23.2 Y19.8 F900
M04  S255
G01 X22.6 Y19.8 F900
M04  S253
G01 X22.4 Y19.8 F900
M04  S221
G01 X22.2 Y19.8 F900
M04  S123
G01 X22.0 Y19.8 F900
M04  S30
G01 X21.8 Y19.8 F900
M04  S1
G01 X21.6 Y19.8 F900
M05
G00 X18.8 Y19.8
M04  S2
G01 X18.6 Y19.8 F900
M04  S53
G01 X18.4 Y19.8 F900
M04  S22
G01 X18.2 Y19.8 F900
M05
G00 X16.6 Y19.8
M04  S48
G01 X16.4 Y19.8 F900
M04  S230
G01 X16.2 Y19.8 F900
M04  S255
G01 X15.8 Y19.8 F900
M04  S246
G01 X15.6 Y19.8 F900
M04  S82
G01 X15.4 Y19.8 F900
M04  S1
G01 X15.2 Y19.8 F900
M05
G00 X14.8 Y19.8
M04  S10
G01 X14.6 Y19.8 F900
M04  S201
G01 X14.4 Y19.8 F900
M04  S255
G01 X14.2 Y19.8 F900
M04  S187
G01 X14.0 Y19.8 F900
M04  S16
G01 X13.8 Y19.8 F900
M05
G00 X13.2 Y19.8
M04  S16
G01 X13.0 Y19.8 F900
M04  S191
G01 X12.8 Y19.8 F900
M04  S255
G01 X12.4 Y19.8 F900
M04  S223
G01 X12.2 Y19.8 F900
M04  S30
G01 X12.0 Y19.8 F900
M05
G00 X11.4 Y19.8
M04  S80
G01 X11.2 Y19.8 F900
M04  S243
G01 X11.0 Y19.8 F900
M04  S247
G01 X10.8 Y19.8 F900
M04  S97
G01 X10.6 Y19.8 F900
M05
G00 X9.8 Y19.8
M04  S25
G01 X9.6 Y19.8 F900
M04  S209
G01 X9.4 Y19.8 F900
M04  S255
G01 X9.0 Y19.8 F900
M04  S249
G01 X8.8 Y19.8 F900
M04  S125
G01 X8.6 Y19.8 F900
M04  S1
G01 X8.4 Y19.8 F900
M05
G00 X7.2 Y19.8
M04  S17
G01 X7.0 Y19.8 F900
M04  S113
G01 X6.8 Y19.8 F900
M04  S54
G01 X6.6 Y19.8 F900
M05
G00 X3.2 Y19.8
M04  S7
G01 X3.0 Y19.8 F900
M04  S63
G01 X2.8 Y19.8 F900
M04  S172
G01 X2.6 Y19.8 F900
M04  S243
G01 X2.4 Y19.8 F900
M04  S255
G01 X2.0 Y19.8 F900
M04  S254
G01 X1.8 Y19.8 F900
M04  S176
G01 X1.6 Y19.8 F900
M04  S9
G01 X1.4 Y19.8 F900
M05
G00 X1.6 Y20.0
M04  S62
G01 X1.8 Y20.0 F900
M04  S231
G01 X2.0 Y20.0 F900
M04  S251
G01 X2.2 Y20.0 F900
M04  S209
G01 X2.4 Y20.0 F900
M04  S89
G01 X2.6 Y20.0 F900
M04  S12
G01 X2.8 Y20.0 F900
M05
G00 X6.8 Y20.0
M04  S1
G01 X7.0 Y20.0 F900
M05
G00 X8.4 Y20.0
M04  S38
G01 X8.6 Y20.0 F900
M04  S227
G01 X8.8 Y20.0 F900
M04  S255
G01 X9.2 Y20.0 F900
M04  S249
G01 X9.4 Y20.0 F900
M04  S94
G01 X9.6 Y20.0 F900
M04  S1
G01 X9.8 Y20.0 F900
M05
G00 X10.6 Y20.0
M04  S158
G01 X10.8 Y20.0 F900
M04  S254
G01 X11.0 Y20.0 F900
M04  S222
G01 X11.2 Y20.0 F900
M04  S35
G01 X11.4 Y20.0 F900
M05
G00 X12.0 Y20.0
M04  S30
G01 X12.2 Y20.0 F900
M04  S223
G01 X12.4 Y20.0 F900
M04  S255
G01 X12.8 Y20.0 F900
M04  S191
G01 X13.0 Y20.0 F900
M04  S16
G01 X13.2 Y20.0 F900
M05
G00 X13.8 Y20.0
M04  S2
G01 X14.0 Y20.0 F900
M04  S132
G01 X14.2 Y20.0 F900
M04  S255
G01 X14.4 Y20.0 F900
M04  S241
G01 X14.6 Y20.0 F900
M04  S39
G01 X14.8 Y20.0 F900
M05
G00 X15.4 Y20.0
M04  S7
G01 X15.6 Y20.0 F900
M04  S178
G01 X15.8 Y20.0 F900
M04  S254
G01 X16.0 Y20.0 F900
M04  S255
G01 X16.2 Y20.0 F900
M04  S254
G01 X16.4 Y20.0 F900
M04  S164
G01 X16.6 Y20.0 F900
M04  S6
G01 X16.8 Y20.0 F900
M05
G00 X22.0 Y20.0
M04  S3
G01 X22.2 Y20.0 F900
M04  S45
G01 X22.4 Y20.0 F900
M04  S157
G01 X22.6 Y20.0 F900
M04  S243
G01 X22.8 Y20.0 F900
M04  S254
G01 X23.0 Y20.0 F900
M04  S255
G01 X23.6 Y20.0 F900
M04  S179
G01 X23.8 Y20.0 F900
M04  S14
G01 X24.0 Y20.0 F900
M05
G00 X23.8 Y20.2
M04  S63
G01 X23.6 Y20.2 F900
M04  S246
G01 X23.4 Y20.2 F900
M04  S255
G01 X23.2 Y20.2 F900
M04  S250
G01 X23.0 Y20.2 F900
M04  S188
G01 X22.8 Y20.2 F900
M04  S68
G01 X22.6 Y20.2 F900
M04  S3
G01 X22.4 Y20.2 F900
M05
G00 X17.0 Y20.2
M04  S1
G01 X16.8 Y20.2 F900
M04  S70
G01 X16.6 Y20.2 F900
M04  S247
G01 X16.4 Y20.2 F900
M04  S255
G01 X16.0 Y20.2 F900
M04  S232
G01 X15.8 Y20.2 F900
M04  S58
G01 X15.6 Y20.2 F900
M05
G00 X15.0 Y20.2
M04  S1
G01 X14.8 Y20.2 F900
M04  S93
G01 X14.6 Y20.2 F900
M04  S255
G01 X14.4 Y20.2 F900
M04  S247
G01 X14.2 Y20.2 F900
M04  S74
G01 X14.0 Y20.2 F900
M05
G00 X13.2 Y20.2
M04  S16
G01 X13.0 Y20.2 F900
M04  S191
G01 X12.8 Y20.2 F900
M04  S255
G01 X12.4 Y20.2 F900
M04  S223
G01 X12.2 Y20.2 F900
M04  S30
G01 X12.0 Y20.2 F900
M05
G00 X11.4 Y20.2
M04  S7
G01 X11.2 Y20.2 F900
M04  S180
G01 X11.0 Y20.2 F900
M04  S255
G01 X10.8 Y20.2 F900
M04  S213
G01 X10.6 Y20.2 F900
M04  S12
G01 X10.4 Y20.2 F900
M05
G00 X9.6 Y20.2
M04  S9
G01 X9.4 Y20.2 F900
M04  S186
G01 X9.2 Y20.2 F900
M04  S254
G01 X9.0 Y20.2 F900
M04  S255
G01 X8.8 Y20.2 F900
M04  S254
G01 X8.6 Y20.2 F900
M04  S156
G01 X8.4 Y20.2 F900
M04  S5
G01 X8.2 Y20.2 F900
M05
G00 X2.4 Y20.2
M04  S20
G01 X2.2 Y20.2 F900
M04  S121
G01 X2.0 Y20.2 F900
M04  S119
G01 X1.8 Y20.2 F900
M04  S4
G01 X1.6 Y20.2 F900
M05
G00 X1.8 Y20.4
M04  S4
G01 X2.0 Y20.4 F900
M04  S3
G01 X2.2 Y20.4 F900
M05
G00 X8.0 Y20.4
M04  S1
G01 X8.2 Y20.4 F900
M04  S65
G01 X8.4 Y20.4 F900
M04  S243
G01 X8.6 Y20.4 F900
M04  S255
G01 X9.0 Y20.4 F900
M04  S233
G01 X9.2 Y20.4 F900
M04  S67
G01 X9.4 Y20.4 F900
M05
G00 X10.4 Y20.4
M04  S52
G01 X10.6 Y20.4 F900
M04  S244
G01 X10.8 Y20.4 F900
M04  S253
G01 X11.0 Y20.4 F900
M04  S121
G01 X11.2 Y20.4 F900
M05
G00 X12.0 Y20.4
M04  S30
G01 X12.2 Y20.4 F900
M04  S223
G01 X12.4 Y20.4 F900
M04  S255
G01 X12.8 Y20.4 F900
M04  S191
G01 X13.0 Y20.4 F900
M04  S16
G01 X13.2 Y20.4 F900
M05
G00 X14.0 Y20.4
M04  S32
G01 X14.2 Y20.4 F900
M04  S218
G01 X14.4 Y20.4 F900
M04  S255
G01 X14.6 Y20.4 F900
M04  S156
G01 X14.8 Y20.4 F900
M04  S7
G01 X15.0 Y20.4 F900
M05
G00 X15.6 Y20.4
M04  S4
G01 X15.8 Y20.4 F900
M04  S139
G01 X16.0 Y20.4 F900
M04  S252
G01 X16.2 Y20.4 F900
M04  S255
G01 X16.6 Y20.4 F900
M04  S191
G01 X16.8 Y20.4 F900
M04  S22
G01 X17.0 Y20.4 F900
M05
G00 X22.6 Y20.4
M04  S1
G01 X22.8 Y20.4 F900
M04  S15
G01 X23.0 Y20.4 F900
M04  S96
G01 X23.2 Y20.4 F900
M04  S205
G01 X23.4 Y20.4 F900
M04  S154
G01 X23.6 Y20.4 F900
M04  S4
G01 X23.8 Y20.4 F900
M05
G00 X23.6 Y20.6
M04  S26
G01 X23.4 Y20.6 F900
M04  S30
G01 X23.2 Y20.6 F900
M04  S3
G01 X23.0 Y20.6 F900
M05
G00 X17.2 Y20.6
M04  S3
G01 X17.0 Y20.6 F900
M04  S105
G01 X16.8 Y20.6 F900
M04  S249
G01 X16.6 Y20.6 F900
M04  S255
G01 X16.2 Y20.6 F900
M04  S210
G01 X16.0 Y20.6 F900
M04  S40
G01 X15.8 Y20.6 F900
M05
G00 X15.0 Y20.6
M04  S23
G01 X14.8 Y20.6 F900
M04  S207
G01 X14.6 Y20.6 F900
M04  S255
G01 X14.4 Y20.6 F900
M04  S172
G01 X14.2 Y20.6 F900
M04  S12
G01 X14.0 Y20.6 F900
M05
G00 X13.2 Y20.6
M04  S16
G01 X13.0 Y20.6 F900
M04  S191
G01 X12.8 Y20.6 F900
M04  S255
G01 X12.4 Y20.6 F900
M04  S223
G01 X12.2 Y20.6 F900
M04  S30
G01 X12.0 Y20.6 F900
M05
G00 X11.2 Y20.6
M04  S66
G01 X11.0 Y20.6 F900
M04  S238
G01 X10.8 Y20.6 F900
M04  S252
G01 X10.6 Y20.6 F900
M04  S109
G01 X10.4 Y20.6 F900
M04  S1
G01 X10.2 Y20.6 F900
M05
G00 X9.4 Y20.6
M04  S7
G01 X9.2 Y20.6 F900
M04  S150
G01 X9.0 Y20.6 F900
M04  S253
G01 X8.8 Y20.6 F900
M04  S255
G01 X8.4 Y20.6 F900
M04  S180
G01 X8.2 Y20.6 F900
M04  S19
G01 X8.0 Y20.6 F900
M05
G00 X7.8 Y20.8
M04  S2
G01 X8.0 Y20.8 F900
M04  S95
G01 X8.2 Y20.8 F900
M04  S247
G01 X8.4 Y20.8 F900
M04  S255
G01 X8.8 Y20.8 F900
M04  S218
G01 X9.0 Y20.8 F900
M04  S47
G01 X9.2 Y20.8 F900
M05
G00 X10.2 Y20.8
M04  S5
G01 X10.4 Y20.8 F900
M04  S171
G01 X10.6 Y20.8 F900
M04  S255
G01 X10.8 Y20.8 F900
M04  S210
G01 X11.0 Y20.8 F900
M04  S29
G01 X11.2 Y20.8 F900
M05
G00 X12.0 Y20.8
M04  S30
G01 X12.2 Y20.8 F900
M04  S223
G01 X12.4 Y20.8 F900
M04  S255
G01 X12.8 Y20.8 F900
M04  S191
G01 X13.0 Y20.8 F900
M04  S16
G01 X13.2 Y20.8 F900
M05
G00 X14.0 Y20.8
M04  S2
G01 X14.2 Y20.8 F900
M04  S114
G01 X14.4 Y20.8 F900
M04  S255
G01 X14.6 Y20.8 F900
M04  S240
G01 X14.8 Y20.8 F900
M04  S57
G01 X15.0 Y20.8 F900
M05
G00 X15.8 Y20.8
M04  S3
G01 X16.0 Y20.8 F900
M04  S109
G01 X16.2 Y20.8 F900
M04  S249
G01 X16.4 Y20.8 F900
M04  S255
G01 X16.8 Y20.8 F900
M04  S209
G01 X17.0 Y20.8 F900
M04  S38
G01 X17.2 Y20.8 F900
M05
G00 X17.4 Y21.0
M04  S4
G01 X17.2 Y21.0 F900
M04  S135
G01 X17.0 Y21.0 F900
M04  S252
G01 X16.8 Y21.0 F900
M04  S255
G01 X16.4 Y21.0 F900
M04  S192
G01 X16.2 Y21.0 F900
M04  S23
G01 X16.0 Y21.0 F900
M05
G00 X15.0 Y21.0
M04  S109
G01 X14.8 Y21.0 F900
M04  S254
G01 X14.6 Y21.0 F900
M04  S248
G01 X14.4 Y21.0 F900
M04  S57
G01 X14.2 Y21.0 F900
M05
G00 X13.2 Y21.0
M04  S16
G01 X13.0 Y21.0 F900
M04  S191
G01 X12.8 Y21.0 F900
M04  S255
G01 X12.4 Y21.0 F900
M04  S223
G01 X12.2 Y21.0 F900
M04  S30
G01 X12.0 Y21.0 F900
M05
G00 X11.2 Y21.0
M04  S7
G01 X11.0 Y21.0 F900
M04  S163
G01 X10.8 Y21.0 F900
M04  S255
G01 X10.6 Y21.0 F900
M04  S221
G01 X10.4 Y21.0 F900
M04  S20
G01 X10.2 Y21.0 F900
M05
G00 X9.2 Y21.0
M04  S4
G01 X9.0 Y21.0 F900
M04  S121
G01 X8.8 Y21.0 F900
M04  S252
G01 X8.6 Y21.0 F900
M04  S255
G01 X8.2 Y21.0 F900
M04  S202
G01 X8.0 Y21.0 F900
M04  S31
G01 X7.8 Y21.0 F900
M05
G00 X7.6 Y21.2
M04  S2
G01 X7.8 Y21.2 F900
M04  S129
G01 X8.0 Y21.2 F900
M04  S251
G01 X8.2 Y21.2 F900
M04  S255
G01 X8.6 Y21.2 F900
M04  S200
G01 X8.8 Y21.2 F900
M04  S26
G01 X9.0 Y21.2 F900
M05
G00 X10.2 Y21.2
M04  S62
G01 X10.4 Y21.2 F900
M04  S251
G01 X10.6 Y21.2 F900
M04  S254
G01 X10.8 Y21.2 F900
M04  S103
G01 X11.0 Y21.2 F900
M05
G00 X12.0 Y21.2
M04  S30
G01 X12.2 Y21.2 F900
M04  S223
G01 X12.4 Y21.2 F900
M04  S255
G01 X12.8 Y21.2 F900
M04  S191
G01 X13.0 Y21.2 F900
M04  S16
G01 X13.2 Y21.2 F900
M05
G00 X14.2 Y21.2
M04  S17
G01 X14.4 Y21.2 F900
M04  S216
G01 X14.6 Y21.2 F900
M04  S255
G01 X14.8 Y21.2 F900
M04  S169
G01 X15.0 Y21.2 F900
M04  S9
G01 X15.2 Y21.2 F900
M05
G00 X16.0 Y21.2
M04  S1
G01 X16.2 Y21.2 F900
M04  S73
G01 X16.4 Y21.2 F900
M04  S247
G01 X16.6 Y21.2 F900
M04  S255
G01 X17.0 Y21.2 F900
M04  S229
G01 X17.2 Y21.2 F900
M04  S57
G01 X17.4 Y21.2 F900
M05
G00 X17.6 Y21.4
M04  S7
G01 X17.4 Y21.4 F900
M04  S174
G01 X17.2 Y21.4 F900
M04  S254
G01 X17.0 Y21.4 F900
M04  S255
G01 X16.8 Y21.4 F900
M04  S254
G01 X16.6 Y21.4 F900
M04  S164
G01 X16.4 Y21.4 F900
M04  S9
G01 X16.2 Y21.4 F900
M05
G00 X15.2 Y21.4
M04  S33
G01 X15.0 Y21.4 F900
M04  S215
G01 X14.8 Y21.4 F900
M04  S254
G01 X14.6 Y21.4 F900
M04  S163
G01 X14.4 Y21.4 F900
M04  S5
G01 X14.2 Y21.4 F900
M05
G00 X13.2 Y21.4
M04  S16
G01 X13.0 Y21.4 F900
M04  S191
G01 X12.8 Y21.4 F900
M04  S255
G01 X12.4 Y21.4 F900
M04  S223
G01 X12.2 Y21.4 F900
M04  S30
G01 X12.0 Y21.4 F900
M05
G00 X11.0 Y21.4
M04  S51
G01 X10.8 Y21.4 F900
M04  S237
G01 X10.6 Y21.4 F900
M04  S255
G01 X10.4 Y21.4 F900
M04  S122
G01 X10.2 Y21.4 F900
M04  S3
G01 X10.0 Y21.4 F900
M05
G00 X9.0 Y21.4
M04  S1
G01 X8.8 Y21.4 F900
M04  S82
G01 X8.6 Y21.4 F900
M04  S248
G01 X8.4 Y21.4 F900
M04  S255
G01 X8.0 Y21.4 F900
M04  S225
G01 X7.8 Y21.4 F900
M04  S52
G01 X7.6 Y21.4 F900
M05
G00 X7.4 Y21.6
M04  S6
G01 X7.6 Y21.6 F900
M04  S163
G01 X7.8 Y21.6 F900
M04  S253
G01 X8.0 Y21.6 F900
M04  S255
G01 X8.2 Y21.6 F900
M04  S254
G01 X8.4 Y21.6 F900
M04  S176
G01 X8.6 Y21.6 F900
M04  S11
G01 X8.8 Y21.6 F900
M05
G00 X10.0 Y21.6
M04  S14
G01 X10.2 Y21.6 F900
M04  S181
G01 X10.4 Y21.6 F900
M04  S255
G01 X10.6 Y21.6 F900
M04  S200
G01 X10.8 Y21.6 F900
M04  S20
G01 X11.0 Y21.6 F900
M05
G00 X12.0 Y21.6
M04  S30
G01 X12.2 Y21.6 F900
M04  S223
G01 X12.4 Y21.6 F900
M04  S255
G01 X12.8 Y21.6 F900
M04  S191
G01 X13.0 Y21.6 F900
M04  S16
G01 X13.2 Y21.6 F900
M05
G00 X14.2 Y21.6
M04  S1
G01 X14.4 Y21.6 F900
M04  S100
G01 X14.6 Y21.6 F900
M04  S252
G01 X14.8 Y21.6 F900
M04  S241
G01 X15.0 Y21.6 F900
M04  S74
G01 X15.2 Y21.6 F900
M05
G00 X16.4 Y21.6
M04  S48
G01 X16.6 Y21.6 F900
M04  S233
G01 X16.8 Y21.6 F900
M04  S255
G01 X17.2 Y21.6 F900
M04  S243
G01 X17.4 Y21.6 F900
M04  S81
G01 X17.6 Y21.6 F900
M04  S1
G01 X17.8 Y21.6 F900
M05
G00 X17.8 Y21.8
M04  S17
G01 X17.6 Y21.8 F900
M04  S198
G01 X17.4 Y21.8 F900
M04  S255
G01 X17.0 Y21.8 F900
M04  S251
G01 X16.8 Y21.8 F900
M04  S140
G01 X16.6 Y21.8 F900
M04  S2
G01 X16.4 Y21.8 F900
M05
G00 X15.2 Y21.8
M04  S129
G01 X15.0 Y21.8 F900
M04  S254
G01 X14.8 Y21.8 F900
M04  S242
G01 X14.6 Y21.8 F900
M04  S46
G01 X14.4 Y21.8 F900
M05
G00 X13.2 Y21.8
M04  S16
G01 X13.0 Y21.8 F900
M04  S191
G01 X12.8 Y21.8 F900
M04  S255
G01 X12.4 Y21.8 F900
M04  S223
G01 X12.2 Y21.8 F900
M04  S30
G01 X12.0 Y21.8 F900
M05
G00 X11.0 Y21.8
M04  S6
G01 X10.8 Y21.8 F900
M04  S144
G01 X10.6 Y21.8 F900
M04  S235
G01 X10.4 Y21.8 F900
M04  S179
G01 X10.2 Y21.8 F900
M04  S22
G01 X10.0 Y21.8 F900
M05
G00 X8.6 Y21.8
M04  S60
G01 X8.4 Y21.8 F900
M04  S237
G01 X8.2 Y21.8 F900
M04  S255
G01 X7.8 Y21.8 F900
M04  S241
G01 X7.6 Y21.8 F900
M04  S70
G01 X7.4 Y21.8 F900
M04  S1
G01 X7.2 Y21.8 F900
M05
G00 X7.2 Y22.0
M04  S13
G01 X7.4 Y22.0 F900
M04  S189
G01 X7.6 Y22.0 F900
M04  S254
G01 X7.8 Y22.0 F900
M04  S255
G01 X8.0 Y22.0 F900
M04  S252
G01 X8.2 Y22.0 F900
M04  S152
